(Generated with: DXF2GCODE, Version: Py3.7.4 PyQt5.13.2, Date: $Date$)
(Created from file: /home/lorenzo/Desktop/leone.dxf)
(Output format description: G-CODE for LinuxCNC)
(Time: Fri Dec  6 21:19:53 2019)
G21 (Units in millimeters)
G90 (Absolute programming)
G64 (Default cutting) G17 (XY plane) G40 (Cancel radius comp.) G49 (Cancel length comp.)
G00 Z0.0000

(*** LAYER: 0 ***)
T1 M6
S6000

(* SHAPE Nr: 0 *)
G00 X21.0075 Y36.8842
M3 M8
G00 Z0.0000
F150
G01 Z6.0000
F400
G01 X20.9772 Y36.9088
G01 X20.9516 Y36.9381
G01 X20.9314 Y36.9714
G01 X20.9114 Y37.0179
G01 X20.8964 Y37.0661
G01 X20.8866 Y37.1157
G01 X20.8736 Y37.2287
G01 X20.8673 Y37.3422
G01 X20.8651 Y37.5098
G01 X20.8651 Y38.2085
G01 X22.2773 Y38.4391
G01 X22.8182 Y38.5255
G01 X23.3597 Y38.6084
G01 X24.3350 Y38.7502
G01 X25.3113 Y38.8845
G01 X26.2886 Y39.0111
G01 X27.2669 Y39.1301
G01 X28.1534 Y39.2311
G01 X29.0406 Y39.3259
G01 X29.9284 Y39.4143
G01 X30.8169 Y39.4963
G01 X31.4119 Y39.5468
G01 X32.0073 Y39.5928
G01 X32.6031 Y39.6343
G01 X33.1037 Y39.6649
G01 X33.3343 Y39.6757
G01 X34.0481 Y39.6985
G01 X34.7620 Y39.7136
G01 X35.9099 Y39.7296
G01 X37.0578 Y39.7413
G01 X38.2058 Y39.7488
G01 X39.9752 Y39.7544
G01 X41.7447 Y39.7547
G01 X43.5142 Y39.7498
G01 X45.2836 Y39.7395
G01 X47.0530 Y39.7240
G01 X48.3514 Y39.7072
G01 X49.6498 Y39.6836
G01 X50.2587 Y39.6690
G01 X50.8133 Y39.6583
G01 X51.1420 Y39.6697
G01 X51.2349 Y39.6824
G01 X51.3258 Y39.7051
G01 X51.4100 Y39.7452
G01 X51.4598 Y39.7891
G01 X51.4961 Y39.8445
G01 X51.5242 Y39.9153
G01 X51.5421 Y39.9893
G01 X51.5703 Y40.1958
G01 X51.5927 Y40.3824
G01 X51.6238 Y40.5592
G01 X51.6602 Y40.7350
G01 X51.7019 Y40.9097
G01 X51.7815 Y41.2096
G01 X51.8670 Y41.5079
G01 X51.9585 Y41.8045
G01 X52.0672 Y42.1353
G01 X52.1815 Y42.4642
G01 X52.3013 Y42.7912
G01 X52.4267 Y43.1160
G01 X52.5575 Y43.4388
G01 X52.6386 Y43.6293
G01 X52.7231 Y43.8183
G01 X52.8110 Y44.0057
G01 X52.8858 Y44.1567
G01 X52.9313 Y44.2427
G01 X52.9796 Y44.3272
G01 X53.0676 Y44.4712
G01 X53.1597 Y44.6126
G01 X53.2559 Y44.7513
G01 X53.3560 Y44.8871
G01 X53.5034 Y45.0765
G01 X53.6550 Y45.2624
G01 X53.8109 Y45.4449
G01 X53.9709 Y45.6237
G01 X54.1783 Y45.8449
G01 X54.3909 Y46.0613
G01 X54.6084 Y46.2726
G01 X54.8308 Y46.4788
G01 X55.0579 Y46.6798
G01 X55.2897 Y46.8754
G01 X55.4598 Y47.0120
G01 X55.6332 Y47.1443
G01 X55.8099 Y47.2722
G01 X55.9897 Y47.3957
G01 X56.1349 Y47.4889
G01 X56.2833 Y47.5767
G01 X56.4348 Y47.6591
G01 X56.5051 Y47.6944
G01 X56.5763 Y47.7276
G01 X56.6759 Y47.7701
G01 X56.7771 Y47.8086
G01 X56.9426 Y47.8648
G01 X57.1101 Y47.9148
G01 X57.2793 Y47.9588
G01 X57.4500 Y47.9965
G01 X57.6516 Y48.0346
G01 X57.8540 Y48.0677
G01 X58.0572 Y48.0956
G01 X58.2611 Y48.1185
G01 X58.4654 Y48.1362
G01 X58.7300 Y48.1529
G01 X58.9950 Y48.1637
G01 X59.2600 Y48.1686
G01 X59.5252 Y48.1676
G01 X59.7902 Y48.1607
G01 X60.0912 Y48.1460
G01 X60.3918 Y48.1241
G01 X60.6917 Y48.0950
G01 X60.9908 Y48.0587
G01 X61.2890 Y48.0153
G01 X61.5861 Y47.9649
G01 X61.7788 Y47.9278
G01 X61.9708 Y47.8870
G01 X62.1619 Y47.8425
G01 X62.2735 Y47.8146
G01 X62.9112 Y47.6563
G01 X63.1655 Y47.6002
G01 X63.4217 Y47.5537
G01 X63.6057 Y47.5307
G01 X63.7909 Y47.5209
G01 X63.8902 Y47.5233
G01 X63.9891 Y47.5339
G01 X64.0867 Y47.5527
G01 X64.1694 Y47.5773
G01 X64.2487 Y47.6114
G01 X64.3261 Y47.6567
G01 X64.3971 Y47.7116
G01 X64.4604 Y47.7752
G01 X64.5227 Y47.8537
G01 X64.5773 Y47.9377
G01 X64.6236 Y48.0266
G01 X64.6941 Y48.1991
G01 X64.7488 Y48.3773
G01 X64.8102 Y48.6458
G01 X64.8558 Y48.9173
G01 X64.9060 Y49.3308
G01 X64.9419 Y49.7457
G01 X64.9818 Y50.4002
G01 X65.0104 Y51.0554
G01 X65.0635 Y52.7525
G01 X65.1137 Y55.0069
G01 X65.1198 Y55.8470
G01 X65.1122 Y56.6870
G01 X65.0997 Y57.1733
G01 X65.0788 Y57.6593
G01 X65.0495 Y58.1406
G01 X65.0112 Y58.6213
G01 X64.9641 Y59.1011
G01 X64.8935 Y59.7179
G01 X64.8147 Y60.3337
G01 X64.6932 Y61.1909
G01 X64.5711 Y61.9748
G01 X64.4389 Y62.7571
G01 X64.3114 Y63.4514
G01 X64.1729 Y64.1436
G01 X64.0235 Y64.8336
G01 X63.8632 Y65.5211
G01 X63.7336 Y66.0410
G01 X63.5961 Y66.5589
G01 X63.4509 Y67.0746
G01 X63.2979 Y67.5881
G01 X63.1372 Y68.0992
G01 X62.9774 Y68.5813
G01 X62.8101 Y69.0608
G01 X62.6351 Y69.5377
G01 X62.4527 Y70.0116
G01 X62.2628 Y70.4827
G01 X62.0655 Y70.9507
G01 X61.8393 Y71.4635
G01 X61.6045 Y71.9725
G01 X61.4784 Y72.2457
G01 X61.2984 Y72.6514
G01 X61.1237 Y73.0595
G01 X60.9544 Y73.4698
G01 X60.7905 Y73.8823
G01 X60.6320 Y74.2969
G01 X60.5593 Y74.4955
G01 X60.4898 Y74.6952
G01 X60.4609 Y74.7821
G01 X59.7925 Y76.7756
G01 X59.5425 Y77.5044
G01 X59.3680 Y78.0317
G01 X59.2820 Y78.3044
G01 X59.2008 Y78.5785
G01 X59.1243 Y78.8540
G01 X59.0729 Y79.0592
G01 X59.0281 Y79.2661
G01 X58.9901 Y79.4742
G01 X58.9664 Y79.6405
G01 X58.9503 Y79.8076
G01 X58.9449 Y79.8967
G01 X58.9418 Y79.9858
G01 X58.9408 Y80.0700
G01 X58.9320 Y80.3163
G01 X58.9196 Y80.4109
G01 X58.8963 Y80.5034
G01 X58.8565 Y80.5895
G01 X58.8146 Y80.6435
G01 X58.7630 Y80.6883
G01 X58.6837 Y80.7365
G01 X58.5985 Y80.7733
G01 X58.3448 Y80.8472
G01 X57.7758 Y80.9418
G01 X57.5060 Y80.9650
G01 X56.9187 Y80.9980
G01 X56.3309 Y81.0182
G01 X55.2972 Y81.0352
G01 X54.2634 Y81.0378
G01 X53.0554 Y81.0264
G01 X51.8477 Y81.0026
G01 X50.6402 Y80.9664
G01 X49.4332 Y80.9178
G01 X48.5038 Y80.8687
G01 X47.5751 Y80.8058
G01 X47.0564 Y80.7612
G01 X46.5388 Y80.7056
G01 X46.2303 Y80.6632
G01 X45.4424 Y80.5212
G01 X44.7381 Y80.3763
G01 X44.2494 Y80.2636
G01 X43.7636 Y80.1389
G01 X43.2810 Y80.0024
G01 X42.8620 Y79.8709
G01 X42.4473 Y79.7262
G01 X42.0374 Y79.5684
G01 X41.7422 Y79.4438
G01 X41.4511 Y79.3098
G01 X41.1645 Y79.1664
G01 X40.8827 Y79.0140
G01 X40.5948 Y78.8441
G01 X40.3144 Y78.6621
G01 X40.0419 Y78.4684
G01 X39.7566 Y78.2453
G01 X39.4826 Y78.0084
G01 X39.2545 Y77.7863
G01 X39.0889 Y77.5989
G01 X38.9900 Y77.4703
G01 X38.9004 Y77.3352
G01 X38.8204 Y77.1942
G01 X38.7597 Y77.0638
G01 X38.7113 Y76.9284
G01 X38.6754 Y76.7892
G01 X38.6560 Y76.6646
G01 X38.6493 Y76.5386
G01 X38.6605 Y76.3705
G01 X38.6824 Y76.2531
G01 X38.7157 Y76.1384
G01 X38.7657 Y76.0110
G01 X38.8267 Y75.8886
G01 X38.8981 Y75.7719
G01 X39.0261 Y75.6015
G01 X39.1991 Y75.4358
G01 X39.3275 Y75.3348
G01 X39.5935 Y75.1493
G01 X39.8674 Y74.9758
G01 X40.3248 Y74.7095
G01 X40.7901 Y74.4571
G01 X41.2739 Y74.2110
G01 X41.7632 Y73.9759
G01 X42.2578 Y73.7520
G01 X42.7573 Y73.5394
G01 X43.2095 Y73.3622
G01 X43.6677 Y73.2010
G01 X43.9369 Y73.1178
G01 X44.2000 Y73.0444
G01 X45.0884 Y72.7947
G01 X45.9760 Y72.5421
G01 X46.1792 Y72.4836
G01 X47.8428 Y72.0403
G01 X48.9059 Y71.7728
G01 X49.9712 Y71.5139
G01 X51.8870 Y71.1105
G01 X53.0367 Y70.8802
G01 X53.7217 Y70.7378
G01 X54.1055 Y70.6544
G01 X54.4883 Y70.5666
G01 X54.8337 Y70.4833
G01 X55.1782 Y70.3963
G01 X55.5217 Y70.3055
G01 X56.1552 Y70.1318
G01 X56.7873 Y69.9535
G01 X56.9534 Y69.9060
G01 X57.4573 Y69.7592
G01 X57.9599 Y69.6083
G01 X58.4614 Y69.4532
G01 X58.9006 Y69.3118
G01 X59.3376 Y69.1637
G01 X59.7723 Y69.0089
G01 X60.0267 Y68.9137
G01 X60.2794 Y68.8142
G01 X60.5304 Y68.7104
G01 X60.7796 Y68.6023
G01 X60.9803 Y68.5102
G01 X61.1787 Y68.4131
G01 X61.3746 Y68.3110
G01 X61.5679 Y68.2041
G01 X61.7327 Y68.1065
G01 X61.8938 Y68.0030
G01 X62.0511 Y67.8938
G01 X62.2045 Y67.7791
G01 X62.3328 Y67.6752
G01 X62.4566 Y67.5658
G01 X62.5757 Y67.4514
G01 X62.6716 Y67.3515
G01 X62.7637 Y67.2480
G01 X62.7891 Y67.2181
G01 X62.9022 Y67.0789
G01 X63.0110 Y66.9363
G01 X63.0645 Y66.8604
G01 X63.1145 Y66.7823
G01 X63.1609 Y66.7019
G01 X63.2080 Y66.6088
G01 X63.2488 Y66.5128
G01 X63.2831 Y66.4143
G01 X63.3106 Y66.3137
G01 X63.3392 Y66.1791
G01 X63.3609 Y66.0433
G01 X63.3757 Y65.9065
G01 X63.3928 Y65.6557
G01 X63.4023 Y65.4045
G01 X63.4078 Y65.0651
G01 X63.4088 Y64.7820
G01 X63.4065 Y64.4988
G01 X63.4024 Y64.3578
G01 X63.3941 Y64.2170
G01 X63.3815 Y64.0765
G01 X63.3701 Y63.9871
G01 X63.3546 Y63.8983
G01 X63.3352 Y63.8104
G01 X63.3081 Y63.7136
G01 X63.2746 Y63.6188
G01 X63.2349 Y63.5264
G01 X63.1893 Y63.4368
G01 X63.1229 Y63.3230
G01 X63.0512 Y63.2125
G01 X62.9744 Y63.1054
G01 X62.8308 Y62.9185
G01 X62.6836 Y62.7343
G01 X62.6192 Y62.6555
G01 X62.4950 Y62.5092
G01 X62.3657 Y62.3673
G01 X62.2316 Y62.2300
G01 X62.1053 Y62.1093
G01 X61.9750 Y61.9930
G01 X61.8407 Y61.8812
G01 X61.7027 Y61.7741
G01 X61.5612 Y61.6718
G01 X61.4162 Y61.5744
G01 X61.2679 Y61.4820
G01 X61.1149 Y61.3935
G01 X60.9593 Y61.3098
G01 X60.8012 Y61.2309
G01 X60.6407 Y61.1570
G01 X59.0062 Y60.4313
G01 X58.8301 Y60.3712
G01 X58.6522 Y60.3167
G01 X58.0681 Y60.1517
G01 X57.4818 Y59.9944
G01 X56.5936 Y59.7651
G01 X55.7041 Y59.5411
G01 X54.8132 Y59.3223
G01 X53.9211 Y59.1089
G01 X53.0277 Y58.9007
G01 X52.4420 Y58.7696
G01 X51.8549 Y58.6450
G01 X51.6186 Y58.5983
G01 X51.4442 Y58.5667
G01 X51.2693 Y58.5379
G01 X50.8489 Y58.4760
G01 X50.4275 Y58.4214
G01 X50.0052 Y58.3740
G01 X49.4828 Y58.3225
G01 X48.9600 Y58.2759
G01 X48.4368 Y58.2342
G01 X47.9132 Y58.1976
G01 X47.1050 Y58.1478
G01 X46.2965 Y58.1043
G01 X45.4877 Y58.0669
G01 X44.6787 Y58.0357
G01 X43.6209 Y58.0025
G01 X42.5629 Y57.9763
G01 X41.5047 Y57.9571
G01 X40.4465 Y57.9449
G01 X39.3882 Y57.9398
G01 X38.3298 Y57.9417
G01 X37.2716 Y57.9507
G01 X36.2134 Y57.9666
G01 X35.4113 Y57.9843
G01 X34.6093 Y58.0078
G01 X33.8075 Y58.0371
G01 X33.0060 Y58.0722
G01 X32.3132 Y58.1088
G01 X31.6210 Y58.1528
G01 X30.9292 Y58.2042
G01 X30.6042 Y58.2316
G01 X30.2794 Y58.2618
G01 X25.1528 Y58.7602
G01 X24.1308 Y58.8589
G01 X23.4259 Y58.9279
G01 X22.7213 Y58.9992
G01 X22.3075 Y59.0455
G01 X21.8946 Y59.0993
G01 X21.7423 Y59.1225
G01 X21.5907 Y59.1497
G01 X21.4399 Y59.1808
G01 X21.3481 Y59.2035
G01 X21.2575 Y59.2309
G01 X21.1685 Y59.2629
G01 X21.1125 Y59.2877
G01 X21.0591 Y59.3178
G01 X21.0088 Y59.3528
G01 X20.9745 Y59.3831
G01 X20.9446 Y59.4177
G01 X20.9224 Y59.4514
G01 X20.9044 Y59.4875
G01 X20.8911 Y59.5256
G01 X20.8776 Y59.5817
G01 X20.8690 Y59.6387
G01 X20.8651 Y59.6963
G01 X20.8640 Y59.8967
G01 X20.8651 Y60.8074
G01 X21.9635 Y60.6266
G01 X22.6716 Y60.5213
G01 X23.4336 Y60.4247
G01 X24.1967 Y60.3375
G01 X26.8622 Y60.0585
G01 X28.2973 Y59.9139
G01 X28.6470 Y59.8733
G01 X28.9959 Y59.8262
G01 X29.3438 Y59.7725
G01 X29.5069 Y59.7428
G01 X29.6688 Y59.7074
G01 X29.7133 Y59.6954
G01 X30.0498 Y59.6368
G01 X30.3981 Y59.6024
G01 X30.7472 Y59.5764
G01 X31.5200 Y59.5337
G01 X32.2934 Y59.5019
G01 X33.7636 Y59.4586
G01 X35.2341 Y59.4288
G01 X36.8866 Y59.4072
G01 X38.5392 Y59.3946
G01 X40.1918 Y59.3909
G01 X41.8445 Y59.3960
G01 X43.4971 Y59.4101
G01 X44.9735 Y59.4332
G01 X46.4497 Y59.4695
G01 X47.2301 Y59.4971
G01 X48.0101 Y59.5346
G01 X48.4119 Y59.5607
G01 X48.8130 Y59.5952
G01 X49.0298 Y59.6206
G01 X49.3562 Y59.6697
G01 X49.8853 Y59.7411
G01 X50.4153 Y59.8051
G01 X50.9461 Y59.8615
G01 X51.4777 Y59.9105
G01 X51.7376 Y59.9301
G01 X51.9456 Y59.9480
G01 X52.3353 Y59.9962
G01 X52.7231 Y60.0575
G01 X53.1058 Y60.1304
G01 X53.4861 Y60.2143
G01 X53.8639 Y60.3090
G01 X54.1884 Y60.4039
G01 X54.4407 Y60.4867
G01 X54.7859 Y60.5946
G01 X55.1329 Y60.6969
G01 X55.4814 Y60.7935
G01 X55.8315 Y60.8844
G01 X55.9922 Y60.9228
G01 X56.1538 Y60.9574
G01 X56.2211 Y60.9703
G01 X56.8322 Y61.0845
G01 X57.4414 Y61.2078
G01 X58.0002 Y61.3344
G01 X58.5548 Y61.4785
G01 X58.8608 Y61.5684
G01 X59.1637 Y61.6681
G01 X59.4632 Y61.7775
G01 X59.7584 Y61.8989
G01 X60.0475 Y62.0341
G01 X60.2657 Y62.1480
G01 X60.4793 Y62.2705
G01 X60.6879 Y62.4013
G01 X60.8911 Y62.5403
G01 X61.1835 Y62.7582
G01 X61.4666 Y62.9881
G01 X61.8053 Y63.2921
G01 X61.9244 Y63.4145
G01 X62.0341 Y63.5454
G01 X62.1389 Y63.7046
G01 X62.1998 Y63.8332
G01 X62.2443 Y63.9683
G01 X62.2795 Y64.1300
G01 X62.3009 Y64.2939
G01 X62.3214 Y64.6356
G01 X62.3253 Y65.1583
G01 X62.3149 Y65.3783
G01 X62.2912 Y65.5972
G01 X62.2581 Y65.7700
G01 X62.2077 Y65.9386
G01 X62.1616 Y66.0502
G01 X62.1044 Y66.1565
G01 X62.0368 Y66.2566
G01 X61.9595 Y66.3493
G01 X61.8695 Y66.4400
G01 X61.7734 Y66.5242
G01 X61.6716 Y66.6014
G01 X61.4714 Y66.7335
G01 X61.2638 Y66.8533
G01 X60.7632 Y67.1086
G01 X59.7822 Y67.5728
G01 X59.3737 Y67.7566
G01 X58.9612 Y67.9314
G01 X58.5656 Y68.0864
G01 X58.1653 Y68.2285
G01 X57.7606 Y68.3578
G01 X57.2001 Y68.5194
G01 X56.6360 Y68.6675
G01 X55.3093 Y68.9888
G01 X54.7992 Y69.1083
G01 X53.0792 Y69.5152
G01 X51.3606 Y69.9279
G01 X51.0956 Y69.9928
G01 X49.7390 Y70.3134
G01 X48.6370 Y70.5595
G01 X48.2500 Y70.6427
G01 X47.8322 Y70.7372
G01 X47.4159 Y70.8385
G01 X47.0013 Y70.9465
G01 X46.7887 Y71.0071
G01 X46.5780 Y71.0740
G01 X46.5058 Y71.1007
G01 X46.4930 Y71.1061
G01 X46.0463 Y71.2509
G01 X45.4686 Y71.4067
G01 X44.8878 Y71.5509
G01 X44.1273 Y71.7282
G01 X43.7251 Y71.8297
G01 X43.3246 Y71.9381
G01 X42.9261 Y72.0533
G01 X42.6031 Y72.1529
G01 X42.2820 Y72.2585
G01 X41.9629 Y72.3701
G01 X41.6460 Y72.4876
G01 X41.3313 Y72.6110
G01 X41.0857 Y72.7129
G01 X40.8423 Y72.8198
G01 X40.6011 Y72.9316
G01 X40.3623 Y73.0483
G01 X40.1259 Y73.1699
G01 X39.8888 Y73.2994
G01 X39.6556 Y73.4357
G01 X39.4264 Y73.5789
G01 X39.2016 Y73.7286
G01 X39.0188 Y73.8591
G01 X38.8406 Y73.9958
G01 X38.6673 Y74.1387
G01 X38.4991 Y74.2875
G01 X38.3640 Y74.4165
G01 X38.2344 Y74.5510
G01 X38.1105 Y74.6907
G01 X37.9926 Y74.8355
G01 X37.9146 Y74.9395
G01 X37.8410 Y75.0466
G01 X37.7716 Y75.1565
G01 X37.7068 Y75.2691
G01 X37.6465 Y75.3842
G01 X37.5956 Y75.4928
G01 X37.5499 Y75.6037
G01 X37.5097 Y75.7167
G01 X37.4750 Y75.8315
G01 X37.4458 Y75.9479
G01 X37.4225 Y76.0663
G01 X37.4059 Y76.1859
G01 X37.3958 Y76.3062
G01 X37.3925 Y76.4268
G01 X37.3948 Y76.5540
G01 X37.4019 Y76.6810
G01 X37.4136 Y76.8077
G01 X37.4300 Y76.9339
G01 X37.4535 Y77.0673
G01 X37.4840 Y77.1993
G01 X37.5215 Y77.3295
G01 X37.5609 Y77.4446
G01 X37.6058 Y77.5577
G01 X37.6561 Y77.6685
G01 X37.7115 Y77.7768
G01 X37.7918 Y77.9167
G01 X37.8788 Y78.0525
G01 X37.9723 Y78.1840
G01 X38.0720 Y78.3107
G01 X38.1860 Y78.4443
G01 X38.3041 Y78.5743
G01 X38.4263 Y78.7004
G01 X38.5524 Y78.8226
G01 X38.7008 Y78.9592
G01 X38.8518 Y79.0927
G01 X39.0055 Y79.2231
G01 X39.2672 Y79.4383
G01 X39.5310 Y79.6509
G01 X39.6732 Y79.7616
G01 X39.8181 Y79.8688
G01 X39.9656 Y79.9725
G01 X40.1227 Y80.0756
G01 X40.2839 Y80.1721
G01 X40.4490 Y80.2619
G01 X40.6176 Y80.3449
G01 X40.8268 Y80.4392
G01 X41.0387 Y80.5276
G01 X41.2529 Y80.6101
G01 X41.6774 Y80.7632
G01 X42.1042 Y80.9099
G01 X42.8387 Y81.1541
G01 X43.1844 Y81.2659
G01 X43.5314 Y81.3739
G01 X43.8796 Y81.4781
G01 X44.1763 Y81.5622
G01 X44.4744 Y81.6411
G01 X44.7739 Y81.7148
G01 X45.0613 Y81.7799
G01 X45.3500 Y81.8396
G01 X45.6397 Y81.8939
G01 X45.9304 Y81.9426
G01 X46.2219 Y81.9857
G01 X46.5818 Y82.0325
G01 X46.9424 Y82.0734
G01 X47.3036 Y82.1083
G01 X47.6653 Y82.1373
G01 X48.2381 Y82.1746
G01 X48.8114 Y82.2043
G01 X49.3850 Y82.2265
G01 X50.0784 Y82.2465
G01 X50.7718 Y82.2621
G01 X51.4653 Y82.2735
G01 X52.8738 Y82.2883
G01 X57.9994 Y82.3283
G01 X58.0657 Y82.8975
G01 X58.0663 Y83.1136
G01 X58.0516 Y83.2597
G01 X58.0057 Y83.5430
G01 X57.9469 Y83.8239
G01 X57.8247 Y84.3148
G01 X57.6884 Y84.8020
G01 X57.4516 Y85.5752
G01 X57.2002 Y86.3438
G01 X56.9218 Y87.1545
G01 X56.6350 Y87.9622
G01 X56.4236 Y88.5265
G01 X56.1705 Y89.1614
G01 X55.9068 Y89.7919
G01 X55.6325 Y90.4180
G01 X55.2292 Y91.3007
G01 X54.8132 Y92.1775
G01 X54.3846 Y93.0483
G01 X53.9329 Y93.9379
G01 X53.4720 Y94.8228
G01 X53.0019 Y95.7028
G01 X51.8703 Y97.7949
G01 X50.0185 Y97.8995
G01 X48.6707 Y97.9333
G01 X46.5531 Y97.9583
G01 X44.4354 Y97.9749
G01 X39.4757 Y97.9968
G01 X34.5159 Y98.0041
G01 X20.8651 Y98.0041
G01 X20.8651 Y98.5571
G01 X20.8655 Y98.5856
G01 X20.8714 Y98.6778
G01 X20.8847 Y98.7692
G01 X20.9053 Y98.8592
G01 X20.9330 Y98.9473
G01 X20.9569 Y99.0046
G01 X20.9864 Y99.0592
G01 X21.0214 Y99.1105
G01 X21.0429 Y99.1355
G01 X21.0674 Y99.1575
G01 X21.0945 Y99.1763
G01 X21.1101 Y99.1845
G01 X21.1266 Y99.1907
G01 X21.1367 Y99.1928
G01 X21.2353 Y99.2019
G01 X21.3342 Y99.2072
G01 X21.8495 Y99.2212
G01 X22.3649 Y99.2292
G01 X23.8578 Y99.2393
G01 X25.3507 Y99.2415
G01 X26.5075 Y99.2388
G01 X27.6644 Y99.2331
G01 X36.9741 Y99.1768
G01 X40.2169 Y99.1544
G01 X43.4597 Y99.1258
G01 X44.3269 Y99.1157
G01 X45.1941 Y99.1023
G01 X45.3915 Y99.0981
G01 X45.6990 Y99.1007
G01 X45.9737 Y99.1204
G01 X46.0890 Y99.1363
G01 X46.2028 Y99.1604
G01 X46.2840 Y99.1927
G01 X46.3035 Y99.2069
G01 X46.3395 Y99.2190
G01 X46.3768 Y99.2263
G01 X46.5251 Y99.2417
G01 X46.6739 Y99.2498
G01 X46.9330 Y99.2557
G01 X47.1921 Y99.2576
G01 X47.4513 Y99.2553
G01 X47.8345 Y99.2469
G01 X48.2177 Y99.2343
G01 X48.6007 Y99.2174
G01 X49.5614 Y99.1803
G01 X49.8756 Y99.1761
G01 X50.1898 Y99.1812
G01 X50.3533 Y99.1909
G01 X50.5160 Y99.2102
G01 X50.5986 Y99.2273
G01 X50.6787 Y99.2536
G01 X50.7169 Y99.2732
G01 X50.7504 Y99.3001
G01 X50.7704 Y99.3274
G01 X50.7805 Y99.3596
G01 X50.7414 Y99.5859
G01 X50.5803 Y100.1126
G01 X50.4391 Y100.5162
G01 X50.2891 Y100.9166
G01 X50.1846 Y101.1871
G01 X49.6941 Y102.4637
G01 X49.2061 Y103.7413
G01 X49.1060 Y104.0043
G01 X48.8145 Y104.7347
G01 X48.6937 Y105.0088
G01 X48.5626 Y105.2782
G01 X48.4696 Y105.4466
G01 X48.3656 Y105.6085
G01 X48.2848 Y105.7125
G01 X48.1929 Y105.8068
G01 X48.1324 Y105.8552
G01 X48.0661 Y105.8952
G01 X47.9747 Y105.9308
G01 X47.7110 Y105.9506
G01 X46.4936 Y105.9723
G01 X44.5177 Y105.9832
G01 X42.5417 Y105.9854
G01 X38.3655 Y105.9743
G01 X34.1893 Y105.9505
G01 X20.8651 Y105.8542
G01 X20.8651 Y106.5840
G01 X20.8651 Y107.3139
G01 X21.9635 Y107.3281
G01 X22.1983 Y107.3302
G01 X22.9700 Y107.3312
G01 X23.7418 Y107.3279
G01 X24.5136 Y107.3202
G01 X24.7355 Y107.3171
G01 X28.5297 Y107.2948
G01 X34.7332 Y107.2849
G01 X40.9366 Y107.2900
G01 X43.1214 Y107.3009
G01 X43.4168 Y107.3043
G01 X44.2322 Y107.3116
G01 X45.0477 Y107.3111
G01 X45.2419 Y107.3081
G01 X45.4359 Y107.3013
G01 X45.4686 Y107.2984
G01 X45.4738 Y107.2976
G01 X45.7631 Y107.2827
G01 X46.5453 Y107.2891
G01 X46.9151 Y107.3090
G01 X47.0364 Y107.3233
G01 X47.1563 Y107.3469
G01 X47.2291 Y107.3701
G01 X47.2976 Y107.4039
G01 X47.3549 Y107.4505
G01 X47.3845 Y107.4906
G01 X47.4053 Y107.5358
G01 X47.4227 Y107.5996
G01 X47.4316 Y107.6652
G01 X47.3917 Y107.9476
G01 X47.3179 Y108.1641
G01 X47.2358 Y108.3775
G01 X47.0339 Y108.8590
G01 X46.8210 Y109.3357
G01 X46.5239 Y109.9714
G01 X46.2188 Y110.6034
G01 X45.9060 Y111.2316
G01 X45.5855 Y111.8558
G01 X45.2573 Y112.4761
G01 X45.0063 Y112.9323
G01 X44.7463 Y113.3834
G01 X44.6001 Y113.6225
G01 X44.4461 Y113.8567
G01 X44.2349 Y114.1268
G01 X44.0838 Y114.2874
G01 X43.9949 Y114.3695
G01 X43.9005 Y114.4454
G01 X43.8012 Y114.5145
G01 X43.6956 Y114.5731
G01 X43.5832 Y114.6172
G01 X43.5220 Y114.6323
G01 X43.4593 Y114.6393
G01 X43.3963 Y114.6380
G01 X43.3358 Y114.6267
G01 X43.2786 Y114.6038
G01 X43.2271 Y114.5702
G01 X43.1832 Y114.5270
G01 X43.1432 Y114.4720
G01 X43.1110 Y114.4122
G01 X43.0871 Y114.3485
G01 X43.0596 Y114.2350
G01 X43.0450 Y114.1191
G01 X43.0375 Y113.8654
G01 X43.0268 Y113.7226
G01 X43.0185 Y113.6622
G01 X43.0059 Y113.6026
G01 X42.9889 Y113.5441
G01 X42.9757 Y113.5117
G01 X42.9582 Y113.4814
G01 X42.9367 Y113.4537
G01 X42.9188 Y113.4375
G01 X42.8978 Y113.4255
G01 X42.8697 Y113.4174
G01 X42.8406 Y113.4169
G01 X42.8042 Y113.4238
G01 X42.7693 Y113.4358
G01 X42.7364 Y113.4527
G01 X42.6786 Y113.4909
G01 X42.6237 Y113.5333
G01 X42.5722 Y113.5797
G01 X42.4882 Y113.6642
G01 X42.4072 Y113.7517
G01 X42.3294 Y113.8421
G01 X42.2202 Y113.9765
G01 X42.1138 Y114.1131
G01 X41.8993 Y114.3798
G01 X41.7975 Y114.4906
G01 X41.6871 Y114.5927
G01 X41.5531 Y114.6881
G01 X41.4464 Y114.7417
G01 X41.3334 Y114.7806
G01 X41.1832 Y114.8138
G01 X41.0304 Y114.8326
G01 X40.6674 Y114.8482
G01 X40.4430 Y114.8521
G01 X40.2105 Y114.8645
G01 X39.9783 Y114.8811
G01 X39.7464 Y114.9018
G01 X39.2947 Y114.9498
G01 X38.8437 Y115.0046
G01 X38.3936 Y115.0661
G01 X37.9445 Y115.1343
G01 X37.7063 Y115.1736
G01 X34.9250 Y115.6411
G01 X34.4408 Y115.7212
G01 X33.7931 Y115.8330
G01 X33.1461 Y115.9487
G01 X32.4998 Y116.0682
G01 X32.2669 Y116.1126
G01 X30.1862 Y116.4914
G01 X29.7423 Y116.5669
G01 X29.0188 Y116.6955
G01 X28.2960 Y116.8279
G01 X27.5738 Y116.9642
G01 X27.3624 Y117.0050
G01 X26.6843 Y117.1076
G01 X26.2181 Y117.1581
G01 X25.7126 Y117.2003
G01 X25.2064 Y117.2336
G01 X24.6998 Y117.2580
G01 X24.1928 Y117.2736
G01 X23.6856 Y117.2803
G01 X20.8655 Y117.2512
G01 X20.8653 Y117.8124
G01 X20.8690 Y117.9082
G01 X20.8800 Y118.0034
G01 X20.8982 Y118.0975
G01 X20.9141 Y118.1525
G01 X20.9355 Y118.2056
G01 X20.9621 Y118.2563
G01 X20.9933 Y118.3031
G01 X21.0295 Y118.3461
G01 X21.0702 Y118.3849
G01 X21.1149 Y118.4190
G01 X21.1711 Y118.4539
G01 X21.2298 Y118.4841
G01 X21.2908 Y118.5094
G01 X21.3358 Y118.5249
G01 X21.4024 Y118.5429
G01 X21.5039 Y118.5633
G01 X21.6061 Y118.5797
G01 X21.7089 Y118.5922
G01 X21.9353 Y118.6128
G01 X22.1622 Y118.6281
G01 X22.3894 Y118.6383
G01 X22.8087 Y118.6493
G01 X23.2281 Y118.6542
G01 X23.6475 Y118.6530
G01 X24.2587 Y118.6430
G01 X24.8696 Y118.6253
G01 X25.4804 Y118.6000
G01 X26.0907 Y118.5669
G01 X26.7006 Y118.5262
G01 X27.0707 Y118.4964
G01 X27.4403 Y118.4609
G01 X27.8094 Y118.4200
G01 X28.0062 Y118.3944
G01 X28.2023 Y118.3643
G01 X28.3978 Y118.3298
G01 X28.4901 Y118.3106
G01 X28.5817 Y118.2877
G01 X28.6723 Y118.2612
G01 X28.7071 Y118.2491
G01 X28.7411 Y118.2349
G01 X28.7614 Y118.2250
G01 X28.9546 Y118.1470
G01 X29.1034 Y118.0998
G01 X29.3949 Y118.0222
G01 X29.6891 Y117.9557
G01 X29.9857 Y117.9004
G01 X30.2106 Y117.8637
G01 X30.8219 Y117.7547
G01 X31.4322 Y117.6406
G01 X32.4183 Y117.4492
G01 X33.4033 Y117.2522
G01 X33.6268 Y117.2067
G01 X34.7131 Y116.9893
G01 X35.8014 Y116.7814
G01 X36.6645 Y116.6274
G01 X37.5299 Y116.4869
G01 X38.0487 Y116.4129
G01 X38.5690 Y116.3508
G01 X38.8874 Y116.3221
G01 X39.2066 Y116.3046
G01 X39.3866 Y116.3030
G01 X39.5664 Y116.3114
G01 X39.6671 Y116.3240
G01 X39.7661 Y116.3465
G01 X39.8157 Y116.3653
G01 X39.8611 Y116.3928
G01 X39.8906 Y116.4257
G01 X39.9022 Y116.4603
G01 X39.8588 Y116.5570
G01 X39.6050 Y116.9212
G01 X38.8127 Y117.9744
G01 X38.1784 Y118.7921
G01 X37.5368 Y119.6041
G01 X36.8880 Y120.4104
G01 X36.4271 Y120.9677
G01 X36.2855 Y121.1371
G01 X36.1837 Y121.2795
G01 X36.0874 Y121.4257
G01 X35.9820 Y121.5970
G01 X35.8805 Y121.7707
G01 X35.7831 Y121.9467
G01 X35.7375 Y122.0328
G01 X35.4137 Y122.6251
G01 X35.2009 Y122.9913
G01 X34.9812 Y123.3535
G01 X34.7547 Y123.7114
G01 X34.4827 Y124.1043
G01 X34.3728 Y124.2339
G01 X34.3399 Y124.2580
G01 X34.2827 Y124.2178
G01 X34.1833 Y124.0519
G01 X34.1103 Y123.8960
G01 X34.0452 Y123.7366
G01 X33.9955 Y123.6144
G01 X33.9403 Y123.4946
G01 X33.9111 Y123.4402
G01 X33.8780 Y123.3880
G01 X33.8412 Y123.3384
G01 X33.8172 Y123.3123
G01 X33.7902 Y123.2895
G01 X33.7604 Y123.2704
G01 X33.7319 Y123.2583
G01 X33.7016 Y123.2524
G01 X33.6706 Y123.2531
G01 X33.6405 Y123.2601
G01 X33.6026 Y123.2763
G01 X33.5670 Y123.2972
G01 X33.5345 Y123.3225
G01 X33.4819 Y123.3728
G01 X33.4329 Y123.4267
G01 X33.3877 Y123.4838
G01 X33.3165 Y123.5841
G01 X33.2487 Y123.6868
G01 X33.1842 Y123.7916
G01 X33.0941 Y123.9464
G01 X33.0066 Y124.1027
G01 X32.7769 Y124.5029
G01 X32.6005 Y124.7896
G01 X32.4169 Y125.0717
G01 X32.2509 Y125.3016
G01 X32.1555 Y125.4170
G01 X32.0949 Y125.4945
G01 X31.9657 Y125.6714
G01 X31.8427 Y125.8526
G01 X31.7261 Y126.0381
G01 X31.5577 Y126.3239
G01 X31.3958 Y126.6136
G01 X31.2407 Y126.9069
G01 X31.0358 Y127.3117
G01 X30.8362 Y127.7192
G01 X30.6421 Y128.1293
G01 X30.4036 Y128.6472
G01 X30.1693 Y129.1670
G01 X30.1095 Y129.3048
G01 X30.0525 Y129.4438
G01 X29.9616 Y129.6783
G01 X29.8751 Y129.9144
G01 X29.7931 Y130.1520
G01 X29.7156 Y130.3912
G01 X29.6200 Y130.7085
G01 X29.5317 Y131.0279
G01 X29.4506 Y131.3492
G01 X29.3769 Y131.6723
G01 X29.3316 Y131.8978
G01 X29.2930 Y132.1246
G01 X29.2610 Y132.3524
G01 X29.2464 Y132.4920
G01 X29.2376 Y132.6321
G01 X29.2359 Y132.7074
G01 X29.2304 Y132.9352
G01 X29.2082 Y133.0862
G01 X29.1784 Y133.1549
G01 X29.1435 Y133.1939
G01 X29.0982 Y133.2201
G01 X29.0378 Y133.2376
G01 X28.9754 Y133.2446
G01 X28.8575 Y133.2437
G01 X28.7401 Y133.2342
G01 X28.3443 Y133.1826
G01 X27.3227 Y133.0201
G01 X26.4894 Y132.8747
G01 X26.1823 Y132.8195
G01 X26.0595 Y132.8014
G01 X25.8385 Y132.7744
G01 X25.6169 Y132.7528
G01 X25.3949 Y132.7367
G01 X25.1725 Y132.7260
G01 X24.8454 Y132.7177
G01 X24.5181 Y132.7162
G01 X24.1909 Y132.7214
G01 X23.8639 Y132.7334
G01 X23.4629 Y132.7562
G01 X23.0623 Y132.7869
G01 X22.6625 Y132.8255
G01 X22.2634 Y132.8719
G01 X21.8654 Y132.9263
G01 X21.6496 Y132.9591
G01 X21.4955 Y132.9849
G01 X21.3419 Y133.0135
G01 X21.2729 Y133.0290
G01 X21.2048 Y133.0482
G01 X21.1379 Y133.0711
G01 X21.1010 Y133.0868
G01 X21.0656 Y133.1057
G01 X21.0321 Y133.1277
G01 X20.9997 Y133.1546
G01 X20.9714 Y133.1857
G01 X20.9476 Y133.2204
G01 X20.9288 Y133.2581
G01 X20.9086 Y133.3139
G01 X20.8937 Y133.3714
G01 X20.8841 Y133.4300
G01 X20.8723 Y133.5612
G01 X20.8670 Y133.6928
G01 X20.8651 Y133.9239
G01 X20.8672 Y134.1007
G01 X20.8733 Y134.2775
G01 X20.8819 Y134.3823
G01 X20.8978 Y134.4862
G01 X20.9071 Y134.5241
G01 X20.9202 Y134.5609
G01 X20.9369 Y134.5962
G01 X20.9506 Y134.6169
G01 X20.9679 Y134.6347
G01 X20.9886 Y134.6489
G01 X21.0118 Y134.6583
G01 X21.0366 Y134.6624
G01 X21.0698 Y134.6625
G01 X21.1027 Y134.6588
G01 X21.1351 Y134.6515
G01 X21.1836 Y134.6362
G01 X21.2312 Y134.6186
G01 X21.4876 Y134.5239
G01 X21.7043 Y134.4567
G01 X21.9243 Y134.4012
G01 X22.1470 Y134.3578
G01 X22.3782 Y134.3232
G01 X22.6105 Y134.2967
G01 X22.8436 Y134.2782
G01 X23.2972 Y134.2566
G01 X23.7511 Y134.2474
G01 X24.7355 Y134.2507
G01 X25.1752 Y134.2614
G01 X25.6146 Y134.2818
G01 X26.0534 Y134.3118
G01 X26.3948 Y134.3437
G01 X26.7352 Y134.3849
G01 X27.0743 Y134.4355
G01 X27.4118 Y134.4990
G01 X27.7457 Y134.5787
G01 X27.9685 Y134.6454
G01 X28.1864 Y134.7264
G01 X28.3238 Y134.7900
G01 X28.4548 Y134.8658
G01 X28.5373 Y134.9271
G01 X28.6104 Y134.9993
G01 X28.6486 Y135.0514
G01 X28.6767 Y135.1096
G01 X28.6933 Y135.1978
G01 X28.6516 Y135.9468
G01 X28.6184 Y136.2917
G01 X28.5843 Y136.4470
G01 X28.5499 Y136.5086
G01 X28.5317 Y136.5228
G01 X28.5094 Y136.5288
G01 X28.4865 Y136.5258
G01 X28.4042 Y136.4822
G01 X28.1651 Y136.2684
G01 X28.0880 Y136.1683
G01 X28.0226 Y136.0603
G01 X27.9945 Y135.9972
G01 X27.9755 Y135.9307
G01 X27.9680 Y135.8653
G01 X27.9550 Y135.8096
G01 X27.9381 Y135.7550
G01 X27.9174 Y135.7017
G01 X27.8677 Y135.5948
G01 X27.8124 Y135.4908
G01 X27.7514 Y135.3899
G01 X27.6851 Y135.2925
G01 X27.6592 Y135.2574
G01 X27.5953 Y135.1750
G01 X27.5295 Y135.0941
G01 X27.5002 Y135.0617
G01 X27.4684 Y135.0318
G01 X27.4341 Y135.0047
G01 X27.4101 Y134.9901
G01 X27.3840 Y134.9796
G01 X27.3567 Y134.9740
G01 X27.3289 Y134.9737
G01 X27.3015 Y134.9787
G01 X27.2638 Y134.9919
G01 X27.2278 Y135.0091
G01 X27.1940 Y135.0303
G01 X27.1053 Y135.0973
G01 X27.0208 Y135.1694
G01 X26.8156 Y135.3588
G01 X26.7654 Y135.4073
G01 X26.7166 Y135.4573
G01 X26.5875 Y135.5976
G01 X26.4628 Y135.7417
G01 X26.3424 Y135.8895
G01 X26.1279 Y136.1677
G01 X25.9197 Y136.4506
G01 X25.7178 Y136.7380
G01 X25.4861 Y137.0810
G01 X25.2592 Y137.4271
G01 X25.0371 Y137.7763
G01 X24.8198 Y138.1285
G01 X24.5854 Y138.5204
G01 X24.3566 Y138.9156
G01 X24.1334 Y139.3140
G01 X23.9159 Y139.7154
G01 X23.7976 Y139.9402
G01 X23.6817 Y140.1661
G01 X23.5949 Y140.3409
G01 X23.5107 Y140.5171
G01 X23.3797 Y140.8054
G01 X23.2553 Y141.0965
G01 X23.1376 Y141.3905
G01 X23.0267 Y141.6871
G01 X22.9226 Y141.9862
G01 X22.8253 Y142.2875
G01 X22.7350 Y142.5910
G01 X22.6517 Y142.8965
G01 X22.5917 Y143.1381
G01 X22.5372 Y143.3810
G01 X22.4884 Y143.6251
G01 X22.4453 Y143.8703
G01 X22.4077 Y144.1164
G01 X22.3790 Y144.3461
G01 X22.3574 Y144.5765
G01 X22.3430 Y144.8075
G01 X22.3389 Y144.9155
G01 X22.3369 Y145.0234
G01 X22.3259 Y145.2414
G01 X22.2972 Y145.4577
G01 X22.2720 Y145.5694
G01 X22.2361 Y145.6781
G01 X22.2120 Y145.7286
G01 X22.1803 Y145.7747
G01 X22.1439 Y145.8029
G01 X22.1204 Y145.8080
G01 X22.0761 Y145.7955
G01 X22.0386 Y145.7656
G01 X22.0096 Y145.7275
G01 X21.9693 Y145.6444
G01 X21.9419 Y145.5562
G01 X21.9189 Y145.4214
G01 X21.9112 Y145.2849
G01 X21.9081 Y145.1748
G01 X21.8991 Y145.0650
G01 X21.8913 Y145.0141
G01 X21.8791 Y144.9642
G01 X21.8626 Y144.9154
G01 X21.8448 Y144.8789
G01 X21.8212 Y144.8457
G01 X21.7994 Y144.8238
G01 X21.7743 Y144.8058
G01 X21.7465 Y144.7921
G01 X21.7170 Y144.7832
G01 X21.6693 Y144.7760
G01 X21.6212 Y144.7747
G01 X21.5732 Y144.7792
G01 X21.5021 Y144.7923
G01 X21.4319 Y144.8091
G01 X21.3626 Y144.8298
G01 X21.2789 Y144.8583
G01 X21.1960 Y144.8889
G01 X21.1600 Y144.9055
G01 X21.1246 Y144.9283
G01 X21.0932 Y144.9564
G01 X21.0667 Y144.9892
G01 X21.0378 Y145.0364
G01 X21.0141 Y145.0865
G01 X20.9957 Y145.1387
G01 X20.9718 Y145.2292
G01 X20.9530 Y145.3210
G01 X20.9392 Y145.4136
G01 X20.9214 Y145.5807
G01 X20.9083 Y145.7482
G01 X20.8997 Y145.9159
G01 X20.8870 Y146.3605
G01 X20.8820 Y146.8052
G01 X20.8818 Y147.2854
G01 X20.8840 Y147.7655
G01 X20.8906 Y148.3877
G01 X20.9020 Y149.0098
G01 X20.9128 Y149.3364
G01 X20.9308 Y149.6626
G01 X20.9426 Y149.7922
G01 X20.9610 Y149.9211
G01 X20.9705 Y149.9624
G01 X20.9850 Y150.0023
G01 X20.9905 Y150.0117
G01 X20.9982 Y150.0194
G01 X21.0057 Y150.0228
G01 X21.0139 Y150.0223
G01 X21.0209 Y150.0179
G01 X21.0352 Y150.0002
G01 X21.0462 Y149.9803
G01 X21.0716 Y149.9182
G01 X21.0931 Y149.8546
G01 X21.1017 Y149.8254
G01 X21.1475 Y149.6863
G01 X21.2036 Y149.5510
G01 X21.2696 Y149.4202
G01 X21.3296 Y149.3225
G01 X21.3980 Y149.2305
G01 X21.4745 Y149.1451
G01 X21.5322 Y149.0923
G01 X21.5953 Y149.0460
G01 X21.6631 Y149.0070
G01 X21.7362 Y148.9789
G01 X21.8133 Y148.9659
G01 X21.8674 Y148.9674
G01 X21.9202 Y148.9790
G01 X21.9698 Y149.0004
G01 X22.0146 Y149.0308
G01 X22.0688 Y149.0836
G01 X22.1137 Y149.1446
G01 X22.1840 Y149.3389
G01 X22.2381 Y149.5695
G01 X22.2833 Y149.8020
G01 X22.3510 Y150.2353
G01 X22.4040 Y150.6706
G01 X22.4349 Y150.9347
G01 X22.4763 Y151.2266
G01 X22.5224 Y151.5178
G01 X22.5732 Y151.8083
G01 X22.6287 Y152.0978
G01 X22.6870 Y152.3764
G01 X22.7502 Y152.6540
G01 X22.8182 Y152.9304
G01 X22.8728 Y153.1302
G01 X23.3032 Y154.5990
G01 X23.7397 Y156.0660
G01 X23.9572 Y156.7832
G01 X24.1794 Y157.4990
G01 X24.4063 Y158.2133
G01 X24.5494 Y158.6506
G01 X24.6975 Y159.0861
G01 X24.8506 Y159.5200
G01 X24.9468 Y159.7804
G01 X25.0478 Y160.0390
G01 X25.1537 Y160.2957
G01 X25.2218 Y160.4504
G01 X25.2944 Y160.6032
G01 X25.3713 Y160.7537
G01 X25.4193 Y160.8400
G01 X25.4707 Y160.9243
G01 X25.5255 Y161.0064
G01 X25.5811 Y161.0801
G01 X25.7051 Y161.2657
G01 X25.7795 Y161.4005
G01 X25.8780 Y161.6100
G01 X25.9621 Y161.8257
G01 X26.0117 Y161.9824
G01 X26.0561 Y162.1145
G01 X26.1050 Y162.2450
G01 X26.1583 Y162.3738
G01 X26.2158 Y162.5007
G01 X26.2485 Y162.5646
G01 X26.2848 Y162.6264
G01 X26.3003 Y162.6491
G01 X26.4707 Y162.9179
G01 X26.5863 Y163.1225
G01 X26.8287 Y163.5825
G01 X27.0615 Y164.0474
G01 X27.3834 Y164.7199
G01 X27.6953 Y165.3971
G01 X27.9972 Y166.0787
G01 X28.2889 Y166.7648
G01 X28.5458 Y167.4053
G01 X28.8834 Y168.2993
G01 X29.1630 Y169.0320
G01 X29.2906 Y169.3561
G01 X29.4234 Y169.6782
G01 X29.4688 Y169.7797
G01 X29.5187 Y169.8791
G01 X29.5336 Y169.9037
G01 X29.5512 Y169.9264
G01 X29.5604 Y169.9328
G01 X29.5669 Y169.9325
G01 X29.5711 Y169.9275
G01 X29.5742 Y169.9124
G01 X29.5749 Y169.8971
G01 X29.5706 Y169.8249
G01 X29.5620 Y169.7530
G01 X29.5294 Y169.5530
G01 X29.4990 Y169.3904
G01 X29.4655 Y169.2284
G01 X29.4016 Y168.9460
G01 X29.3325 Y168.6648
G01 X29.2582 Y168.3849
G01 X29.1788 Y168.1065
G01 X29.0532 Y167.6929
G01 X28.9210 Y167.2813
G01 X28.7824 Y166.8719
G01 X28.6373 Y166.4647
G01 X28.4703 Y166.0166
G01 X28.2974 Y165.5708
G01 X28.1186 Y165.1273
G01 X27.9341 Y164.6861
G01 X27.7438 Y164.2475
G01 X27.5477 Y163.8113
G01 X27.3459 Y163.3778
G01 X27.1384 Y162.9470
G01 X26.9860 Y162.6403
G01 X26.8301 Y162.3353
G01 X26.7194 Y162.1117
G01 X26.5225 Y161.6762
G01 X26.3397 Y161.2347
G01 X26.1459 Y160.7331
G01 X25.9604 Y160.2284
G01 X25.7830 Y159.7208
G01 X25.5700 Y159.0814
G01 X25.3654 Y158.4393
G01 X25.1691 Y157.7946
G01 X24.9813 Y157.1474
G01 X24.8019 Y156.4977
G01 X24.6310 Y155.8458
G01 X24.4540 Y155.1169
G01 X24.2941 Y154.3841
G01 X24.2225 Y154.0161
G01 X24.1593 Y153.6467
G01 X24.0629 Y152.9266
G01 X24.0089 Y152.4258
G01 X23.9646 Y151.9241
G01 X23.9300 Y151.4216
G01 X23.9051 Y150.9186
G01 X23.8905 Y150.4367
G01 X23.8850 Y149.9546
G01 X23.8909 Y149.3660
G01 X23.9050 Y148.9100
G01 X23.9275 Y148.4543
G01 X23.9585 Y147.9991
G01 X23.9978 Y147.5446
G01 X24.0454 Y147.0908
G01 X24.1015 Y146.6380
G01 X24.1655 Y146.1910
G01 X24.2386 Y145.7453
G01 X24.3207 Y145.3012
G01 X24.4117 Y144.8589
G01 X24.5116 Y144.4185
G01 X24.6204 Y143.9802
G01 X24.7380 Y143.5442
G01 X24.8579 Y143.1338
G01 X24.9865 Y142.7261
G01 X25.1239 Y142.3212
G01 X25.2700 Y141.9194
G01 X25.4246 Y141.5209
G01 X25.7160 Y140.8341
G01 X25.7289 Y140.8052
G01 X25.8767 Y140.4686
G01 X26.0199 Y140.1300
G01 X26.1586 Y139.7896
G01 X26.2245 Y139.6167
G01 X26.2850 Y139.4419
G01 X26.2957 Y139.4046
G01 X26.3037 Y139.3666
G01 X26.3045 Y139.3576
G01 X26.3526 Y139.2212
G01 X26.4339 Y139.0844
G01 X26.5238 Y138.9531
G01 X26.6861 Y138.7399
G01 X26.8563 Y138.5329
G01 X27.0342 Y138.3325
G01 X27.2195 Y138.1390
G01 X27.3279 Y138.0359
G01 X27.4420 Y137.9392
G01 X27.5458 Y137.8718
G01 X27.5821 Y137.8592
G01 X27.6459 Y137.8662
G01 X27.7111 Y137.8940
G01 X27.7696 Y137.9339
G01 X27.8590 Y138.0184
G01 X27.9375 Y138.1132
G01 X28.0192 Y138.2320
G01 X28.0939 Y138.3553
G01 X28.1615 Y138.4827
G01 X28.2508 Y138.6741
G01 X28.3310 Y138.8695
G01 X28.4021 Y139.0684
G01 X28.4639 Y139.2704
G01 X28.5163 Y139.4750
G01 X28.5591 Y139.6818
G01 X28.5865 Y139.8646
G01 X28.6025 Y140.0487
G01 X28.6085 Y140.2759
G01 X28.6208 Y140.4861
G01 X28.6371 Y140.6959
G01 X28.6574 Y140.9055
G01 X28.7054 Y141.3336
G01 X28.7578 Y141.7611
G01 X28.8148 Y142.1881
G01 X28.9001 Y142.7847
G01 X28.9906 Y143.3805
G01 X29.0863 Y143.9754
G01 X29.1871 Y144.5696
G01 X29.2930 Y145.1628
G01 X29.3590 Y145.5117
G01 X29.4292 Y145.8597
G01 X29.5036 Y146.2069
G01 X29.5521 Y146.4145
G01 X29.6058 Y146.6209
G01 X29.6334 Y146.7158
G01 X30.2580 Y148.7741
G01 X30.3557 Y149.0927
G01 X30.5088 Y149.5669
G01 X30.6687 Y150.0388
G01 X30.8352 Y150.5085
G01 X31.0084 Y150.9757
G01 X31.0696 Y151.1340
G01 X31.1330 Y151.2915
G01 X31.1581 Y151.3520
G01 X31.2929 Y151.6646
G01 X31.5182 Y152.1680
G01 X31.7480 Y152.6693
G01 X31.9825 Y153.1685
G01 X32.4566 Y154.1570
G01 X32.9378 Y155.1421
G01 X33.4260 Y156.1236
G01 X33.9212 Y157.1017
G01 X34.4234 Y158.0762
G01 X34.6644 Y158.5349
G01 X34.9094 Y158.9916
G01 X35.1581 Y159.4462
G01 X35.3211 Y159.7333
G01 X35.4904 Y160.0168
G01 X35.5555 Y160.1184
G01 X36.4164 Y161.4152
G01 X36.4957 Y161.5372
G01 X37.4788 Y163.0482
G01 X37.7077 Y163.4105
G01 X37.9598 Y163.8304
G01 X38.2045 Y164.2547
G01 X38.4417 Y164.6832
G01 X38.7498 Y165.2631
G01 X39.0480 Y165.8481
G01 X39.3363 Y166.4381
G01 X39.6145 Y167.0328
G01 X39.8827 Y167.6322
G01 X40.0591 Y168.0463
G01 X40.2278 Y168.4637
G01 X40.3885 Y168.8841
G01 X40.5383 Y169.3113
G01 X40.5903 Y169.4723
G01 X40.7029 Y169.8079
G01 X40.8226 Y170.1410
G01 X40.9494 Y170.4715
G01 X41.0047 Y170.6061
G01 X41.0635 Y170.7392
G01 X41.1257 Y170.8708
G01 X41.1612 Y170.9371
G01 X41.2017 Y171.0005
G01 X41.2154 Y171.0174
G01 X41.2419 Y171.0423
G01 X41.2711 Y171.0641
G01 X41.2818 Y171.0694
G01 X41.2935 Y171.0718
G01 X41.3032 Y171.0704
G01 X41.3113 Y171.0650
G01 X41.3163 Y171.0566
G01 X41.3210 Y171.0364
G01 X41.3219 Y171.0157
G01 X41.3158 Y170.9482
G01 X41.3035 Y170.8815
G01 X41.2812 Y170.7928
G01 X41.2560 Y170.7049
G01 X40.9874 Y169.7049
G01 X40.7722 Y168.8482
G01 X40.6625 Y168.4122
G01 X40.5835 Y168.1266
G01 X40.4986 Y167.8426
G01 X40.3947 Y167.5183
G01 X40.2848 Y167.1960
G01 X40.1689 Y166.8758
G01 X40.0470 Y166.5579
G01 X39.9191 Y166.2422
G01 X39.7376 Y165.8160
G01 X39.5488 Y165.3929
G01 X39.3528 Y164.9730
G01 X39.1497 Y164.5566
G01 X38.8992 Y164.0615
G01 X38.6427 Y163.5696
G01 X38.3802 Y163.0808
G01 X38.1116 Y162.5953
G01 X37.7355 Y161.9322
G01 X37.3532 Y161.2727
G01 X36.9648 Y160.6167
G01 X36.5800 Y159.9783
G01 X36.1018 Y159.1779
G01 X35.6353 Y158.3706
G01 X35.1805 Y157.5566
G01 X34.8123 Y156.8735
G01 X34.4549 Y156.1847
G01 X34.1083 Y155.4903
G01 X33.7727 Y154.7907
G01 X33.5387 Y154.2831
G01 X33.3120 Y153.7722
G01 X33.0927 Y153.2580
G01 X32.8809 Y152.7408
G01 X32.6766 Y152.2205
G01 X32.4900 Y151.7222
G01 X32.3120 Y151.2208
G01 X32.1426 Y150.7163
G01 X31.9821 Y150.2090
G01 X31.8302 Y149.6990
G01 X31.6828 Y149.1661
G01 X31.5470 Y148.6301
G01 X31.4228 Y148.0913
G01 X31.3179 Y147.5862
G01 X31.2883 Y147.4375
G01 X31.1978 Y147.0076
G01 X31.1009 Y146.5790
G01 X30.9976 Y146.1520
G01 X30.9592 Y146.0052
G01 X30.9177 Y145.8593
G01 X30.9018 Y145.8080
G01 X30.8591 Y145.6624
G01 X30.7907 Y145.3774
G01 X30.7347 Y145.0897
G01 X30.6532 Y144.5666
G01 X30.5884 Y144.0412
G01 X30.5349 Y143.4979
G01 X30.4909 Y142.9537
G01 X30.4565 Y142.4088
G01 X30.4318 Y141.8634
G01 X30.4166 Y141.3177
G01 X30.4185 Y140.4568
G01 X30.4331 Y140.0812
G01 X30.4506 Y139.8360
G01 X30.4780 Y139.5916
G01 X30.4991 Y139.4645
G01 X30.5286 Y139.3391
G01 X30.5717 Y139.2292
G01 X30.6082 Y139.1835
G01 X30.6280 Y139.1723
G01 X30.6903 Y139.1637
G01 X30.7405 Y139.1741
G01 X30.7875 Y139.1967
G01 X30.8295 Y139.2276
G01 X30.8653 Y139.2655
G01 X30.9053 Y139.3245
G01 X30.9370 Y139.3884
G01 X30.9597 Y139.4559
G01 X30.9705 Y139.4884
G01 X30.9743 Y139.4906
G01 X30.9779 Y139.4880
G01 X30.9867 Y139.4560
G01 X31.0007 Y139.3465
G01 X31.0098 Y139.2365
G01 X31.0317 Y138.8063
G01 X31.0463 Y138.3759
G01 X31.0590 Y137.7971
G01 X31.0680 Y137.2183
G01 X31.0734 Y136.6394
G01 X31.0831 Y135.8757
G01 X31.1027 Y135.1121
G01 X31.1219 Y134.6389
G01 X31.1493 Y134.1660
G01 X31.1848 Y133.6937
G01 X31.2206 Y133.3227
G01 X31.2658 Y132.9528
G01 X31.3203 Y132.5842
G01 X31.3795 Y132.2562
G01 X31.4509 Y131.9306
G01 X31.5344 Y131.6079
G01 X31.6280 Y131.3018
G01 X31.7368 Y131.0008
G01 X31.8578 Y130.7121
G01 X31.9934 Y130.4298
G01 X32.1639 Y130.1174
G01 X32.2189 Y130.0221
G01 X32.3906 Y129.7161
G01 X32.5568 Y129.4072
G01 X32.7176 Y129.0954
G01 X32.7770 Y128.9729
G01 X32.8328 Y128.8486
G01 X32.8484 Y128.8099
G01 X32.8963 Y128.7057
G01 X32.9588 Y128.6096
G01 X33.0027 Y128.5595
G01 X33.0533 Y128.5163
G01 X33.1096 Y128.4808
G01 X33.1629 Y128.4590
G01 X33.2194 Y128.4481
G01 X33.2649 Y128.4482
G01 X33.3097 Y128.4564
G01 X33.3523 Y128.4726
G01 X33.3913 Y128.4962
G01 X33.4454 Y128.5441
G01 X33.4899 Y128.6010
G01 X33.5228 Y128.7268
G01 X33.5791 Y129.2336
G01 X33.6303 Y129.8985
G01 X33.6729 Y130.5640
G01 X33.7211 Y131.5024
G01 X33.7306 Y131.7018
G01 X33.7581 Y132.2019
G01 X33.7911 Y132.7016
G01 X33.8294 Y133.2010
G01 X33.8732 Y133.6999
G01 X33.9013 Y133.9792
G01 X33.9336 Y134.2582
G01 X33.9700 Y134.5365
G01 X33.9958 Y134.6999
G01 X34.0278 Y134.8621
G01 X34.0416 Y134.9168
G01 X34.1278 Y135.2400
G01 X34.1948 Y135.5335
G01 X34.2218 Y135.7105
G01 X34.2206 Y135.7539
G01 X34.2204 Y136.1066
G01 X34.2245 Y136.4594
G01 X34.2328 Y136.8121
G01 X34.2411 Y137.0088
G01 X34.2542 Y137.2052
G01 X34.2665 Y137.3140
G01 X34.2858 Y137.4218
G01 X34.2986 Y137.4658
G01 X34.3176 Y137.5075
G01 X34.3267 Y137.5203
G01 X34.3385 Y137.5306
G01 X34.3531 Y137.5367
G01 X34.3689 Y137.5365
G01 X34.3833 Y137.5300
G01 X34.4138 Y137.5041
G01 X34.4400 Y137.4739
G01 X34.4636 Y137.4397
G01 X34.4751 Y137.4178
G01 X34.5006 Y137.3467
G01 X34.5193 Y137.2735
G01 X34.5451 Y137.1366
G01 X34.5664 Y136.9989
G01 X34.5832 Y136.8606
G01 X34.6098 Y136.5824
G01 X34.6309 Y136.3037
G01 X34.6467 Y136.0247
G01 X34.6587 Y135.7204
G01 X34.6663 Y135.4160
G01 X34.6695 Y135.1116
G01 X34.6696 Y135.0779
G01 X34.6977 Y133.8680
G01 X34.7356 Y133.0347
G01 X34.7874 Y132.2029
G01 X34.8532 Y131.3721
G01 X35.0077 Y129.9975
G01 X35.0700 Y129.5690
G01 X35.1457 Y129.1426
G01 X35.2016 Y128.8777
G01 X35.2663 Y128.6148
G01 X35.3398 Y128.3542
G01 X35.4219 Y128.0963
G01 X35.5387 Y127.7624
G01 X35.6631 Y127.4313
G01 X36.1119 Y126.3949
G01 X36.6430 Y125.2420
G01 X37.1825 Y124.0930
G01 X37.7304 Y122.9480
G01 X38.0113 Y122.3786
G01 X38.1907 Y122.0454
G01 X38.3459 Y121.7930
G01 X38.5109 Y121.5469
G01 X38.6854 Y121.3075
G01 X38.8477 Y121.1014
G01 X39.0171 Y120.9011
G01 X39.1934 Y120.7069
G01 X39.3528 Y120.5473
G01 X39.5214 Y120.3974
G01 X39.6194 Y120.3224
G01 X39.7237 Y120.2564
G01 X39.7800 Y120.2296
G01 X39.8398 Y120.2116
G01 X39.8961 Y120.2117
G01 X39.9286 Y120.2273
G01 X39.9676 Y120.3287
G01 X39.9757 Y120.4494
G01 X39.9744 Y120.5703
G01 X39.9556 Y120.8306
G01 X39.9253 Y121.0898
G01 X39.8733 Y121.4211
G01 X39.8102 Y121.7505
G01 X39.7332 Y122.1293
G01 X39.6604 Y122.5089
G01 X39.5559 Y123.0876
G01 X39.4577 Y123.6675
G01 X39.3657 Y124.2484
G01 X39.2800 Y124.8302
G01 X39.1897 Y125.4914
G01 X39.1060 Y126.1534
G01 X39.0288 Y126.8162
G01 X38.9583 Y127.4797
G01 X38.8945 Y128.1440
G01 X38.8372 Y128.8088
G01 X38.7866 Y129.4741
G01 X38.7531 Y129.9870
G01 X38.7254 Y130.5001
G01 X38.7035 Y131.0136
G01 X38.6874 Y131.5272
G01 X38.6812 Y131.8434
G01 X38.6789 Y132.1595
G01 X38.6789 Y132.2648
G01 X38.6819 Y132.5538
G01 X38.6892 Y132.8428
G01 X38.7008 Y133.1317
G01 X38.7144 Y133.3594
G01 X38.7338 Y133.5866
G01 X38.7588 Y133.8134
G01 X38.7740 Y133.9244
G01 X38.7921 Y134.0349
G01 X38.8028 Y134.0924
G01 X38.8334 Y134.2398
G01 X38.8677 Y134.3865
G01 X38.8839 Y134.4426
G01 X38.9048 Y134.4971
G01 X38.9140 Y134.5135
G01 X38.9265 Y134.5275
G01 X38.9341 Y134.5314
G01 X38.9425 Y134.5307
G01 X38.9494 Y134.5258
G01 X38.9598 Y134.5101
G01 X38.9674 Y134.4930
G01 X38.9888 Y134.4212
G01 X39.0042 Y134.3480
G01 X39.0379 Y134.1241
G01 X39.0647 Y133.8993
G01 X39.1152 Y133.3868
G01 X39.1610 Y132.8738
G01 X39.2249 Y132.1049
G01 X39.3565 Y130.6011
G01 X39.4233 Y129.9527
G01 X39.5025 Y129.3058
G01 X39.5601 Y128.9032
G01 X39.6262 Y128.5020
G01 X39.7008 Y128.1023
G01 X39.7840 Y127.7042
G01 X39.9176 Y127.1207
G01 X40.0611 Y126.5395
G01 X40.3011 Y125.6195
G01 X40.5444 Y124.7456
G01 X40.7275 Y124.1627
G01 X40.8855 Y123.7216
G01 X41.0598 Y123.2868
G01 X41.2486 Y122.8516
G01 X41.4455 Y122.4201
G01 X41.7354 Y121.8069
G01 X41.7957 Y121.6678
G01 X41.8511 Y121.5267
G01 X41.9015 Y121.3836
G01 X41.9468 Y121.2389
G01 X41.9733 Y121.1347
G01 X41.9920 Y121.0288
G01 X41.9950 Y120.9894
G01 X41.9950 Y120.9848
G01 X41.9996 Y120.9245
G01 X42.0131 Y120.8657
G01 X42.0352 Y120.8094
G01 X42.0676 Y120.7606
G01 X42.1118 Y120.7223
G01 X42.1647 Y120.7037
G01 X42.1896 Y120.6998
G01 X42.2178 Y120.6810
G01 X42.2417 Y120.6570
G01 X42.2822 Y120.6042
G01 X42.3197 Y120.5492
G01 X42.3539 Y120.4921
G01 X42.4274 Y120.3562
G01 X42.4967 Y120.2180
G01 X42.5617 Y120.0777
G01 X42.6479 Y119.8774
G01 X42.7296 Y119.6752
G01 X42.8066 Y119.4712
G01 X43.0108 Y118.9510
G01 X43.0940 Y118.7637
G01 X43.1845 Y118.5798
G01 X43.2851 Y118.3951
G01 X43.3937 Y118.2149
G01 X43.5100 Y118.0397
G01 X43.7298 Y117.7395
G01 X43.9636 Y117.4502
G01 X44.2931 Y117.0716
G01 X44.6319 Y116.7013
G01 X45.5029 Y115.7867
G01 X45.8134 Y115.4719
G01 X46.1303 Y115.1634
G01 X46.3898 Y114.9254
G01 X46.6586 Y114.6980
G01 X46.8432 Y114.5571
G01 X47.0359 Y114.4277
G01 X47.1821 Y114.3453
G01 X47.3355 Y114.2771
G01 X47.4381 Y114.2441
G01 X47.5440 Y114.2234
G01 X47.6299 Y114.2177
G01 X47.7277 Y114.2333
G01 X47.7776 Y114.2616
G01 X47.8011 Y114.2877
G01 X47.8174 Y114.3188
G01 X47.8329 Y114.3774
G01 X47.8362 Y114.4379
G01 X47.8256 Y114.5406
G01 X47.8038 Y114.6416
G01 X47.7479 Y114.8228
G01 X47.6809 Y115.0001
G01 X47.5557 Y115.2899
G01 X47.4215 Y115.5756
G01 X47.1533 Y116.1088
G01 X47.0361 Y116.3399
G01 X46.8710 Y116.6784
G01 X46.7107 Y117.0193
G01 X46.5552 Y117.3624
G01 X46.4045 Y117.7076
G01 X46.2588 Y118.0549
G01 X46.1853 Y118.2383
G01 X46.1152 Y118.4229
G01 X46.0851 Y118.5064
G01 X45.8251 Y119.2257
G01 X45.5996 Y119.8227
G01 X45.4754 Y120.1290
G01 X45.4144 Y120.2885
G01 X45.3251 Y120.5377
G01 X45.2408 Y120.7887
G01 X45.1615 Y121.0414
G01 X45.0873 Y121.2955
G01 X44.9874 Y121.6627
G01 X44.8935 Y122.0314
G01 X44.8057 Y122.4016
G01 X44.7240 Y122.7732
G01 X44.6340 Y123.2119
G01 X44.5492 Y123.6516
G01 X44.4698 Y124.0923
G01 X44.3956 Y124.5340
G01 X44.3267 Y124.9765
G01 X44.2486 Y125.5177
G01 X44.1762 Y126.0598
G01 X44.1094 Y126.6026
G01 X44.0484 Y127.1460
G01 X43.9931 Y127.6901
G01 X43.9435 Y128.2347
G01 X43.8962 Y128.8246
G01 X43.8557 Y129.4150
G01 X43.8220 Y130.0059
G01 X43.7950 Y130.5971
G01 X43.7748 Y131.1885
G01 X43.7641 Y131.6701
G01 X43.7592 Y132.1519
G01 X43.7589 Y132.3219
G01 X43.7630 Y132.8343
G01 X43.7749 Y133.3466
G01 X43.7946 Y133.8587
G01 X43.8138 Y134.2132
G01 X43.8390 Y134.5673
G01 X43.8699 Y134.9210
G01 X43.9068 Y135.2741
G01 X43.9359 Y135.5126
G01 X43.9693 Y135.7506
G01 X44.0928 Y136.6398
G01 X44.1716 Y137.2926
G01 X44.2407 Y137.9466
G01 X44.2708 Y138.2961
G01 X44.2926 Y138.6463
G01 X44.2997 Y138.9176
G01 X44.3118 Y139.0991
G01 X44.3287 Y139.2803
G01 X44.3503 Y139.4610
G01 X44.3922 Y139.7463
G01 X44.4417 Y140.0304
G01 X44.4987 Y140.3131
G01 X44.5632 Y140.5941
G01 X44.6153 Y140.7937
G01 X45.2053 Y142.9597
G01 X45.2846 Y143.2567
G01 X45.3708 Y143.5602
G01 X45.4644 Y143.8615
G01 X45.5655 Y144.1603
G01 X45.6100 Y144.2809
G01 X45.6580 Y144.4001
G01 X45.7095 Y144.5179
G01 X45.7388 Y144.5757
G01 X45.7727 Y144.6309
G01 X45.7853 Y144.6469
G01 X45.8235 Y144.6846
G01 X45.8647 Y144.7190
G01 X45.8870 Y144.7323
G01 X45.9117 Y144.7403
G01 X45.9270 Y144.7398
G01 X45.9405 Y144.7327
G01 X45.9496 Y144.7205
G01 X45.9582 Y144.6943
G01 X45.9619 Y144.6669
G01 X45.9611 Y144.5880
G01 X45.9525 Y144.5095
G01 X45.9313 Y144.3893
G01 X45.9067 Y144.2699
G01 X45.8785 Y144.1511
G01 X45.8244 Y143.9439
G01 X45.7670 Y143.7376
G01 X45.6792 Y143.3542
G01 X45.6251 Y143.0667
G01 X45.5095 Y142.3641
G01 X45.4051 Y141.6597
G01 X45.2210 Y140.2986
G01 X45.0496 Y138.9358
G01 X44.7068 Y135.9752
G01 X44.6627 Y135.5093
G01 X44.6227 Y134.9136
G01 X44.5966 Y134.3171
G01 X44.5843 Y133.7202
G01 X44.5827 Y133.0875
G01 X44.5893 Y132.4548
G01 X44.6042 Y131.8222
G01 X44.6272 Y131.1898
G01 X44.6585 Y130.5579
G01 X44.6980 Y129.9263
G01 X44.7457 Y129.2954
G01 X44.8042 Y128.6429
G01 X44.8724 Y127.9913
G01 X44.9503 Y127.3408
G01 X45.0450 Y126.6674
G01 X45.1569 Y125.9966
G01 X45.2405 Y125.5696
G01 X45.3371 Y125.1453
G01 X45.4164 Y124.8487
G01 X45.5089 Y124.5558
G01 X45.5681 Y124.3973
G01 X45.6364 Y124.2426
G01 X45.6942 Y124.1342
G01 X45.7640 Y124.0203
G01 X45.8062 Y123.9421
G01 X45.8441 Y123.8617
G01 X45.8777 Y123.7794
G01 X45.8968 Y123.7216
G01 X45.9111 Y123.6624
G01 X45.9205 Y123.6023
G01 X45.9218 Y123.5730
G01 X45.9190 Y123.5437
G01 X45.9121 Y123.5152
G01 X45.9066 Y123.5025
G01 X45.8987 Y123.4913
G01 X45.8955 Y123.4878
G01 X45.8705 Y123.4515
G01 X45.8602 Y123.4086
G01 X45.8614 Y123.3483
G01 X45.8715 Y123.2888
G01 X45.8903 Y123.2315
G01 X45.9173 Y123.1776
G01 X45.9520 Y123.1282
G01 X45.9669 Y123.1072
G01 X46.0138 Y123.0232
G01 X46.0546 Y122.9361
G01 X46.1190 Y122.7798
G01 X46.1799 Y122.6221
G01 X46.2372 Y122.4630
G01 X46.3262 Y122.1988
G01 X46.4102 Y121.9329
G01 X46.4891 Y121.6655
G01 X46.4950 Y121.6445
G01 X46.6788 Y121.0903
G01 X46.8208 Y120.7163
G01 X47.0841 Y120.0748
G01 X47.3612 Y119.4392
G01 X47.6371 Y118.8371
G01 X47.9224 Y118.2393
G01 X48.2169 Y117.6460
G01 X48.5205 Y117.0574
G01 X48.7720 Y116.5919
G01 X49.0340 Y116.1323
G01 X49.3597 Y115.6402
G01 X49.5027 Y115.4630
G01 X49.8080 Y115.1093
G01 X50.1218 Y114.7631
G01 X50.4818 Y114.3819
G01 X50.8482 Y114.0069
G01 X51.2209 Y113.6381
G01 X51.6249 Y113.2501
G01 X54.6765 Y110.3361
G01 X56.1494 Y108.9502
G01 X57.0647 Y108.1187
G01 X58.2089 Y107.1251
G01 X58.4796 Y106.9017
G01 X58.7560 Y106.6853
G01 X58.9153 Y106.5702
G01 X59.0802 Y106.4633
G01 X59.1818 Y106.4077
G01 X59.2882 Y106.3621
G01 X59.3543 Y106.3432
G01 X59.4225 Y106.3349
G01 X59.4821 Y106.3394
G01 X59.5391 Y106.3574
G01 X59.6176 Y106.4564
G01 X59.6607 Y106.6718
G01 X59.6910 Y106.9457
G01 X59.7116 Y107.2204
G01 X59.7395 Y107.8137
G01 X59.7553 Y108.4075
G01 X59.7652 Y109.3232
G01 X59.7650 Y110.2390
G01 X59.7637 Y110.5095
G01 X59.7650 Y111.0919
G01 X59.7724 Y111.6743
G01 X59.7860 Y112.2566
G01 X59.8056 Y112.8387
G01 X59.8315 Y113.4206
G01 X59.8634 Y114.0021
G01 X59.9015 Y114.5833
G01 X59.9304 Y114.9627
G01 X59.9633 Y115.3417
G01 X60.0002 Y115.7204
G01 X60.0519 Y116.1876
G01 X60.1107 Y116.6541
G01 X60.1767 Y117.1195
G01 X60.2229 Y117.4123
G01 X60.2739 Y117.7043
G01 X60.3296 Y117.9954
G01 X60.3902 Y118.2855
G01 X60.4495 Y118.5414
G01 X60.5157 Y118.7955
G01 X60.5888 Y119.0478
G01 X60.6444 Y119.2191
G01 X60.7064 Y119.3882
G01 X60.7745 Y119.5549
G01 X60.8089 Y119.6313
G01 X60.8460 Y119.7065
G01 X60.9280 Y119.8894
G01 X60.9759 Y120.0251
G01 X61.0145 Y120.1639
G01 X61.0319 Y120.2718
G01 X61.0351 Y120.3191
G01 X61.0539 Y120.4020
G01 X61.0790 Y120.4832
G01 X61.1355 Y120.6372
G01 X61.1956 Y120.7899
G01 X61.2593 Y120.9412
G01 X61.4240 Y121.3114
G01 X61.5948 Y121.6789
G01 X61.7717 Y122.0435
G01 X61.9060 Y122.3099
G01 X62.0441 Y122.5745
G01 X62.1858 Y122.8371
G01 X62.2877 Y123.0149
G01 X62.3959 Y123.1889
G01 X62.4366 Y123.2469
G01 X62.4814 Y123.3017
G01 X62.5010 Y123.3200
G01 X62.5071 Y123.3243
G01 X62.5185 Y123.3288
G01 X62.5279 Y123.3272
G01 X62.5336 Y123.3196
G01 X62.5366 Y123.3027
G01 X62.5367 Y123.2856
G01 X62.5279 Y123.2138
G01 X62.5127 Y123.1430
G01 X62.4757 Y123.0091
G01 X62.4352 Y122.8762
G01 X62.3910 Y122.7445
G01 X62.2961 Y122.4833
G01 X62.1953 Y122.2243
G01 X62.0690 Y121.8945
G01 X61.9538 Y121.5607
G01 X61.8448 Y121.2092
G01 X61.7463 Y120.8547
G01 X61.6585 Y120.4974
G01 X61.5813 Y120.1377
G01 X61.5149 Y119.7758
G01 X61.4561 Y119.3924
G01 X61.4087 Y119.0075
G01 X61.3725 Y118.6214
G01 X61.3477 Y118.2344
G01 X61.3342 Y117.8468
G01 X61.3384 Y117.1636
G01 X61.3547 Y116.8159
G01 X61.3805 Y116.4688
G01 X61.4160 Y116.1225
G01 X61.4609 Y115.7773
G01 X61.5107 Y115.4654
G01 X61.5697 Y115.1551
G01 X61.6380 Y114.8467
G01 X61.7154 Y114.5405
G01 X61.8020 Y114.2368
G01 X61.8892 Y113.9639
G01 X61.9856 Y113.6942
G01 X62.0911 Y113.4279
G01 X62.2056 Y113.1653
G01 X62.3916 Y112.7883
G01 X63.1184 Y111.4195
G01 X62.3283 Y112.1910
G01 X62.1209 Y112.3858
G01 X61.9059 Y112.5723
G01 X61.7471 Y112.6966
G01 X61.5806 Y112.8107
G01 X61.4738 Y112.8720
G01 X61.3617 Y112.9230
G01 X61.2920 Y112.9447
G01 X61.2197 Y112.9552
G01 X61.1457 Y112.9456
G01 X61.1131 Y112.9296
G01 X61.0857 Y112.9058
G01 X61.0654 Y112.8758
G01 X61.0461 Y112.8266
G01 X61.0359 Y112.7748
G01 X61.0413 Y112.4456
G01 X61.0659 Y112.1497
G01 X61.1029 Y111.8550
G01 X61.1523 Y111.5622
G01 X61.2130 Y111.2684
G01 X61.2828 Y110.9766
G01 X61.3616 Y110.6872
G01 X61.4494 Y110.4003
G01 X61.5460 Y110.1163
G01 X61.6513 Y109.8355
G01 X61.7654 Y109.5580
G01 X61.8816 Y109.3015
G01 X62.0080 Y109.0499
G01 X62.1443 Y108.8036
G01 X62.2908 Y108.5681
G01 X62.6167 Y108.0990
G01 X62.9325 Y107.6696
G01 X63.1803 Y107.3524
G01 X63.4381 Y107.0433
G01 X63.7058 Y106.7427
G01 X63.9875 Y106.4496
G01 X64.2818 Y106.1690
G01 X64.5151 Y105.9634
G01 X64.7555 Y105.7660
G01 X65.0025 Y105.5770
G01 X65.2560 Y105.3968
G01 X65.5139 Y105.2252
G01 X65.7763 Y105.0605
G01 X66.0431 Y104.9031
G01 X66.3140 Y104.7529
G01 X66.7633 Y104.5197
G01 X67.2187 Y104.2987
G01 X67.3923 Y104.2173
G01 X68.4711 Y103.7064
G01 X69.5466 Y103.1887
G01 X69.8453 Y103.0406
G01 X69.8888 Y103.0183
G01 X70.1306 Y102.9071
G01 X70.2894 Y102.8462
G01 X70.4510 Y102.7934
G01 X70.6150 Y102.7486
G01 X70.8236 Y102.7134
G01 X70.9142 Y102.7101
G01 X70.9972 Y102.7016
G01 X71.0791 Y102.6854
G01 X71.1591 Y102.6617
G01 X71.2365 Y102.6305
G01 X71.2776 Y102.6088
G01 X71.3161 Y102.5827
G01 X71.3513 Y102.5525
G01 X71.3642 Y102.5386
G01 X71.3754 Y102.5234
G01 X71.3774 Y102.5203
G01 X71.3999 Y102.4922
G01 X71.4522 Y102.4485
G01 X71.5106 Y102.4133
G01 X71.6395 Y102.3558
G01 X71.7733 Y102.3104
G01 X72.0058 Y102.2505
G01 X72.2416 Y102.2048
G01 X72.4500 Y102.1757
G01 X72.6596 Y102.1564
G01 X72.8699 Y102.1468
G01 X73.0236 Y102.1490
G01 X73.1766 Y102.1624
G01 X73.2592 Y102.1775
G01 X73.3395 Y102.2019
G01 X73.3977 Y102.2331
G01 X73.4380 Y102.2814
G01 X73.4482 Y102.3150
G01 X73.4506 Y102.3722
G01 X73.4405 Y102.4286
G01 X73.4052 Y102.5267
G01 X73.3582 Y102.6197
G01 X73.2573 Y102.7798
G01 X73.1454 Y102.9324
G01 X72.9764 Y103.1388
G01 X72.8002 Y103.3389
G01 X72.6868 Y103.4634
G01 X72.6239 Y103.5360
G01 X72.4572 Y103.7378
G01 X72.2954 Y103.9436
G01 X72.1386 Y104.1532
G01 X71.8945 Y104.4939
G01 X71.6561 Y104.8386
G01 X71.4236 Y105.1873
G01 X71.1945 Y105.5425
G01 X70.9702 Y105.9008
G01 X70.7509 Y106.2620
G01 X70.5365 Y106.6263
G01 X70.3271 Y106.9934
G01 X70.1724 Y107.2748
G01 X70.0231 Y107.5591
G01 X69.8790 Y107.8460
G01 X69.8016 Y108.0085
G01 X69.7283 Y108.1728
G01 X69.6589 Y108.3388
G01 X69.6045 Y108.4840
G01 X69.5935 Y108.5168
G01 X69.5366 Y108.6684
G01 X69.4678 Y108.8151
G01 X69.3976 Y108.9310
G01 X69.3128 Y109.0367
G01 X69.2647 Y109.0831
G01 X69.2112 Y109.1233
G01 X69.1533 Y109.1568
G01 X69.0784 Y109.1847
G01 X68.9994 Y109.1964
G01 X68.9519 Y109.1982
G01 X68.9209 Y109.2027
G01 X68.8858 Y109.2122
G01 X68.8525 Y109.2268
G01 X68.8217 Y109.2460
G01 X68.7940 Y109.2695
G01 X68.7577 Y109.3095
G01 X68.7263 Y109.3534
G01 X68.7001 Y109.4007
G01 X68.6665 Y109.4764
G01 X68.6378 Y109.5542
G01 X68.6142 Y109.6336
G01 X68.5796 Y109.7759
G01 X68.5502 Y109.9193
G01 X68.5262 Y110.0637
G01 X68.4902 Y110.3256
G01 X68.4594 Y110.5880
G01 X68.4338 Y110.8511
G01 X68.3986 Y111.2752
G01 X68.3672 Y111.6996
G01 X68.3395 Y112.1243
G01 X68.3035 Y112.7331
G01 X68.2700 Y113.3420
G01 X68.2179 Y114.1134
G01 X68.1940 Y114.3504
G01 X68.1612 Y114.5863
G01 X68.1382 Y114.7054
G01 X68.1073 Y114.8226
G01 X68.0841 Y114.8848
G01 X68.0533 Y114.9435
G01 X68.0080 Y114.9920
G01 X67.9830 Y115.0044
G01 X67.9555 Y115.0089
G01 X67.9278 Y115.0050
G01 X67.8815 Y114.9856
G01 X67.8401 Y114.9572
G01 X67.7204 Y114.8360
G01 X67.5715 Y114.6441
G01 X67.5071 Y114.5645
G01 X67.4807 Y114.5368
G01 X67.4510 Y114.5127
G01 X67.4443 Y114.5091
G01 X67.4368 Y114.5075
G01 X67.4268 Y114.5102
G01 X67.4210 Y114.5188
G01 X67.4175 Y114.5444
G01 X67.4174 Y114.5494
G01 X67.4174 Y114.5550
G01 X67.4197 Y114.5859
G01 X67.4365 Y114.6914
G01 X67.4582 Y114.7960
G01 X67.5462 Y115.1591
G01 X67.7510 Y116.0451
G01 X67.9003 Y116.7643
G01 X67.9498 Y117.0140
G01 X68.0229 Y117.3083
G01 X68.1028 Y117.6008
G01 X68.2523 Y118.1171
G01 X68.4056 Y118.6323
G01 X68.5628 Y119.1463
G01 X68.8608 Y120.0975
G01 X69.1651 Y121.0468
G01 X69.4755 Y121.9941
G01 X69.4983 Y122.0630
G01 X70.2049 Y124.2396
G01 X70.4916 Y125.1662
G01 X70.7647 Y126.0968
G01 X70.9587 Y126.8083
G01 X71.1355 Y127.5241
G01 X71.2252 Y127.9293
G01 X71.3047 Y128.3365
G01 X71.3742 Y128.7456
G01 X71.4254 Y129.1097
G01 X71.4653 Y129.4753
G01 X71.5023 Y130.0045
G01 X71.5147 Y130.3926
G01 X71.5215 Y130.7237
G01 X71.5309 Y131.0547
G01 X71.5372 Y131.1786
G01 X71.5482 Y131.3021
G01 X71.5543 Y131.3394
G01 X71.5646 Y131.3758
G01 X71.5723 Y131.3871
G01 X71.5797 Y131.3895
G01 X71.5866 Y131.3859
G01 X71.5967 Y131.3719
G01 X71.6045 Y131.3565
G01 X71.6315 Y131.2852
G01 X71.6542 Y131.2124
G01 X71.7235 Y130.9543
G01 X71.7393 Y130.8867
G01 X71.7526 Y130.8186
G01 X71.7768 Y130.6596
G01 X71.7943 Y130.4997
G01 X71.8050 Y130.3392
G01 X71.8119 Y130.1378
G01 X71.8142 Y129.9363
G01 X71.8117 Y129.7348
G01 X71.8046 Y129.5334
G01 X71.7868 Y129.2144
G01 X71.7631 Y128.8958
G01 X71.7338 Y128.5776
G01 X71.6986 Y128.2601
G01 X71.6422 Y127.8168
G01 X71.5792 Y127.3745
G01 X71.5097 Y126.9331
G01 X71.4337 Y126.4928
G01 X71.3417 Y126.0021
G01 X71.2429 Y125.5127
G01 X71.1375 Y125.0246
G01 X71.0252 Y124.5381
G01 X70.9063 Y124.0532
G01 X70.7807 Y123.5700
G01 X70.6485 Y123.0885
G01 X70.5463 Y122.7353
G01 X70.4394 Y122.3836
G01 X70.3277 Y122.0332
G01 X70.2325 Y121.7473
G01 X70.1242 Y121.4155
G01 X70.0244 Y121.0811
G01 X69.9183 Y120.6914
G01 X69.8214 Y120.2993
G01 X69.7338 Y119.9050
G01 X69.6555 Y119.5088
G01 X69.5866 Y119.1109
G01 X69.5142 Y118.6259
G01 X69.4532 Y118.1394
G01 X69.4037 Y117.6516
G01 X69.3655 Y117.1627
G01 X69.3387 Y116.6731
G01 X69.3243 Y116.2385
G01 X69.3180 Y115.8038
G01 X69.3201 Y115.3690
G01 X69.3305 Y114.9343
G01 X69.3492 Y114.4999
G01 X69.3761 Y114.0659
G01 X69.4126 Y113.6195
G01 X69.4581 Y113.1739
G01 X69.5125 Y112.7293
G01 X69.5758 Y112.2858
G01 X69.6481 Y111.8438
G01 X69.7292 Y111.4032
G01 X69.8170 Y110.9773
G01 X69.9143 Y110.5535
G01 X70.0211 Y110.1320
G01 X70.1867 Y109.5638
G01 X70.2812 Y109.3004
G01 X70.3841 Y109.0401
G01 X70.4953 Y108.7832
G01 X70.6755 Y108.3985
G01 X70.8663 Y108.0190
G01 X71.0674 Y107.6448
G01 X71.3418 Y107.1641
G01 X71.6273 Y106.6899
G01 X71.9239 Y106.2225
G01 X72.1856 Y105.8282
G01 X72.4546 Y105.4389
G01 X72.7307 Y105.0545
G01 X73.0137 Y104.6753
G01 X73.3037 Y104.3013
G01 X73.5886 Y103.9496
G01 X73.8820 Y103.6050
G01 X74.1838 Y103.2676
G01 X74.3945 Y103.0439
G01 X74.6113 Y102.8261
G01 X74.8340 Y102.6144
G01 X75.0774 Y102.4013
G01 X75.3319 Y102.2015
G01 X75.4683 Y102.1057
G01 X75.6097 Y102.0175
G01 X75.9800 Y101.8299
G01 X76.1529 Y101.7669
G01 X76.2460 Y101.7580
G01 X76.2819 Y101.7654
G01 X76.3148 Y101.7817
G01 X76.3424 Y101.8058
G01 X76.4028 Y101.8979
G01 X76.4497 Y102.0081
G01 X76.4743 Y102.1290
G01 X76.4816 Y102.2202
G01 X76.4839 Y102.4484
G01 X76.4745 Y102.6764
G01 X76.4438 Y103.0437
G01 X76.4007 Y103.4097
G01 X76.3454 Y103.7740
G01 X76.3194 Y103.9279
G01 X76.2526 Y104.3516
G01 X76.1929 Y104.7763
G01 X76.1403 Y105.2020
G01 X76.1194 Y105.4107
G01 X76.1048 Y105.6199
G01 X76.1031 Y105.6803
G01 X76.1031 Y105.6887
G01 X76.1032 Y105.6964
G01 X76.1106 Y105.9227
G01 X76.1151 Y105.9668
G01 X76.1245 Y106.0102
G01 X76.1284 Y106.0197
G01 X76.1345 Y106.0279
G01 X76.1412 Y106.0322
G01 X76.1490 Y106.0331
G01 X76.1565 Y106.0305
G01 X76.1714 Y106.0190
G01 X76.1843 Y106.0052
G01 X76.2274 Y105.9468
G01 X76.2665 Y105.8856
G01 X76.4096 Y105.6402
G01 X76.4515 Y105.5633
G01 X76.5063 Y105.4521
G01 X76.5564 Y105.3387
G01 X76.6017 Y105.2232
G01 X76.6421 Y105.1060
G01 X76.6776 Y104.9871
G01 X76.6990 Y104.8957
G01 X76.7132 Y104.8028
G01 X76.7160 Y104.7609
G01 X76.7279 Y104.6079
G01 X76.7536 Y104.4597
G01 X76.7900 Y104.3138
G01 X76.8371 Y104.1710
G01 X76.8874 Y104.0475
G01 X76.9452 Y103.9273
G01 X77.0103 Y103.8110
G01 X77.0825 Y103.6989
G01 X77.1745 Y103.5808
G01 X77.2795 Y103.4742
G01 X77.3578 Y103.4138
G01 X77.4445 Y103.3665
G01 X77.5364 Y103.3409
G01 X77.6254 Y103.3462
G01 X77.7075 Y103.3761
G01 X77.7824 Y103.4211
G01 X77.8550 Y103.4801
G01 X77.9219 Y103.5456
G01 X77.9826 Y103.6168
G01 X78.0636 Y103.7316
G01 X78.1342 Y103.8531
G01 X78.1936 Y103.9805
G01 X78.2778 Y104.2187
G01 X78.3204 Y104.3874
G01 X78.3654 Y104.6366
G01 X78.3955 Y104.8879
G01 X78.4229 Y105.2611
G01 X78.4384 Y105.6349
G01 X78.4493 Y106.2710
G01 X78.4498 Y106.9072
G01 X78.4216 Y108.9784
G01 X78.3754 Y111.1787
G01 X78.3652 Y111.8009
G01 X78.3620 Y112.2277
G01 X78.3620 Y112.2844
G01 X78.3662 Y112.6531
G01 X78.3777 Y113.0216
G01 X78.3876 Y113.2061
G01 X78.4021 Y113.3904
G01 X78.4211 Y113.5742
G01 X78.4462 Y113.7629
G01 X78.4778 Y113.9506
G01 X78.5157 Y114.1372
G01 X78.5601 Y114.3223
G01 X78.6143 Y114.5248
G01 X78.6726 Y114.7262
G01 X78.7349 Y114.9264
G01 X78.8974 Y115.4206
G01 X79.0418 Y115.8441
G01 X79.1897 Y116.2663
G01 X79.3413 Y116.6872
G01 X79.4161 Y116.8847
G01 X79.4957 Y117.0803
G01 X79.5110 Y117.1128
G01 X79.5290 Y117.1439
G01 X79.5319 Y117.1464
G01 X79.5328 Y117.1466
G01 X79.5362 Y117.1437
G01 X79.5402 Y117.1155
G01 X79.5422 Y117.0871
G01 X79.5471 Y116.8702
G01 X79.5469 Y116.6533
G01 X79.5339 Y115.9137
G01 X79.5139 Y115.1742
G01 X79.4936 Y114.5838
G01 X79.4702 Y113.7262
G01 X79.4814 Y112.5392
G01 X79.5001 Y112.1801
G01 X79.5279 Y111.8216
G01 X79.5647 Y111.4639
G01 X79.6106 Y111.1072
G01 X79.6879 Y110.5996
G01 X79.7763 Y110.0938
G01 X79.8831 Y109.5337
G01 X79.9691 Y109.0594
G01 X80.0489 Y108.5840
G01 X80.1227 Y108.1076
G01 X80.1903 Y107.6303
G01 X80.2202 Y107.3946
G01 X80.2461 Y107.1584
G01 X80.2681 Y106.9218
G01 X80.2752 Y106.8210
G01 X80.2793 Y106.7200
G01 X80.2800 Y106.6756
G01 X80.2840 Y106.4957
G01 X80.2960 Y106.3161
G01 X80.3122 Y106.1941
G01 X80.3387 Y106.0739
G01 X80.3616 Y106.0069
G01 X80.3935 Y105.9437
G01 X80.4456 Y105.8861
G01 X80.4771 Y105.8689
G01 X80.5121 Y105.8612
G01 X80.5479 Y105.8635
G01 X80.6050 Y105.8818
G01 X80.6569 Y105.9115
G01 X80.7274 Y105.9677
G01 X80.7919 Y106.0306
G01 X80.9684 Y106.2748
G01 X81.0313 Y106.3937
G01 X81.1539 Y106.6555
G01 X81.2671 Y106.9215
G01 X81.4824 Y107.4722
G01 X81.6849 Y108.0279
G01 X81.9909 Y108.9219
G01 X82.2827 Y109.8207
G01 X82.5157 Y110.5721
G01 X82.7406 Y111.3260
G01 X82.9572 Y112.0823
G01 X83.1657 Y112.8409
G01 X83.3528 Y113.5632
G01 X83.5263 Y114.2887
G01 X83.6195 Y114.7208
G01 X83.7013 Y115.1551
G01 X83.7430 Y115.4294
G01 X83.7818 Y115.7455
G01 X83.8164 Y115.9882
G01 X83.8559 Y116.2302
G01 X83.8863 Y116.3853
G01 X83.9237 Y116.5390
G01 X83.9393 Y116.5875
G01 X83.9597 Y116.6342
G01 X83.9656 Y116.6430
G01 X83.9735 Y116.6502
G01 X83.9785 Y116.6518
G01 X83.9836 Y116.6503
G01 X83.9862 Y116.6482
G01 X83.9894 Y116.6431
G01 X83.9998 Y116.6076
G01 X84.0061 Y116.5712
G01 X84.0234 Y116.3944
G01 X84.0343 Y116.2172
G01 X84.0467 Y115.8877
G01 X84.0554 Y115.5581
G01 X84.0607 Y115.2284
G01 X84.0636 Y114.7270
G01 X84.0619 Y114.2257
G01 X84.0560 Y113.7564
G01 X84.0458 Y113.2872
G01 X84.0362 Y113.0248
G01 X84.0215 Y112.7626
G01 X84.0015 Y112.5007
G01 X83.9863 Y112.3457
G01 X83.9673 Y112.1911
G01 X83.9446 Y112.0370
G01 X83.9140 Y111.8634
G01 X83.8781 Y111.6908
G01 X83.8367 Y111.5194
G01 X83.7900 Y111.3494
G01 X83.7244 Y111.1332
G01 X83.6539 Y110.9184
G01 X83.5788 Y110.7053
G01 X83.4877 Y110.4592
G01 X83.3943 Y110.2139
G01 X83.2623 Y109.8598
G01 X83.1381 Y109.5027
G01 X83.0538 Y109.2328
G01 X82.9808 Y108.9596
G01 X82.9454 Y108.7926
G01 X82.9210 Y108.6236
G01 X82.9147 Y108.5216
G01 X82.9318 Y108.3616
G01 X82.9469 Y108.3187
G01 X82.9702 Y108.2797
G01 X82.9966 Y108.2525
G01 X83.0291 Y108.2332
G01 X83.0656 Y108.2231
G01 X83.1241 Y108.2210
G01 X83.1818 Y108.2310
G01 X83.2763 Y108.2638
G01 X83.3663 Y108.3077
G01 X83.5040 Y108.3914
G01 X83.6360 Y108.4839
G01 X83.8762 Y108.6748
G01 X84.3193 Y109.0782
G01 X84.6021 Y109.3560
G01 X84.9569 Y109.7229
G01 X85.3027 Y110.0981
G01 X85.6394 Y110.4816
G01 X85.8130 Y110.6913
G01 X85.9797 Y110.9066
G01 X86.1078 Y111.1021
G01 X86.1359 Y111.1699
G01 X86.1394 Y111.1978
G01 X86.1557 Y111.2527
G01 X86.1777 Y111.3056
G01 X86.2517 Y111.4508
G01 X86.3324 Y111.5924
G01 X86.4205 Y111.7340
G01 X86.5128 Y111.8730
G01 X86.5205 Y111.8841
G01 X86.6632 Y112.1056
G01 X86.8035 Y112.3488
G01 X86.9346 Y112.5970
G01 X87.0564 Y112.8500
G01 X87.2190 Y113.2186
G01 X87.3704 Y113.5919
G01 X87.5106 Y113.9696
G01 X87.6510 Y114.3786
G01 X87.7832 Y114.7904
G01 X87.9072 Y115.2047
G01 X88.0229 Y115.6214
G01 X88.1687 Y116.1897
G01 X88.3034 Y116.7609
G01 X88.4271 Y117.3345
G01 X88.5395 Y117.9104
G01 X88.6354 Y118.4550
G01 X88.7216 Y119.0012
G01 X88.7981 Y119.5488
G01 X88.8648 Y120.0977
G01 X88.9218 Y120.6477
G01 X88.9638 Y121.1445
G01 X88.9960 Y121.6420
G01 X89.0264 Y122.4176
G01 X89.0338 Y122.9818
G01 X89.0288 Y123.5460
G01 X89.0162 Y123.9674
G01 X88.9949 Y124.3884
G01 X88.9649 Y124.8088
G01 X88.9264 Y125.2286
G01 X88.8752 Y125.6769
G01 X88.8136 Y126.1239
G01 X88.7415 Y126.5693
G01 X88.6590 Y127.0129
G01 X88.5661 Y127.4545
G01 X88.4629 Y127.8938
G01 X88.3506 Y128.3293
G01 X88.2295 Y128.7624
G01 X88.0997 Y129.1930
G01 X87.9612 Y129.6210
G01 X87.8141 Y130.0460
G01 X87.6220 Y130.5685
G01 X87.4201 Y131.0873
G01 X87.2086 Y131.6022
G01 X86.9876 Y132.1132
G01 X86.7270 Y132.6893
G01 X86.4581 Y133.2617
G01 X86.1809 Y133.8301
G01 X85.8384 Y134.5205
G01 X85.6342 Y134.9520
G01 X85.4371 Y135.3869
G01 X85.2472 Y135.8249
G01 X85.1145 Y136.1450
G01 X84.9871 Y136.4673
G01 X84.8649 Y136.7916
G01 X84.7480 Y137.1179
G01 X84.6365 Y137.4460
G01 X84.5388 Y137.7528
G01 X84.4480 Y138.0618
G01 X84.3642 Y138.3728
G01 X84.2874 Y138.6855
G01 X84.2377 Y138.9115
G01 X84.1938 Y139.1386
G01 X84.1557 Y139.3668
G01 X84.1235 Y139.5959
G01 X84.1051 Y139.7581
G01 X84.0914 Y139.9209
G01 X84.0823 Y140.0840
G01 X84.0785 Y140.2589
G01 X84.0787 Y140.3119
G01 X84.0830 Y140.4537
G01 X84.0931 Y140.5952
G01 X84.1088 Y140.7362
G01 X84.1275 Y140.8529
G01 X84.1525 Y140.9684
G01 X84.1839 Y141.0823
G01 X84.2042 Y141.1443
G01 X84.2273 Y141.2054
G01 X84.2658 Y141.2964
G01 X84.3075 Y141.3859
G01 X84.3271 Y141.4201
G01 X84.3510 Y141.4515
G01 X84.3584 Y141.4582
G01 X84.3673 Y141.4628
G01 X84.3762 Y141.4638
G01 X84.3845 Y141.4608
G01 X84.3907 Y141.4543
G01 X84.4026 Y141.4291
G01 X84.4101 Y141.4022
G01 X84.4251 Y141.3055
G01 X84.4335 Y141.2080
G01 X84.4437 Y140.9723
G01 X84.4497 Y140.7365
G01 X84.4520 Y140.5778
G01 X84.4618 Y140.2670
G01 X84.4833 Y139.9466
G01 X84.5151 Y139.6270
G01 X84.5573 Y139.3086
G01 X84.6098 Y138.9917
G01 X84.6725 Y138.6767
G01 X84.7454 Y138.3639
G01 X84.8154 Y138.1058
G01 X84.8956 Y137.8507
G01 X84.9858 Y137.5990
G01 X85.0828 Y137.3665
G01 X85.1374 Y137.2480
G01 X85.3091 Y136.8660
G01 X85.4769 Y136.4823
G01 X85.5148 Y136.3936
G01 X85.7546 Y135.8810
G01 X85.9104 Y135.5972
G01 X86.1155 Y135.2553
G01 X86.3298 Y134.9191
G01 X86.8822 Y134.0924
G01 X86.9398 Y134.0055
G01 X86.9956 Y133.9175
G01 X87.1221 Y133.7072
G01 X87.2432 Y133.4938
G01 X87.3590 Y133.2774
G01 X87.4694 Y133.0583
G01 X87.5599 Y132.8668
G01 X87.6457 Y132.6731
G01 X87.7266 Y132.4773
G01 X87.7645 Y132.3781
G01 X87.7996 Y132.2779
G01 X87.8130 Y132.2371
G01 X87.9429 Y131.8744
G01 X88.0360 Y131.6492
G01 X88.1373 Y131.4276
G01 X88.2465 Y131.2099
G01 X88.3250 Y131.0695
G01 X88.4112 Y130.9337
G01 X88.5031 Y130.8060
G01 X88.5696 Y130.6997
G01 X88.6316 Y130.5908
G01 X88.6892 Y130.4793
G01 X88.7938 Y130.2582
G01 X88.8921 Y130.0343
G01 X88.9841 Y129.8077
G01 X89.0890 Y129.5320
G01 X89.1895 Y129.2547
G01 X89.2856 Y128.9759
G01 X89.3773 Y128.6956
G01 X89.4946 Y128.3145
G01 X89.6048 Y127.9312
G01 X89.7078 Y127.5459
G01 X89.8037 Y127.1588
G01 X89.8485 Y126.9647
G01 X89.8908 Y126.7701
G01 X90.1163 Y125.7491
G01 X90.3089 Y124.9318
G01 X90.3775 Y124.6425
G01 X90.4019 Y124.4929
G01 X90.4213 Y124.3425
G01 X90.4357 Y124.1916
G01 X90.4565 Y123.8853
G01 X90.4706 Y123.5786
G01 X90.4781 Y123.2717
G01 X90.4809 Y122.7822
G01 X90.4761 Y122.2927
G01 X90.4637 Y121.8033
G01 X90.4427 Y121.2823
G01 X90.4140 Y120.7616
G01 X90.3777 Y120.2414
G01 X90.3338 Y119.7217
G01 X90.2978 Y119.3648
G01 X90.2552 Y119.0087
G01 X90.2062 Y118.6534
G01 X90.1825 Y118.5013
G01 X90.1563 Y118.3496
G01 X90.1467 Y118.2972
G01 X89.9007 Y116.9295
G01 X89.8326 Y116.5090
G01 X89.7733 Y116.0872
G01 X89.7375 Y115.7031
G01 X89.7468 Y115.4203
G01 X89.7595 Y115.3682
G01 X89.7811 Y115.3191
G01 X89.8085 Y115.2865
G01 X89.8483 Y115.2672
G01 X89.9841 Y115.3078
G01 X90.1085 Y115.3912
G01 X90.2281 Y115.4814
G01 X90.4967 Y115.7034
G01 X90.7583 Y115.9338
G01 X91.1089 Y116.2603
G01 X91.4517 Y116.5950
G01 X91.6585 Y116.8079
G01 X91.8588 Y117.0268
G01 X92.0526 Y117.2515
G01 X92.2700 Y117.5192
G01 X92.4791 Y117.7934
G01 X92.6798 Y118.0738
G01 X92.8720 Y118.3601
G01 X93.0553 Y118.6522
G01 X93.2298 Y118.9496
G01 X93.4018 Y119.2631
G01 X93.5655 Y119.5811
G01 X93.7206 Y119.9032
G01 X93.8672 Y120.2294
G01 X94.0051 Y120.5593
G01 X94.1341 Y120.8928
G01 X94.2558 Y121.2314
G01 X94.3698 Y121.5726
G01 X94.4762 Y121.9163
G01 X94.5750 Y122.2622
G01 X94.6660 Y122.6103
G01 X94.8065 Y123.2375
G01 X94.8740 Y123.6219
G01 X94.9316 Y124.0078
G01 X94.9793 Y124.3952
G01 X95.0361 Y124.9678
G01 X95.0806 Y125.5415
G01 X95.1126 Y126.1161
G01 X95.1334 Y126.6757
G01 X95.1454 Y127.2357
G01 X95.1487 Y127.7957
G01 X95.1432 Y128.3557
G01 X95.1289 Y128.9156
G01 X95.1060 Y129.4752
G01 X95.0743 Y130.0343
G01 X95.0348 Y130.5618
G01 X94.9845 Y131.0884
G01 X94.9234 Y131.6139
G01 X94.8545 Y132.0993
G01 X94.7707 Y132.5824
G01 X94.7074 Y132.8916
G01 X94.4369 Y134.0499
G01 X94.2648 Y134.7289
G01 X94.0834 Y135.4054
G01 X93.8926 Y136.0794
G01 X93.6927 Y136.7507
G01 X93.5306 Y137.2662
G01 X93.3600 Y137.7790
G01 X93.1811 Y138.2890
G01 X93.0110 Y138.7408
G01 X92.8277 Y139.1875
G01 X92.7206 Y139.4272
G01 X92.6520 Y139.5780
G01 X92.5866 Y139.7302
G01 X92.4761 Y140.0022
G01 X92.3711 Y140.2765
G01 X92.2717 Y140.5527
G01 X92.1779 Y140.8309
G01 X92.0633 Y141.1921
G01 X91.9547 Y141.5551
G01 X91.8520 Y141.9198
G01 X91.7552 Y142.2862
G01 X91.6645 Y142.6541
G01 X91.5798 Y143.0234
G01 X91.5011 Y143.3941
G01 X91.4285 Y143.7659
G01 X91.3826 Y144.0244
G01 X91.3411 Y144.2836
G01 X91.3041 Y144.5435
G01 X91.2717 Y144.8040
G01 X91.2524 Y144.9894
G01 X91.2373 Y145.1751
G01 X91.2264 Y145.3611
G01 X91.2213 Y145.5464
G01 X91.2211 Y145.5935
G01 X91.2233 Y145.7131
G01 X91.2294 Y145.8325
G01 X91.2388 Y145.9333
G01 X91.2897 Y146.3327
G01 X91.3486 Y146.7309
G01 X91.3741 Y146.8802
G01 X91.4031 Y147.0289
G01 X91.4358 Y147.1768
G01 X91.4634 Y147.2800
G01 X91.4976 Y147.3813
G01 X91.5157 Y147.4211
G01 X91.5390 Y147.4581
G01 X91.5485 Y147.4683
G01 X91.5601 Y147.4759
G01 X91.5715 Y147.4787
G01 X91.5830 Y147.4763
G01 X91.5923 Y147.4692
G01 X91.6126 Y147.4399
G01 X91.6266 Y147.4071
G01 X91.6445 Y147.3445
G01 X91.6589 Y147.2810
G01 X91.6697 Y147.2167
G01 X91.6877 Y147.0764
G01 X91.7021 Y146.9356
G01 X91.7129 Y146.7945
G01 X91.7249 Y146.5828
G01 X91.7338 Y146.3709
G01 X91.7534 Y145.9608
G01 X91.7835 Y145.5513
G01 X91.8244 Y145.1428
G01 X91.8758 Y144.7355
G01 X91.9266 Y144.4020
G01 X91.9856 Y144.0699
G01 X92.0528 Y143.7394
G01 X92.1282 Y143.4107
G01 X92.2118 Y143.0839
G01 X92.3040 Y142.7581
G01 X92.4047 Y142.4348
G01 X92.5138 Y142.1142
G01 X92.6312 Y141.7966
G01 X92.7568 Y141.4822
G01 X92.8906 Y141.1711
G01 X93.0325 Y140.8636
G01 X93.1823 Y140.5599
G01 X93.3523 Y140.2365
G01 X93.5306 Y139.9175
G01 X93.7169 Y139.6032
G01 X93.9111 Y139.2937
G01 X94.1132 Y138.9892
G01 X94.3229 Y138.6900
G01 X94.5646 Y138.3624
G01 X94.8138 Y138.0405
G01 X95.0705 Y137.7245
G01 X95.3344 Y137.4146
G01 X95.6054 Y137.1108
G01 X95.9388 Y136.7538
G01 X96.2801 Y136.4044
G01 X96.6291 Y136.0627
G01 X96.7600 Y135.9357
G01 X96.9605 Y135.7350
G01 X97.1574 Y135.5308
G01 X97.3505 Y135.3231
G01 X97.5399 Y135.1118
G01 X97.7254 Y134.8972
G01 X97.8480 Y134.7489
G01 X97.9666 Y134.5974
G01 X98.0813 Y134.4429
G01 X98.1529 Y134.3378
G01 X98.2186 Y134.2289
G01 X98.2439 Y134.1798
G01 X98.6859 Y133.2678
G01 X98.7370 Y133.1672
G01 X98.7669 Y133.1001
G01 X98.7915 Y133.0308
G01 X98.8105 Y132.9599
G01 X98.8240 Y132.8876
G01 X98.8284 Y132.8387
G01 X98.8275 Y132.7896
G01 X98.8213 Y132.7409
G01 X98.8119 Y132.7083
G01 X98.7962 Y132.6782
G01 X98.7806 Y132.6598
G01 X98.7681 Y132.6498
G01 X98.7544 Y132.6415
G01 X98.7317 Y132.6333
G01 X98.7077 Y132.6312
G01 X98.6839 Y132.6354
G01 X98.6620 Y132.6455
G01 X98.6292 Y132.6701
G01 X98.6006 Y132.6994
G01 X98.5769 Y132.7328
G01 X98.5502 Y132.7837
G01 X98.5292 Y132.8371
G01 X98.4612 Y132.9734
G01 X98.4031 Y133.0613
G01 X98.2623 Y133.2454
G01 X98.1119 Y133.4217
G01 X97.8417 Y133.7117
G01 X97.5615 Y133.9921
G01 X97.3197 Y134.2198
G01 X97.0720 Y134.4411
G01 X96.8186 Y134.6559
G01 X96.6234 Y134.8103
G01 X96.4220 Y134.9566
G01 X96.3084 Y135.0299
G01 X96.1900 Y135.0953
G01 X96.0793 Y135.1353
G01 X95.9371 Y135.1323
G01 X95.8741 Y135.1142
G01 X95.8393 Y135.0882
G01 X95.8168 Y135.0511
G01 X95.7988 Y134.9636
G01 X95.8233 Y134.7021
G01 X95.8529 Y134.5500
G01 X96.0084 Y133.9129
G01 X96.3332 Y132.6908
G01 X96.4195 Y132.3337
G01 X96.4992 Y131.9751
G01 X96.5723 Y131.6150
G01 X96.6400 Y131.2486
G01 X96.7014 Y130.8810
G01 X96.7565 Y130.5125
G01 X96.8052 Y130.1431
G01 X96.8476 Y129.7728
G01 X96.8837 Y129.4020
G01 X96.9134 Y129.0305
G01 X96.9367 Y128.6586
G01 X96.9536 Y128.2863
G01 X96.9649 Y127.8914
G01 X96.9697 Y127.4963
G01 X96.9678 Y127.1012
G01 X96.9594 Y126.7062
G01 X96.9445 Y126.3114
G01 X96.9229 Y125.9168
G01 X96.8007 Y123.8102
G01 X96.7713 Y123.1792
G01 X96.7503 Y122.5478
G01 X96.7570 Y121.7036
G01 X96.7693 Y121.5585
G01 X96.7908 Y121.4144
G01 X96.8085 Y121.3419
G01 X96.8350 Y121.2722
G01 X96.8770 Y121.2141
G01 X96.9119 Y121.1936
G01 X96.9407 Y121.1889
G01 X96.9880 Y121.1936
G01 X97.0335 Y121.2069
G01 X97.1290 Y121.2505
G01 X97.2196 Y121.3036
G01 X97.3845 Y121.4187
G01 X97.5424 Y121.5431
G01 X97.8326 Y121.7952
G01 X98.1127 Y122.0583
G01 X98.4136 Y122.3581
G01 X98.7087 Y122.6636
G01 X98.9979 Y122.9747
G01 X99.3382 Y123.3546
G01 X99.6722 Y123.7401
G01 X99.9996 Y124.1311
G01 X100.3205 Y124.5275
G01 X100.6346 Y124.9293
G01 X100.9183 Y125.3057
G01 X101.2471 Y125.7630
G01 X101.5638 Y126.2287
G01 X101.7875 Y126.5789
G01 X102.0002 Y126.9358
G01 X102.2016 Y127.2993
G01 X102.3512 Y127.5909
G01 X102.4910 Y127.8873
G01 X102.6209 Y128.1883
G01 X102.7352 Y128.4801
G01 X102.8393 Y128.7757
G01 X102.9330 Y129.0747
G01 X103.0163 Y129.3768
G01 X103.0889 Y129.6816
G01 X103.1553 Y130.0063
G01 X103.2120 Y130.3329
G01 X103.2589 Y130.6610
G01 X103.2959 Y130.9903
G01 X103.3313 Y131.4058
G01 X103.3563 Y131.8221
G01 X103.3712 Y132.2389
G01 X103.3771 Y133.0463
G01 X103.3537 Y134.0946
G01 X103.3288 Y134.5682
G01 X103.2885 Y135.0406
G01 X103.2507 Y135.3510
G01 X103.2007 Y135.6596
G01 X103.1537 Y135.8932
G01 X103.0984 Y136.1250
G01 X103.0348 Y136.3547
G01 X102.9219 Y136.7055
G01 X102.8282 Y136.9832
G01 X102.7395 Y137.2626
G01 X102.6558 Y137.5435
G01 X102.6086 Y137.7196
G01 X102.5681 Y137.8973
G01 X102.5606 Y137.9394
G01 X102.5554 Y137.9819
G01 X102.5544 Y137.9997
G01 X102.5544 Y138.0041
G01 X102.5580 Y138.0281
G01 X102.5606 Y138.0325
G01 X102.5650 Y138.0358
G01 X102.5728 Y138.0382
G01 X102.5808 Y138.0370
G01 X102.6066 Y138.0241
G01 X102.6290 Y138.0059
G01 X102.6913 Y137.9373
G01 X102.7476 Y137.8637
G01 X102.8366 Y137.7331
G01 X102.9221 Y137.6002
G01 X103.0039 Y137.4650
G01 X103.1517 Y137.2072
G01 X103.2942 Y136.9465
G01 X103.4314 Y136.6830
G01 X103.5631 Y136.4167
G01 X103.6894 Y136.1477
G01 X103.7495 Y136.0116
G01 X103.8058 Y135.8738
G01 X103.8584 Y135.7347
G01 X103.8886 Y135.6413
G01 X103.9121 Y135.5460
G01 X103.9180 Y135.5023
G01 X103.9184 Y135.4908
G01 X103.9465 Y135.2463
G01 X103.9851 Y135.0792
G01 X104.0261 Y134.9491
G01 X104.0761 Y134.8222
G01 X104.1204 Y134.7283
G01 X104.1550 Y134.6249
G01 X104.1823 Y134.5193
G01 X104.2203 Y134.3383
G01 X104.2539 Y134.1565
G01 X104.2831 Y133.9739
G01 X104.3244 Y133.6758
G01 X104.3606 Y133.3770
G01 X104.3918 Y133.0777
G01 X104.4178 Y132.7779
G01 X104.4199 Y132.7507
G01 X104.4703 Y132.1767
G01 X104.5335 Y131.6039
G01 X104.6031 Y131.1492
G01 X104.6386 Y131.0130
G01 X104.6710 Y130.9805
G01 X104.7054 Y130.9786
G01 X104.7393 Y130.9852
G01 X104.8211 Y131.0175
G01 X104.8984 Y131.0596
G01 X105.0460 Y131.1614
G01 X105.1841 Y131.2757
G01 X105.3181 Y131.4106
G01 X105.4282 Y131.5415
G01 X105.5302 Y131.6787
G01 X105.6238 Y131.8217
G01 X105.7383 Y132.0177
G01 X105.8445 Y132.2182
G01 X105.9424 Y132.4230
G01 X106.0660 Y132.7066
G01 X106.1817 Y132.9935
G01 X106.2895 Y133.2836
G01 X106.4844 Y133.8532
G01 X106.6649 Y134.4275
G01 X106.9439 Y135.3931
G01 X107.0637 Y135.8624
G01 X107.1282 Y136.1981
G01 X107.1506 Y136.3751
G01 X107.1646 Y136.5530
G01 X107.1701 Y136.7314
G01 X107.1649 Y137.0450
G01 X107.1448 Y137.3580
G01 X107.1039 Y137.7791
G01 X107.0549 Y138.1993
G01 X106.7549 Y140.3741
G01 X106.6618 Y140.9596
G01 X106.5571 Y141.5431
G01 X106.4859 Y141.8928
G01 X106.4054 Y142.2404
G01 X106.3243 Y142.5508
G01 X106.2341 Y142.8587
G01 X106.1348 Y143.1637
G01 X105.9064 Y143.7949
G01 X105.8294 Y144.0064
G01 X105.7589 Y144.2201
G01 X105.6950 Y144.4359
G01 X105.6697 Y144.5339
G01 X105.6482 Y144.6328
G01 X105.6307 Y144.7325
G01 X105.6244 Y144.7971
G01 X105.6241 Y144.8116
G01 X105.6242 Y144.8172
G01 X105.6265 Y144.8422
G01 X105.6326 Y144.8666
G01 X105.6386 Y144.8763
G01 X105.6457 Y144.8801
G01 X105.6537 Y144.8793
G01 X105.6775 Y144.8666
G01 X105.6983 Y144.8494
G01 X105.7571 Y144.7845
G01 X105.8110 Y144.7156
G01 X105.9078 Y144.5785
G01 X106.0015 Y144.4393
G01 X106.0920 Y144.2979
G01 X106.2918 Y143.9731
G01 X106.4875 Y143.6458
G01 X106.6790 Y143.3161
G01 X106.9950 Y142.7573
G01 X107.3052 Y142.1953
G01 X107.6095 Y141.6301
G01 X107.9079 Y141.0617
G01 X108.2004 Y140.4903
G01 X108.3762 Y140.1364
G01 X108.5474 Y139.7801
G01 X108.7136 Y139.4215
G01 X108.7880 Y139.2543
G01 X108.8593 Y139.0857
G01 X108.8931 Y139.0022
G01 X109.0650 Y138.5912
G01 X109.2520 Y138.1867
G01 X109.3463 Y138.0028
G01 X109.4488 Y137.8232
G01 X109.5472 Y137.6861
G01 X109.5904 Y137.6516
G01 X109.6269 Y137.6546
G01 X109.6635 Y137.6763
G01 X109.6949 Y137.7050
G01 X109.7544 Y137.7790
G01 X109.8062 Y137.8585
G01 X109.9043 Y138.0383
G01 X109.9923 Y138.2233
G01 X110.1509 Y138.6002
G01 X110.2960 Y138.9824
G01 X110.5246 Y139.6447
G01 X110.7361 Y140.3127
G01 X110.8997 Y140.8677
G01 X111.0553 Y141.4251
G01 X111.2027 Y141.9847
G01 X111.3419 Y142.5464
G01 X111.4729 Y143.1100
G01 X111.5815 Y143.6113
G01 X111.6269 Y143.8609
G01 X111.6670 Y144.1478
G01 X111.6980 Y144.4359
G01 X111.7198 Y144.7248
G01 X111.7410 Y145.1824
G01 X111.7498 Y145.6405
G01 X111.7463 Y146.0986
G01 X111.7263 Y146.7076
G01 X111.6922 Y147.3160
G01 X111.6439 Y147.9234
G01 X111.5951 Y148.4109
G01 X111.5377 Y148.8974
G01 X111.4718 Y149.3829
G01 X111.3973 Y149.8671
G01 X111.3143 Y150.3499
G01 X111.2075 Y150.8979
G01 X111.0861 Y151.4428
G01 X110.6956 Y152.9212
G01 X110.5762 Y153.3293
G01 X110.4469 Y153.7343
G01 X110.3656 Y153.9623
G01 X110.2746 Y154.1867
G01 X110.2193 Y154.3035
G01 X110.1560 Y154.4161
G01 X110.1124 Y154.4788
G01 X110.0616 Y154.5359
G01 X110.0275 Y154.5636
G01 X109.9887 Y154.5841
G01 X109.9540 Y154.5927
G01 X109.9183 Y154.5911
G01 X109.8845 Y154.5793
G01 X109.8380 Y154.5489
G01 X109.7986 Y154.5096
G01 X109.7404 Y154.4301
G01 X109.6913 Y154.3448
G01 X109.5741 Y154.0840
G01 X109.5028 Y153.8993
G01 X109.3862 Y153.6077
G01 X109.2640 Y153.3184
G01 X109.1364 Y153.0315
G01 X109.0034 Y152.7470
G01 X108.8650 Y152.4650
G01 X108.7403 Y152.2252
G01 X108.6090 Y151.9889
G01 X108.4713 Y151.7564
G01 X108.3935 Y151.6335
G01 X108.3121 Y151.5130
G01 X108.2718 Y151.4566
G01 X107.7070 Y150.6843
G01 X107.1388 Y149.9145
G01 X106.5673 Y149.1472
G01 X106.1589 Y148.6058
G01 X105.7462 Y148.0678
G01 X105.3291 Y147.5331
G01 X105.1020 Y147.2481
G01 X104.8713 Y146.9661
G01 X104.6370 Y146.6870
G01 X104.5146 Y146.5462
G01 X104.3892 Y146.4082
G01 X104.2607 Y146.2730
G01 X104.1704 Y146.1856
G01 X104.0748 Y146.1040
G01 X104.0318 Y146.0740
G01 X103.9852 Y146.0499
G01 X103.9690 Y146.0451
G01 X103.9522 Y146.0445
G01 X103.9413 Y146.0476
G01 X103.9324 Y146.0545
G01 X103.9267 Y146.0643
G01 X103.9219 Y146.0824
G01 X103.9203 Y146.1010
G01 X103.9209 Y146.1081
G01 X103.9412 Y146.2167
G01 X103.9648 Y146.3247
G01 X104.0963 Y146.8685
G01 X104.2342 Y147.4108
G01 X104.3030 Y147.7021
G01 X104.3655 Y148.0191
G01 X104.4185 Y148.3379
G01 X104.4620 Y148.6582
G01 X104.4988 Y149.0084
G01 X104.5247 Y149.3596
G01 X104.5397 Y149.7114
G01 X104.5408 Y149.9966
G01 X104.5285 Y150.2816
G01 X104.5136 Y150.4334
G01 X104.4889 Y150.5840
G01 X104.4686 Y150.6639
G01 X104.4398 Y150.7412
G01 X104.3948 Y150.8067
G01 X104.3683 Y150.8240
G01 X104.3131 Y150.8228
G01 X104.2733 Y150.8000
G01 X104.2397 Y150.7688
G01 X104.1818 Y150.6909
G01 X104.1350 Y150.6059
G01 X104.0872 Y150.4916
G01 X104.0483 Y150.3739
G01 X104.0186 Y150.2536
G01 X103.9634 Y149.9989
G01 X103.9034 Y149.7452
G01 X103.8386 Y149.4928
G01 X103.7690 Y149.2416
G01 X103.6722 Y148.9182
G01 X103.5683 Y148.5970
G01 X103.4573 Y148.2782
G01 X103.3393 Y147.9619
G01 X103.2143 Y147.6483
G01 X103.0824 Y147.3375
G01 X102.9437 Y147.0298
G01 X102.7982 Y146.7251
G01 X102.6467 Y146.4243
G01 X102.4894 Y146.1265
G01 X102.3262 Y145.8318
G01 X102.1574 Y145.5404
G01 X101.9828 Y145.2523
G01 X101.8027 Y144.9677
G01 X101.6170 Y144.6867
G01 X101.4796 Y144.4871
G01 X101.3384 Y144.2900
G01 X101.1937 Y144.0956
G01 X101.0983 Y143.9735
G01 X100.9994 Y143.8542
G01 X100.8971 Y143.7378
G01 X100.8417 Y143.6795
G01 X100.7837 Y143.6239
G01 X100.7231 Y143.5711
G01 X100.6861 Y143.5442
G01 X100.6461 Y143.5223
G01 X100.6286 Y143.5165
G01 X100.6103 Y143.5149
G01 X100.5961 Y143.5188
G01 X100.5852 Y143.5288
G01 X100.5802 Y143.5427
G01 X100.5789 Y143.5850
G01 X100.5843 Y143.6270
G01 X100.5985 Y143.6805
G01 X100.6301 Y143.7711
G01 X100.6659 Y143.8601
G01 X100.7056 Y143.9474
G01 X100.7850 Y144.1071
G01 X100.8681 Y144.2649
G01 X100.9548 Y144.4207
G01 X101.0935 Y144.6573
G01 X101.3059 Y145.0197
G01 X101.5106 Y145.3864
G01 X101.7076 Y145.7573
G01 X101.8741 Y146.0892
G01 X102.0323 Y146.4251
G01 X102.1818 Y146.7649
G01 X102.3149 Y147.0892
G01 X102.4398 Y147.4167
G01 X102.5564 Y147.7472
G01 X102.6647 Y148.0805
G01 X102.7646 Y148.4165
G01 X102.8733 Y148.8180
G01 X102.9722 Y149.2221
G01 X103.0613 Y149.6284
G01 X103.1406 Y150.0368
G01 X103.2391 Y150.6161
G01 X103.3245 Y151.1974
G01 X103.3968 Y151.7805
G01 X103.4843 Y152.6281
G01 X103.5559 Y153.4772
G01 X103.6064 Y154.2781
G01 X103.6063 Y154.6846
G01 X103.5903 Y155.0909
G01 X103.5438 Y155.7290
G01 X103.4795 Y156.3656
G01 X103.4183 Y156.8601
G01 X103.3490 Y157.3536
G01 X103.2715 Y157.8458
G01 X103.1859 Y158.3367
G01 X103.0922 Y158.8261
G01 X102.9776 Y159.3567
G01 X102.8470 Y159.8837
G01 X102.7001 Y160.3804
G01 X102.5613 Y160.7821
G01 X102.4777 Y161.0442
G01 X102.4006 Y161.3083
G01 X102.3699 Y161.4254
G01 X102.3428 Y161.5434
G01 X102.3194 Y161.6621
G01 X102.3116 Y161.7128
G01 X102.3067 Y161.7638
G01 X102.3058 Y161.7882
G01 X102.3058 Y161.7942
G01 X102.3079 Y161.8178
G01 X102.3134 Y161.8408
G01 X102.3186 Y161.8493
G01 X102.3229 Y161.8527
G01 X102.3312 Y161.8556
G01 X102.3400 Y161.8546
G01 X102.3609 Y161.8445
G01 X102.3787 Y161.8296
G01 X102.4288 Y161.7712
G01 X102.4730 Y161.7081
G01 X102.5434 Y161.5921
G01 X102.6101 Y161.4739
G01 X102.6730 Y161.3537
G01 X102.7903 Y161.1154
G01 X102.9030 Y160.8750
G01 X103.0113 Y160.6326
G01 X103.1432 Y160.3215
G01 X103.2693 Y160.0081
G01 X103.3895 Y159.6923
G01 X103.5038 Y159.3744
G01 X103.5696 Y159.1783
G01 X103.6311 Y158.9808
G01 X103.6594 Y158.8834
G01 X104.1539 Y157.1750
G01 X104.2586 Y156.8159
G01 X104.3562 Y156.4539
G01 X104.4476 Y156.0904
G01 X104.5328 Y155.7253
G01 X104.6117 Y155.3589
G01 X104.6518 Y155.1479
G01 X104.6570 Y155.1177
G01 X104.7968 Y154.4038
G01 X104.9142 Y153.8606
G01 X105.0638 Y153.2176
G01 X105.1669 Y152.7880
G01 X105.2512 Y152.3952
G01 X105.3292 Y152.0011
G01 X105.4008 Y151.6059
G01 X105.4661 Y151.2095
G01 X105.5249 Y150.8121
G01 X105.5572 Y150.5585
G01 X105.5595 Y150.5381
G01 X105.5918 Y150.2881
G01 X105.6327 Y150.0394
G01 X105.6822 Y149.7923
G01 X105.7278 Y149.6095
G01 X105.7840 Y149.4297
G01 X105.8496 Y149.2849
G01 X105.8933 Y149.2329
G01 X105.9224 Y149.2244
G01 X105.9629 Y149.2458
G01 X106.0584 Y149.3480
G01 X106.1633 Y149.4940
G01 X106.2606 Y149.6451
G01 X106.4682 Y149.9978
G01 X106.6652 Y150.3565
G01 X106.9186 Y150.8444
G01 X107.1637 Y151.3365
G01 X107.4004 Y151.8326
G01 X107.6288 Y152.3327
G01 X107.8488 Y152.8365
G01 X108.0154 Y153.2430
G01 X108.1704 Y153.6540
G01 X108.2777 Y153.9819
G01 X108.3561 Y154.3060
G01 X108.4011 Y154.5596
G01 X108.4366 Y154.8147
G01 X108.4624 Y155.0710
G01 X108.4877 Y155.4556
G01 X108.5005 Y155.8408
G01 X108.5009 Y156.2262
G01 X108.4867 Y156.7219
G01 X108.4591 Y157.2171
G01 X108.4179 Y157.7114
G01 X108.3745 Y158.1163
G01 X108.3229 Y158.5203
G01 X108.2631 Y158.9231
G01 X108.1953 Y159.3247
G01 X108.1193 Y159.7248
G01 X108.0353 Y160.1233
G01 X107.9330 Y160.5545
G01 X107.8180 Y160.9824
G01 X107.6903 Y161.4067
G01 X107.5837 Y161.7241
G01 X107.4664 Y162.0376
G01 X107.0320 Y163.0676
G01 X107.5683 Y162.4399
G01 X107.6712 Y162.3165
G01 X107.7709 Y162.1906
G01 X107.8912 Y162.0285
G01 X108.0053 Y161.8619
G01 X108.1130 Y161.6911
G01 X108.2142 Y161.5164
G01 X108.3113 Y161.3361
G01 X108.4039 Y161.1534
G01 X108.4918 Y160.9685
G01 X108.5752 Y160.7815
G01 X108.6922 Y160.5042
G01 X108.8049 Y160.2251
G01 X108.9134 Y159.9443
G01 X109.0573 Y159.5563
G01 X109.1643 Y159.2879
G01 X109.2871 Y159.0265
G01 X109.3608 Y158.8930
G01 X109.4437 Y158.7650
G01 X109.4886 Y158.7078
G01 X109.5395 Y158.6558
G01 X109.5977 Y158.6228
G01 X109.6215 Y158.6221
G01 X109.6835 Y158.6841
G01 X109.8698 Y158.9612
G01 X110.3416 Y159.7510
G01 X110.7238 Y160.4242
G01 X111.0973 Y161.1022
G01 X111.4621 Y161.7849
G01 X111.7735 Y162.4077
G01 X111.8600 Y162.6154
G01 X111.8174 Y162.7359
G01 X111.6193 Y162.9193
G01 X111.3250 Y163.1627
G01 X111.0255 Y163.3997
G01 X110.3650 Y163.9044
G01 X109.6987 Y164.4014
G01 X108.7116 Y165.1208
G01 X107.7171 Y165.8299
G01 X106.7153 Y166.5287
G01 X106.1657 Y166.9021
G01 X105.6110 Y167.2677
G01 X105.1039 Y167.5795
G01 X104.9288 Y167.6716
G01 X104.8631 Y167.6941
G01 X104.8109 Y167.6926
G01 X104.7599 Y167.6815
G01 X104.6527 Y167.6414
G01 X104.5503 Y167.5904
G01 X104.3677 Y167.4789
G01 X104.1930 Y167.3553
G01 X103.9714 Y167.1765
G01 X103.7604 Y166.9852
G01 X103.6265 Y166.8604
G01 X103.4387 Y166.6952
G01 X103.2464 Y166.5351
G01 X103.0498 Y166.3803
G01 X102.8490 Y166.2310
G01 X102.6443 Y166.0872
G01 X102.5383 Y166.0173
G01 X102.4302 Y165.9507
G01 X102.3201 Y165.8875
G01 X102.2432 Y165.8477
G01 X102.1234 Y165.7847
G01 X102.0081 Y165.7140
G01 X101.9032 Y165.6381
G01 X101.8051 Y165.5535
G01 X101.7147 Y165.4608
G01 X101.6326 Y165.3606
G01 X101.5477 Y165.2396
G01 X101.4710 Y165.1132
G01 X101.4027 Y164.9821
G01 X101.3100 Y164.7773
G01 X101.2267 Y164.5685
G01 X101.1273 Y164.2954
G01 X100.8011 Y163.4028
G01 X100.4725 Y162.5111
G01 X100.3946 Y162.3009
G01 X100.2296 Y161.8205
G01 X100.1343 Y161.4681
G01 X100.0930 Y161.2595
G01 X100.0633 Y161.0488
G01 X100.0452 Y160.8369
G01 X100.0388 Y160.6243
G01 X100.0431 Y160.1173
G01 X100.0590 Y159.6105
G01 X100.0864 Y159.1041
G01 X100.1126 Y158.6532
G01 X100.1318 Y158.2019
G01 X100.1372 Y157.9697
G01 X100.1371 Y157.7374
G01 X100.1315 Y157.5052
G01 X100.1225 Y157.3455
G01 X100.1070 Y157.1863
G01 X100.0850 Y157.0279
G01 X100.0641 Y156.9175
G01 X100.0369 Y156.8084
G01 X100.0033 Y156.7012
G01 X99.9686 Y156.6110
G01 X99.9276 Y156.5235
G01 X99.8941 Y156.4602
G01 X99.8588 Y156.3978
G01 X99.7527 Y156.2226
G01 X99.6413 Y156.0507
G01 X99.5247 Y155.8823
G01 X99.3674 Y155.6664
G01 X99.2063 Y155.4533
G01 X99.0414 Y155.2431
G01 X98.8728 Y155.0359
G01 X98.7024 Y154.8339
G01 X98.5285 Y154.6349
G01 X98.3512 Y154.4390
G01 X98.1704 Y154.2462
G01 X98.0367 Y154.1098
G01 X97.8993 Y153.9770
G01 X97.7584 Y153.8481
G01 X97.6630 Y153.7670
G01 X97.5638 Y153.6905
G01 X97.5090 Y153.6525
G01 X97.4006 Y153.5832
G01 X97.2907 Y153.5165
G01 X97.2240 Y153.4815
G01 X97.1541 Y153.4536
G01 X97.1200 Y153.4452
G01 X97.0849 Y153.4428
G01 X97.0543 Y153.4471
G01 X97.0256 Y153.4588
G01 X97.0007 Y153.4770
G01 X96.9750 Y153.5040
G01 X96.9526 Y153.5337
G01 X96.9336 Y153.5658
G01 X96.8924 Y153.6507
G01 X96.8555 Y153.7376
G01 X96.8175 Y153.8355
G01 X96.7563 Y153.9842
G01 X96.6868 Y154.1291
G01 X96.6227 Y154.2390
G01 X96.5470 Y154.3412
G01 X96.4833 Y154.4057
G01 X96.4091 Y154.4579
G01 X96.3188 Y154.4920
G01 X96.2577 Y154.4978
G01 X96.1968 Y154.4907
G01 X96.1096 Y154.4626
G01 X96.0290 Y154.4189
G01 X95.9291 Y154.3439
G01 X95.8377 Y154.2588
G01 X95.6772 Y154.0760
G01 X95.2211 Y153.5040
G01 X94.9652 Y154.0658
G01 X94.9060 Y154.1827
G01 X94.8374 Y154.2944
G01 X94.7726 Y154.3775
G01 X94.6969 Y154.4507
G01 X94.6352 Y154.4925
G01 X94.5660 Y154.5203
G01 X94.5190 Y154.5283
G01 X94.4714 Y154.5258
G01 X94.4254 Y154.5129
G01 X94.3834 Y154.4902
G01 X94.3392 Y154.4547
G01 X94.3005 Y154.4131
G01 X94.2682 Y154.3665
G01 X94.2142 Y154.2592
G01 X94.1750 Y154.1456
G01 X94.1451 Y154.0164
G01 X94.1247 Y153.8853
G01 X94.1099 Y153.7752
G01 X94.0916 Y153.6656
G01 X94.0804 Y153.6161
G01 X94.0654 Y153.5675
G01 X94.0466 Y153.5203
G01 X94.0295 Y153.4887
G01 X94.0077 Y153.4601
G01 X93.9812 Y153.4357
G01 X93.9504 Y153.4168
G01 X93.9165 Y153.4043
G01 X93.8708 Y153.3949
G01 X93.8244 Y153.3905
G01 X93.7778 Y153.3912
G01 X93.6668 Y153.4022
G01 X93.5566 Y153.4195
G01 X93.3925 Y153.4520
G01 X93.2642 Y153.4806
G01 X93.1367 Y153.5128
G01 X92.9367 Y153.5691
G01 X92.7383 Y153.6307
G01 X92.5417 Y153.6976
G01 X92.3468 Y153.7698
G01 X92.1416 Y153.8520
G01 X91.9386 Y153.9396
G01 X91.7380 Y154.0325
G01 X91.5399 Y154.1306
G01 X91.3444 Y154.2339
G01 X91.1694 Y154.3338
G01 X90.9985 Y154.4404
G01 X90.8318 Y154.5536
G01 X90.7518 Y154.6126
G01 X90.6741 Y154.6746
G01 X90.5989 Y154.7395
G01 X90.5360 Y154.7990
G01 X90.4237 Y154.9017
G01 X90.3028 Y154.9942
G01 X90.2282 Y155.0410
G01 X90.1494 Y155.0806
G01 X90.0673 Y155.1124
G01 X90.0024 Y155.1293
G01 X89.9358 Y155.1374
G01 X89.8687 Y155.1366
G01 X89.8157 Y155.1281
G01 X89.7646 Y155.1115
G01 X89.7168 Y155.0870
G01 X89.6734 Y155.0554
G01 X89.6355 Y155.0174
G01 X89.5921 Y154.9590
G01 X89.5572 Y154.8951
G01 X89.5312 Y154.8271
G01 X89.5028 Y154.7099
G01 X89.4881 Y154.5902
G01 X89.4813 Y154.3899
G01 X89.4702 Y154.2836
G01 X89.4600 Y154.2308
G01 X89.4445 Y154.1793
G01 X89.4237 Y154.1297
G01 X89.4033 Y154.0949
G01 X89.3774 Y154.0639
G01 X89.3464 Y154.0382
G01 X89.3110 Y154.0190
G01 X89.2726 Y154.0068
G01 X89.2242 Y153.9997
G01 X89.1752 Y153.9988
G01 X89.1266 Y154.0041
G01 X89.0484 Y154.0206
G01 X88.9716 Y154.0427
G01 X88.8966 Y154.0704
G01 X88.7720 Y154.1245
G01 X88.6497 Y154.1835
G01 X88.5299 Y154.2474
G01 X88.2783 Y154.3924
G01 X88.0304 Y154.5437
G01 X87.9624 Y154.5866
G01 X87.8325 Y154.6723
G01 X87.7059 Y154.7627
G01 X87.5537 Y154.8793
G01 X87.4052 Y155.0007
G01 X87.2607 Y155.1267
G01 X87.1202 Y155.2572
G01 X86.9840 Y155.3921
G01 X86.8184 Y155.5663
G01 X86.6579 Y155.7451
G01 X86.5026 Y155.9284
G01 X86.3526 Y156.1162
G01 X86.2081 Y156.3081
G01 X86.0566 Y156.5218
G01 X85.9113 Y156.7397
G01 X85.7721 Y156.9616
G01 X85.6394 Y157.1874
G01 X85.5130 Y157.4168
G01 X85.3933 Y157.6497
G01 X85.2802 Y157.8860
G01 X85.1738 Y158.1253
G01 X85.1080 Y158.2842
G01 X85.0457 Y158.4444
G01 X84.9870 Y158.6060
G01 X84.9698 Y158.6556
G01 X84.7985 Y159.1128
G01 X84.6987 Y159.3362
G01 X84.5843 Y159.5526
G01 X84.4961 Y159.6943
G01 X84.3975 Y159.8292
G01 X84.3126 Y159.9297
G01 X84.2212 Y160.0245
G01 X84.1239 Y160.1131
G01 X84.0209 Y160.1952
G01 X83.8795 Y160.2939
G01 X83.7324 Y160.3839
G01 X83.5801 Y160.4648
G01 X83.2937 Y160.5960
G01 X83.0004 Y160.7108
G01 X82.6324 Y160.8374
G01 X82.2610 Y160.9538
G01 X81.7025 Y161.1153
G01 X81.4801 Y161.1798
G01 X81.1725 Y161.2753
G01 X80.8667 Y161.3767
G01 X80.5628 Y161.4837
G01 X80.2610 Y161.5964
G01 X79.9614 Y161.7148
G01 X79.7992 Y161.7830
G01 X79.6388 Y161.8550
G01 X79.4801 Y161.9310
G01 X79.3823 Y161.9822
G01 X79.0379 Y162.1641
G01 X78.9147 Y162.2205
G01 X78.7879 Y162.2680
G01 X78.7121 Y162.2889
G01 X78.6345 Y162.3015
G01 X78.5610 Y162.3041
G01 X78.4878 Y162.2964
G01 X78.4165 Y162.2784
G01 X78.3225 Y162.2425
G01 X78.2323 Y162.1981
G01 X77.9577 Y162.0289
G01 X77.6886 Y161.8356
G01 X77.4277 Y161.6315
G01 X77.0213 Y161.2903
G01 X76.6248 Y160.9378
G01 X76.2246 Y160.5628
G01 X75.8335 Y160.1781
G01 X75.4520 Y159.7840
G01 X75.1973 Y159.5051
G01 X74.9525 Y159.2175
G01 X74.8402 Y159.0738
G01 X74.7354 Y158.9246
G01 X74.6534 Y158.7767
G01 X74.6332 Y158.7125
G01 X74.6766 Y158.4733
G01 X74.7581 Y158.2256
G01 X74.8491 Y157.9811
G01 X75.0461 Y157.4990
G01 X75.2551 Y157.0220
G01 X75.5140 Y156.4685
G01 X75.7588 Y155.9586
G01 X75.9582 Y155.5293
G01 X76.1524 Y155.0977
G01 X76.3413 Y154.6637
G01 X76.5205 Y154.2354
G01 X76.6927 Y153.8043
G01 X76.8578 Y153.3704
G01 X77.0158 Y152.9339
G01 X77.1667 Y152.4949
G01 X77.3022 Y152.0777
G01 X77.4301 Y151.6582
G01 X77.5504 Y151.2364
G01 X77.6632 Y150.8126
G01 X77.7683 Y150.3868
G01 X77.8658 Y149.9591
G01 X77.9555 Y149.5298
G01 X78.0375 Y149.0989
G01 X78.1155 Y148.6479
G01 X78.1862 Y148.1958
G01 X78.2498 Y147.7425
G01 X78.3061 Y147.2883
G01 X78.3552 Y146.8332
G01 X78.4031 Y146.3177
G01 X78.4439 Y145.8016
G01 X78.4777 Y145.2849
G01 X78.4877 Y145.0723
G01 X78.4930 Y144.8596
G01 X78.4938 Y144.5217
G01 X78.4868 Y144.1840
G01 X78.4720 Y143.8465
G01 X78.4495 Y143.5094
G01 X78.4177 Y143.1422
G01 X78.3799 Y142.7756
G01 X78.3361 Y142.4096
G01 X78.2863 Y142.0443
G01 X78.2306 Y141.6800
G01 X78.1585 Y141.2525
G01 X78.0806 Y140.8261
G01 X77.9968 Y140.4009
G01 X77.9072 Y139.9768
G01 X77.8117 Y139.5540
G01 X77.7226 Y139.1810
G01 X77.6296 Y138.8089
G01 X77.5326 Y138.4379
G01 X77.3691 Y137.8046
G01 X77.2161 Y137.1686
G01 X77.0737 Y136.5302
G01 X76.9419 Y135.8895
G01 X76.8332 Y135.3089
G01 X76.7352 Y134.7263
G01 X76.6482 Y134.1420
G01 X76.5722 Y133.5562
G01 X76.5206 Y133.0883
G01 X76.4783 Y132.6196
G01 X76.4455 Y132.1501
G01 X76.4219 Y131.6800
G01 X76.4083 Y131.0012
G01 X76.4149 Y130.5478
G01 X76.4303 Y130.1842
G01 X76.4548 Y129.8212
G01 X76.4853 Y129.5044
G01 X76.5260 Y129.1888
G01 X76.5769 Y128.8747
G01 X76.6433 Y128.5484
G01 X76.6533 Y128.4954
G01 X76.6594 Y128.4418
G01 X76.6587 Y128.4231
G01 X76.6538 Y128.4051
G01 X76.6489 Y128.3987
G01 X76.6415 Y128.3957
G01 X76.6336 Y128.3969
G01 X76.6188 Y128.4053
G01 X76.6057 Y128.4161
G01 X76.5611 Y128.4647
G01 X76.5212 Y128.5173
G01 X76.4425 Y128.6361
G01 X76.3679 Y128.7576
G01 X76.3470 Y128.7955
G01 X76.3283 Y128.8345
G01 X76.2882 Y128.9324
G01 X76.2538 Y129.0324
G01 X76.2250 Y129.1341
G01 X76.1815 Y129.3210
G01 X76.1450 Y129.5094
G01 X76.1157 Y129.6990
G01 X76.0811 Y129.9804
G01 X76.0530 Y130.2625
G01 X76.0317 Y130.5452
G01 X76.0170 Y130.8284
G01 X76.0023 Y131.2981
G01 X75.9955 Y131.7681
G01 X75.9966 Y132.2381
G01 X76.0058 Y132.7080
G01 X76.0228 Y133.1776
G01 X76.0479 Y133.6470
G01 X76.0809 Y134.1158
G01 X76.1120 Y134.4773
G01 X76.1484 Y134.8383
G01 X76.1899 Y135.1987
G01 X76.2366 Y135.5585
G01 X76.2721 Y135.8035
G01 X76.3112 Y136.0480
G01 X76.3540 Y136.2919
G01 X76.3936 Y136.4983
G01 X76.7465 Y138.3190
G01 X76.8793 Y139.0581
G01 X76.9998 Y139.7993
G01 X77.0813 Y140.3712
G01 X77.1497 Y140.9448
G01 X77.2048 Y141.5198
G01 X77.2816 Y142.5653
G01 X77.2938 Y142.8255
G01 X77.3034 Y143.3652
G01 X77.2991 Y143.9050
G01 X77.2719 Y144.7974
G01 X77.2276 Y145.6892
G01 X77.1820 Y146.3774
G01 X77.1271 Y147.0650
G01 X77.0627 Y147.7518
G01 X77.0023 Y148.2912
G01 X76.9298 Y148.8292
G01 X76.8876 Y149.0873
G01 X76.8369 Y149.3440
G01 X76.7736 Y149.5749
G01 X76.7372 Y149.6582
G01 X76.7074 Y149.7038
G01 X76.6786 Y149.7601
G01 X76.6532 Y149.8179
G01 X76.6312 Y149.8772
G01 X76.5885 Y150.0119
G01 X76.5506 Y150.1481
G01 X76.5175 Y150.2856
G01 X76.4901 Y150.4177
G01 X76.4663 Y150.5505
G01 X76.4555 Y150.6197
G01 X76.3984 Y150.9635
G01 X76.3204 Y151.3605
G01 X76.2333 Y151.7555
G01 X76.1373 Y152.1485
G01 X75.9877 Y152.7093
G01 X75.8274 Y153.2670
G01 X75.6564 Y153.8216
G01 X75.4500 Y154.4464
G01 X75.2308 Y155.0667
G01 X74.9987 Y155.6823
G01 X74.7849 Y156.2095
G01 X74.5560 Y156.7302
G01 X74.4047 Y157.0452
G01 X74.2416 Y157.3543
G01 X74.1433 Y157.5218
G01 X74.0361 Y157.6837
G01 X73.9697 Y157.7704
G01 X73.8964 Y157.8512
G01 X73.8489 Y157.8924
G01 X73.7958 Y157.9260
G01 X73.7518 Y157.9407
G01 X73.7003 Y157.9379
G01 X73.6359 Y157.9174
G01 X73.5751 Y157.8876
G01 X73.4574 Y157.8124
G01 X73.3461 Y157.7280
G01 X73.1384 Y157.5490
G01 X72.9391 Y157.3607
G01 X72.5814 Y156.9976
G01 X72.2335 Y156.6251
G01 X71.7621 Y156.1001
G01 X71.2973 Y155.5692
G01 X70.4472 Y154.5801
G01 X70.4472 Y151.4877
G01 X70.4461 Y151.1642
G01 X70.4384 Y150.5265
G01 X70.4233 Y149.8890
G01 X70.4010 Y149.2516
G01 X70.3715 Y148.6146
G01 X70.3526 Y148.2949
G01 X70.3294 Y147.9755
G01 X70.3018 Y147.6564
G01 X70.2845 Y147.4935
G01 X70.2632 Y147.3311
G01 X70.2518 Y147.2585
G01 X70.0876 Y146.2171
G01 X69.9718 Y145.3794
G01 X69.9296 Y145.0475
G01 X69.8888 Y144.7901
G01 X69.8443 Y144.5332
G01 X69.7961 Y144.2771
G01 X69.6867 Y143.7290
G01 X69.5729 Y143.1819
G01 X69.4545 Y142.6357
G01 X69.2872 Y141.8945
G01 X69.1131 Y141.1550
G01 X68.9320 Y140.4170
G01 X68.8497 Y140.0965
G01 X68.7637 Y139.7770
G01 X68.6738 Y139.4586
G01 X68.6121 Y139.2574
G01 X68.5991 Y139.2179
G01 X68.0487 Y137.4523
G01 X67.9594 Y137.1604
G01 X67.8427 Y136.8079
G01 X67.7185 Y136.4578
G01 X67.5869 Y136.1106
G01 X67.4480 Y135.7661
G01 X67.3786 Y135.6054
G01 X67.3051 Y135.4465
G01 X67.2707 Y135.3768
G01 X67.1399 Y135.1026
G01 X67.0504 Y134.8903
G01 X66.9693 Y134.6745
G01 X66.9303 Y134.5515
G01 X66.8994 Y134.4262
G01 X66.8911 Y134.3648
G01 X66.8883 Y134.3170
G01 X66.8769 Y134.2478
G01 X66.8616 Y134.1794
G01 X66.8424 Y134.1119
G01 X66.7859 Y133.9451
G01 X66.7224 Y133.7808
G01 X66.6520 Y133.6193
G01 X66.5950 Y133.5007
G01 X66.5703 Y133.4521
G01 X66.4760 Y133.2572
G01 X66.3759 Y133.0258
G01 X66.2832 Y132.7913
G01 X66.1980 Y132.5540
G01 X66.0702 Y132.1631
G01 X65.9527 Y131.7689
G01 X65.8455 Y131.3718
G01 X65.7076 Y130.8088
G01 X65.5818 Y130.2430
G01 X65.4682 Y129.6747
G01 X65.3741 Y129.1543
G01 X65.2881 Y128.6325
G01 X65.2103 Y128.1095
G01 X65.1406 Y127.5853
G01 X65.0791 Y127.0601
G01 X65.0257 Y126.5340
G01 X64.9806 Y126.0071
G01 X64.9329 Y125.2562
G01 X64.9307 Y125.2134
G01 X64.9178 Y125.0159
G01 X64.9002 Y124.8188
G01 X64.8780 Y124.6221
G01 X64.8512 Y124.4259
G01 X64.8311 Y124.3058
G01 X64.8068 Y124.1864
G01 X64.7781 Y124.0680
G01 X64.7562 Y123.9982
G01 X64.7276 Y123.9308
G01 X64.7192 Y123.9159
G01 X64.7090 Y123.9022
G01 X64.7034 Y123.8963
G01 X64.6919 Y123.8882
G01 X64.6819 Y123.8858
G01 X64.6719 Y123.8883
G01 X64.6643 Y123.8952
G01 X64.6490 Y123.9225
G01 X64.6390 Y123.9522
G01 X64.6221 Y124.0398
G01 X64.6120 Y124.1285
G01 X64.6008 Y124.3226
G01 X64.5957 Y124.5168
G01 X64.5953 Y124.5711
G01 X64.5952 Y124.6249
G01 X64.5962 Y124.7850
G01 X64.5993 Y124.9450
G01 X64.6120 Y125.3412
G01 X64.6296 Y125.7371
G01 X64.6521 Y126.1328
G01 X64.6889 Y126.6632
G01 X64.7324 Y127.1932
G01 X64.7826 Y127.7225
G01 X64.8394 Y128.2512
G01 X64.8784 Y128.5718
G01 X64.9223 Y128.8918
G01 X64.9711 Y129.2111
G01 X65.0124 Y129.4465
G01 X65.0606 Y129.6806
G01 X65.0902 Y129.8036
G01 X65.5813 Y131.7648
G01 X65.8759 Y133.0034
G01 X66.1599 Y134.2444
G01 X66.4331 Y135.4879
G01 X66.5905 Y136.2399
G01 X66.7393 Y136.9936
G01 X66.8672 Y137.7425
G01 X66.9281 Y138.2120
G01 X66.9781 Y138.6828
G01 X67.0171 Y139.1545
G01 X67.0566 Y139.7990
G01 X67.0836 Y140.4441
G01 X67.0982 Y141.0896
G01 X67.1010 Y141.7056
G01 X67.0937 Y142.3216
G01 X67.0763 Y142.9374
G01 X67.0487 Y143.5529
G01 X67.0111 Y144.1677
G01 X66.9669 Y144.7187
G01 X66.9110 Y145.2685
G01 X66.8436 Y145.8171
G01 X66.7888 Y146.1922
G01 X66.7250 Y146.5659
G01 X66.6545 Y146.9260
G01 X66.5484 Y147.4786
G01 X66.4496 Y148.0326
G01 X66.3579 Y148.5879
G01 X66.3134 Y148.8924
G01 X66.2763 Y149.1979
G01 X66.2698 Y149.2684
G01 X66.2656 Y149.3390
G01 X66.2650 Y149.3662
G01 X66.2434 Y149.5552
G01 X66.2160 Y149.6966
G01 X66.1373 Y150.0242
G01 X66.0483 Y150.3491
G01 X65.9228 Y150.7651
G01 X65.7888 Y151.1784
G01 X65.6464 Y151.5889
G01 X65.5762 Y151.7830
G01 X65.3721 Y152.3526
G01 X65.1713 Y152.9234
G01 X64.9741 Y153.4954
G01 X64.9192 Y153.6598
G01 X64.8667 Y153.8250
G01 X64.8556 Y153.8624
G01 X64.7799 Y154.0857
G01 X64.7138 Y154.2408
G01 X64.6382 Y154.3916
G01 X64.5833 Y154.4804
G01 X64.5584 Y154.5150
G01 X64.4725 Y154.6544
G01 X64.3905 Y154.7960
G01 X64.0829 Y155.3504
G01 X63.7808 Y155.9079
G01 X63.3634 Y156.6952
G01 X62.0728 Y159.1418
G01 X61.3929 Y160.3954
G01 X61.0481 Y160.9856
G01 X60.9573 Y161.1255
G01 X60.8600 Y161.2609
G01 X60.8012 Y161.3309
G01 X60.7358 Y161.3948
G01 X60.6759 Y161.4372
G01 X60.5618 Y161.4620
G01 X60.5342 Y161.4435
G01 X60.5062 Y161.4065
G01 X60.4871 Y161.3642
G01 X60.4647 Y161.2804
G01 X60.4511 Y161.1947
G01 X60.4464 Y161.1080
G01 X60.4517 Y160.8003
G01 X60.4689 Y160.4931
G01 X60.4980 Y160.1868
G01 X60.5389 Y159.8819
G01 X60.5926 Y159.5612
G01 X60.6721 Y159.1499
G01 X60.7619 Y158.7407
G01 X60.8618 Y158.3338
G01 X60.9718 Y157.9296
G01 X61.2470 Y156.9947
G01 X61.2867 Y156.8488
G01 X61.3215 Y156.7015
G01 X61.3293 Y156.6546
G01 X61.3325 Y156.6072
G01 X61.3313 Y156.5954
G01 X61.3274 Y156.5843
G01 X61.3198 Y156.5775
G01 X61.3095 Y156.5778
G01 X61.2947 Y156.5859
G01 X61.2815 Y156.5964
G01 X61.2332 Y156.6452
G01 X61.1882 Y156.6971
G01 X61.0306 Y156.8959
G01 X60.9948 Y156.9429
G01 X60.9168 Y157.0520
G01 X60.8434 Y157.1643
G01 X60.7748 Y157.2795
G01 X60.7110 Y157.3975
G01 X60.6809 Y157.4605
G01 X60.6545 Y157.5251
G01 X60.6319 Y157.5912
G01 X60.6245 Y157.6199
G01 X60.6199 Y157.6492
G01 X60.6191 Y157.6628
G01 X60.5747 Y157.8449
G01 X60.3754 Y158.4039
G01 X60.1478 Y158.9770
G01 X59.9095 Y159.5457
G01 X59.7822 Y159.8482
G01 X59.6596 Y160.1526
G01 X59.5418 Y160.4588
G01 X59.4287 Y160.7669
G01 X59.3105 Y161.1079
G01 X59.1995 Y161.4513
G01 X59.0958 Y161.7970
G01 X58.9992 Y162.1448
G01 X58.9100 Y162.4945
G01 X58.8282 Y162.8460
G01 X58.7537 Y163.1992
G01 X58.6843 Y163.5633
G01 X58.6213 Y163.9285
G01 X58.5649 Y164.2948
G01 X58.5150 Y164.6621
G01 X58.4716 Y165.0302
G01 X58.4225 Y165.5182
G01 X58.3814 Y166.0070
G01 X58.3482 Y166.4964
G01 X58.3230 Y166.9862
G01 X58.3005 Y167.5961
G01 X58.2855 Y168.2063
G01 X58.2782 Y168.8165
G01 X58.2772 Y169.1560
G01 X58.2774 Y169.3355
G01 X58.2807 Y169.8475
G01 X58.2880 Y170.3594
G01 X58.3067 Y171.2096
G01 X58.3317 Y172.0596
G01 X58.3630 Y172.9094
G01 X58.3929 Y173.6110
G01 X58.4256 Y174.3124
G01 X58.4603 Y175.1465
G01 X58.4837 Y175.9809
G01 X58.4888 Y176.4601
G01 X58.4839 Y176.9393
G01 X58.4592 Y177.3820
G01 X58.4324 Y177.5466
G01 X58.4096 Y177.5990
G01 X58.3200 Y177.5944
G01 X58.2475 Y177.5599
G01 X58.1832 Y177.5117
G01 X58.0975 Y177.4226
G01 X58.0233 Y177.3238
G01 X57.9200 Y177.1525
G01 X57.8309 Y176.9733
G01 X57.7468 Y176.7752
G01 X57.6705 Y176.5740
G01 X57.6021 Y176.3699
G01 X57.5046 Y176.0395
G01 X57.4181 Y175.7061
G01 X57.3427 Y175.3701
G01 X57.2725 Y175.0104
G01 X57.2105 Y174.6493
G01 X57.1568 Y174.2868
G01 X57.1114 Y173.9232
G01 X57.0755 Y173.6046
G01 X57.0608 Y173.5376
G01 X57.0517 Y173.5097
G01 X57.0392 Y173.4831
G01 X57.0235 Y173.4583
G01 X57.0125 Y173.4462
G01 X56.9989 Y173.4370
G01 X56.9837 Y173.4318
G01 X56.9675 Y173.4311
G01 X56.9519 Y173.4353
G01 X56.9291 Y173.4473
G01 X56.9085 Y173.4627
G01 X56.8906 Y173.4813
G01 X56.8560 Y173.5275
G01 X56.8256 Y173.5766
G01 X56.7997 Y173.6282
G01 X56.7595 Y173.7262
G01 X56.7254 Y173.8265
G01 X56.6976 Y173.9287
G01 X56.6765 Y174.0273
G01 X56.6601 Y174.1267
G01 X56.6484 Y174.2268
G01 X56.6414 Y174.3274
