(Generated with: DXF2GCODE, Version: Py3.8.0 PyQt5.13.2, Date: $Date: Fri Oct 25 20:45:56 2019 +0200 $)
(Created from file: /home/lorenzo/Desktop/star_wars.dxf)
(Output format description: G-CODE for LinuxCNC)
(Time: Sat Dec 14 23:19:15 2019)
G21 (Units in millimeters)
G90 (Absolute programming)
G64 (Default cutting) G17 (XY plane) G40 (Cancel radius comp.) G49 (Cancel length comp.)
G00 Z0.00

(*** LAYER: 0 ***)
T1 M6
S6000

(* SHAPE Nr: 2 *)
G00 X103.98 Y2.25
M3 M8
G00 Z6
G00 Z6.00
F30
G01 Z6.00
F15
G01 X103.98 Y2.50
G01 X103.99 Y2.75
G01 X103.99 Y2.85
G01 X104.00 Y2.96
G01 X104.02 Y3.06
G01 X104.03 Y3.12
G01 X104.04 Y3.18
G01 X104.06 Y3.24
G01 X104.08 Y3.28
G01 X104.11 Y3.32
G01 X104.13 Y3.35
G01 X104.16 Y3.37
G01 X104.19 Y3.38
G01 X104.22 Y3.39
G01 X104.27 Y3.41
G01 X104.32 Y3.41
G01 X104.37 Y3.41
G01 X104.47 Y3.40
G01 X104.58 Y3.39
G01 X104.64 Y3.38
G01 X104.70 Y3.37
G01 X104.76 Y3.35
G01 X104.82 Y3.32
G01 X104.88 Y3.29
G01 X104.94 Y3.25
G01 X104.99 Y3.21
G01 X105.04 Y3.16
G01 X105.09 Y3.12
G01 X105.14 Y3.05
G01 X105.18 Y2.99
G01 X105.22 Y2.92
G01 X105.24 Y2.84
G01 X105.27 Y2.77
G01 X105.28 Y2.69
G01 X105.29 Y2.61
G01 X105.29 Y2.54
G01 X105.28 Y2.47
G01 X105.27 Y2.40
G01 X105.25 Y2.33
G01 X105.22 Y2.27
G01 X105.20 Y2.22
G01 X105.16 Y2.17
G01 X105.12 Y2.12
G01 X105.08 Y2.08
G01 X105.04 Y2.04
G01 X104.99 Y2.01
G01 X104.93 Y1.98
G01 X104.86 Y1.95
G01 X104.80 Y1.93
G01 X104.67 Y1.89
G01 X104.56 Y1.84
G01 X104.48 Y1.80
G01 X104.42 Y1.74
G01 X104.39 Y1.71
G01 X104.38 Y1.67
G01 X104.37 Y1.63
G01 X104.38 Y1.59
G01 X104.39 Y1.57
G01 X104.40 Y1.54
G01 X104.41 Y1.50
G01 X104.42 Y1.46
G01 X104.41 Y1.41
G01 X104.40 Y1.37
G01 X104.38 Y1.33
G01 X104.36 Y1.29
G01 X104.33 Y1.25
G01 X104.29 Y1.22
G01 X104.25 Y1.19
G01 X104.23 Y1.19
G01 X104.22 Y1.18
G01 X104.19 Y1.18
G01 X104.17 Y1.18
G01 X104.15 Y1.20
G01 X104.13 Y1.22
G01 X104.11 Y1.25
G01 X104.10 Y1.27
G01 X104.07 Y1.34
G01 X104.05 Y1.40
G01 X104.04 Y1.46
G01 X104.02 Y1.58
G01 X104.00 Y1.70
G01 X103.99 Y1.83
G01 X103.98 Y2.04
G01 X103.98 Y2.25
F30
G01 Z6.00
G00 Z0.00
M9 M5
G00 Z0

(* SHAPE Nr: 3 *)
G00 X104.39 Y2.46
M3 M8
G00 Z6
G00 Z6.00
G01 Z6.00
F20
G01 X104.37 Y2.48
G01 X104.36 Y2.50
G01 X104.35 Y2.53
G01 X104.35 Y2.55
G01 X104.35 Y2.57
G01 X104.35 Y2.59
G01 X104.36 Y2.62
G01 X104.38 Y2.65
G01 X104.41 Y2.69
G01 X104.45 Y2.74
G01 X104.49 Y2.78
G01 X104.54 Y2.81
G01 X104.59 Y2.85
G01 X104.64 Y2.87
G01 X104.69 Y2.89
G01 X104.74 Y2.91
G01 X104.77 Y2.91
G01 X104.79 Y2.91
G01 X104.80 Y2.91
G01 X104.84 Y2.91
G01 X104.87 Y2.90
G01 X104.90 Y2.88
G01 X104.93 Y2.86
G01 X104.96 Y2.83
G01 X104.99 Y2.80
G01 X105.01 Y2.77
G01 X105.03 Y2.73
G01 X105.04 Y2.69
G01 X105.04 Y2.65
G01 X105.04 Y2.64
G01 X105.04 Y2.62
G01 X105.03 Y2.60
G01 X105.02 Y2.57
G01 X105.01 Y2.55
G01 X104.99 Y2.53
G01 X104.97 Y2.50
G01 X104.94 Y2.47
G01 X104.90 Y2.45
G01 X104.87 Y2.43
G01 X104.81 Y2.41
G01 X104.75 Y2.39
G01 X104.69 Y2.38
G01 X104.63 Y2.38
G01 X104.58 Y2.38
G01 X104.54 Y2.39
G01 X104.49 Y2.40
G01 X104.45 Y2.41
G01 X104.42 Y2.43
G01 X104.39 Y2.46
F30
G01 Z6.00
G00 Z0.00
M9 M5
G00 Z0

(* SHAPE Nr: 4 *)
G00 X125.41 Y2.25
M3 M8
G00 Z6
G00 Z6.00
G01 Z6.00
F20
G01 X125.41 Y2.48
G01 X125.42 Y2.71
G01 X125.42 Y2.81
G01 X125.43 Y2.92
G01 X125.45 Y3.02
G01 X125.46 Y3.09
G01 X125.47 Y3.15
G01 X125.50 Y3.21
G01 X125.52 Y3.26
G01 X125.55 Y3.30
G01 X125.57 Y3.33
G01 X125.60 Y3.35
G01 X125.63 Y3.37
G01 X125.66 Y3.39
G01 X125.71 Y3.41
G01 X125.77 Y3.42
G01 X125.82 Y3.43
G01 X125.93 Y3.44
G01 X126.03 Y3.44
G01 X126.05 Y3.44
G01 X126.10 Y3.44
G01 X126.18 Y3.43
G01 X126.27 Y3.42
G01 X126.35 Y3.40
G01 X126.43 Y3.38
G01 X126.52 Y3.35
G01 X126.58 Y3.32
G01 X126.64 Y3.28
G01 X126.70 Y3.24
G01 X126.73 Y3.21
G01 X126.76 Y3.18
G01 X126.78 Y3.15
G01 X126.79 Y3.13
G01 X126.80 Y3.11
G01 X126.85 Y3.00
G01 X126.90 Y2.95
G01 X126.92 Y2.93
G01 X126.95 Y2.92
G01 X126.99 Y2.92
G01 X127.04 Y2.93
G01 X127.09 Y2.96
G01 X127.25 Y3.06
G01 X127.43 Y3.20
G01 X127.51 Y3.25
G01 X127.60 Y3.30
G01 X127.67 Y3.33
G01 X127.74 Y3.35
G01 X127.82 Y3.37
G01 X127.90 Y3.38
G01 X127.96 Y3.38
G01 X128.03 Y3.37
G01 X128.09 Y3.36
G01 X128.14 Y3.34
G01 X128.20 Y3.32
G01 X128.25 Y3.29
G01 X128.30 Y3.25
G01 X128.34 Y3.21
G01 X128.39 Y3.17
G01 X128.43 Y3.12
G01 X128.46 Y3.06
G01 X128.49 Y3.01
G01 X128.51 Y2.95
G01 X128.54 Y2.87
G01 X128.56 Y2.80
G01 X128.57 Y2.72
G01 X128.58 Y2.65
G01 X128.59 Y2.58
G01 X128.59 Y2.52
G01 X128.58 Y2.40
G01 X128.57 Y2.28
G01 X128.56 Y2.22
G01 X128.55 Y2.15
G01 X128.53 Y2.09
G01 X128.51 Y2.05
G01 X128.48 Y2.01
G01 X128.45 Y1.98
G01 X128.41 Y1.95
G01 X128.37 Y1.92
G01 X128.31 Y1.90
G01 X128.25 Y1.88
G01 X128.19 Y1.87
G01 X128.07 Y1.86
G01 X127.96 Y1.85
G01 X127.94 Y1.85
G01 X127.89 Y1.85
G01 X127.79 Y1.86
G01 X127.70 Y1.87
G01 X127.61 Y1.89
G01 X127.51 Y1.91
G01 X127.42 Y1.93
G01 X127.36 Y1.96
G01 X127.29 Y1.99
G01 X127.23 Y2.02
G01 X127.19 Y2.05
G01 X127.15 Y2.09
G01 X127.14 Y2.11
G01 X127.09 Y2.16
G01 X127.04 Y2.19
G01 X126.97 Y2.21
G01 X126.90 Y2.21
G01 X126.79 Y2.19
G01 X126.68 Y2.15
G01 X126.57 Y2.11
G01 X126.47 Y2.05
G01 X126.37 Y1.99
G01 X126.28 Y1.92
G01 X126.19 Y1.84
G01 X126.10 Y1.74
G01 X126.02 Y1.64
G01 X125.98 Y1.55
G01 X125.95 Y1.46
G01 X125.94 Y1.39
G01 X125.94 Y1.35
G01 X125.93 Y1.30
G01 X125.92 Y1.26
G01 X125.90 Y1.22
G01 X125.88 Y1.18
G01 X125.86 Y1.15
G01 X125.83 Y1.12
G01 X125.80 Y1.10
G01 X125.77 Y1.08
G01 X125.74 Y1.07
G01 X125.71 Y1.06
G01 X125.68 Y1.06
G01 X125.66 Y1.06
G01 X125.65 Y1.07
G01 X125.62 Y1.08
G01 X125.61 Y1.10
G01 X125.59 Y1.12
G01 X125.56 Y1.17
G01 X125.54 Y1.23
G01 X125.52 Y1.28
G01 X125.49 Y1.40
G01 X125.47 Y1.51
G01 X125.45 Y1.63
G01 X125.43 Y1.79
G01 X125.42 Y1.94
G01 X125.41 Y2.09
G01 X125.41 Y2.25
F30
G01 Z6.00
G00 Z0.00
M9 M5
G00 Z0

(* SHAPE Nr: 5 *)
G00 X125.98 Y2.51
M3 M8
G00 Z6
G00 Z6.00
G01 Z6.00
F20
G01 X125.96 Y2.55
G01 X125.95 Y2.59
G01 X125.94 Y2.63
G01 X125.94 Y2.65
G01 X125.94 Y2.66
G01 X125.95 Y2.70
G01 X125.96 Y2.74
G01 X125.97 Y2.77
G01 X125.99 Y2.80
G01 X126.02 Y2.83
G01 X126.04 Y2.85
G01 X126.07 Y2.87
G01 X126.11 Y2.89
G01 X126.15 Y2.90
G01 X126.19 Y2.91
G01 X126.21 Y2.91
G01 X126.22 Y2.91
G01 X126.26 Y2.90
G01 X126.30 Y2.89
G01 X126.33 Y2.88
G01 X126.36 Y2.86
G01 X126.39 Y2.84
G01 X126.41 Y2.81
G01 X126.43 Y2.78
G01 X126.45 Y2.74
G01 X126.46 Y2.71
G01 X126.47 Y2.67
G01 X126.47 Y2.65
G01 X126.47 Y2.63
G01 X126.47 Y2.59
G01 X126.45 Y2.56
G01 X126.44 Y2.52
G01 X126.42 Y2.49
G01 X126.40 Y2.46
G01 X126.37 Y2.44
G01 X126.34 Y2.42
G01 X126.30 Y2.40
G01 X126.27 Y2.39
G01 X126.23 Y2.38
G01 X126.21 Y2.38
G01 X126.19 Y2.38
G01 X126.15 Y2.39
G01 X126.12 Y2.40
G01 X126.08 Y2.41
G01 X126.05 Y2.43
G01 X126.02 Y2.46
G01 X126.00 Y2.48
G01 X125.98 Y2.51
F30
G01 Z6.00
G00 Z0.00
M9 M5
G00 Z0

(* SHAPE Nr: 6 *)
G00 X127.53 Y2.63
M3 M8
G00 Z6
G00 Z6.00
G01 Z6.00
F20
G01 X127.53 Y2.65
G01 X127.53 Y2.66
G01 X127.53 Y2.70
G01 X127.55 Y2.74
G01 X127.56 Y2.77
G01 X127.58 Y2.80
G01 X127.60 Y2.83
G01 X127.63 Y2.85
G01 X127.66 Y2.87
G01 X127.70 Y2.89
G01 X127.73 Y2.90
G01 X127.77 Y2.91
G01 X127.79 Y2.91
G01 X127.81 Y2.91
G01 X127.85 Y2.90
G01 X127.88 Y2.89
G01 X127.92 Y2.88
G01 X127.95 Y2.86
G01 X127.98 Y2.84
G01 X128.00 Y2.81
G01 X128.02 Y2.78
G01 X128.04 Y2.74
G01 X128.05 Y2.71
G01 X128.06 Y2.67
G01 X128.06 Y2.65
G01 X128.06 Y2.63
G01 X128.05 Y2.59
G01 X128.04 Y2.56
G01 X128.03 Y2.52
G01 X128.01 Y2.49
G01 X127.98 Y2.46
G01 X127.96 Y2.44
G01 X127.93 Y2.42
G01 X127.89 Y2.40
G01 X127.85 Y2.39
G01 X127.81 Y2.38
G01 X127.79 Y2.38
G01 X127.78 Y2.38
G01 X127.74 Y2.39
G01 X127.70 Y2.40
G01 X127.67 Y2.41
G01 X127.64 Y2.43
G01 X127.61 Y2.46
G01 X127.59 Y2.48
G01 X127.57 Y2.51
G01 X127.55 Y2.55
G01 X127.54 Y2.59
G01 X127.53 Y2.63
F30
G01 Z6.00
G00 Z0.00
M9 M5
G00 Z0

(* SHAPE Nr: 7 *)
G00 X108.34 Y4.11
M3 M8
G00 Z6
G00 Z6.00
G01 Z6.00
F20
G01 X108.34 Y4.05
G01 X108.33 Y3.99
G01 X108.31 Y3.93
G01 X108.28 Y3.80
G01 X108.23 Y3.68
G01 X108.19 Y3.55
G01 X108.10 Y3.34
G01 X108.01 Y3.12
G01 X107.92 Y2.91
G01 X107.78 Y2.61
G01 X107.64 Y2.32
G01 X107.58 Y2.20
G01 X107.51 Y2.09
G01 X107.44 Y1.98
G01 X107.37 Y1.87
G01 X107.31 Y1.79
G01 X107.24 Y1.72
G01 X107.17 Y1.65
G01 X107.13 Y1.62
G01 X107.09 Y1.60
G01 X107.05 Y1.57
G01 X107.03 Y1.56
G01 X107.00 Y1.56
G01 X106.98 Y1.56
G01 X106.96 Y1.56
G01 X106.94 Y1.57
G01 X106.92 Y1.58
G01 X106.91 Y1.60
G01 X106.90 Y1.64
G01 X106.89 Y1.68
G01 X106.89 Y1.71
G01 X106.89 Y1.74
G01 X106.91 Y1.82
G01 X106.94 Y1.90
G01 X106.99 Y2.03
G01 X107.04 Y2.17
G01 X107.10 Y2.30
G01 X107.26 Y2.62
G01 X107.42 Y2.93
G01 X107.59 Y3.24
G01 X107.70 Y3.44
G01 X107.82 Y3.64
G01 X107.94 Y3.84
G01 X108.00 Y3.94
G01 X108.07 Y4.03
G01 X108.14 Y4.12
G01 X108.18 Y4.17
G01 X108.22 Y4.21
G01 X108.24 Y4.22
G01 X108.25 Y4.23
G01 X108.26 Y4.23
G01 X108.28 Y4.23
G01 X108.30 Y4.22
G01 X108.32 Y4.21
G01 X108.33 Y4.19
G01 X108.33 Y4.17
G01 X108.34 Y4.14
G01 X108.34 Y4.11
F30
G01 Z6.00
G00 Z0.00
M9 M5
G00 Z0

(* SHAPE Nr: 8 *)
G00 X109.29 Y3.37
M3 M8
G00 Z6
G00 Z6.00
G01 Z6.00
F20
G01 X109.35 Y3.50
G01 X109.41 Y3.63
G01 X109.48 Y3.76
G01 X109.56 Y3.88
G01 X109.62 Y3.97
G01 X109.69 Y4.06
G01 X109.76 Y4.14
G01 X109.80 Y4.18
G01 X109.84 Y4.21
G01 X109.88 Y4.25
G01 X109.91 Y4.26
G01 X109.94 Y4.27
G01 X109.96 Y4.28
G01 X109.98 Y4.28
G01 X110.00 Y4.28
G01 X110.01 Y4.27
G01 X110.03 Y4.26
G01 X110.04 Y4.25
G01 X110.05 Y4.21
G01 X110.06 Y4.18
G01 X110.07 Y4.14
G01 X110.07 Y4.11
G01 X110.06 Y4.08
G01 X110.05 Y4.00
G01 X110.02 Y3.93
G01 X109.97 Y3.79
G01 X109.91 Y3.66
G01 X109.85 Y3.52
G01 X109.70 Y3.21
G01 X109.54 Y2.89
G01 X109.37 Y2.58
G01 X109.26 Y2.38
G01 X109.14 Y2.18
G01 X109.02 Y1.98
G01 X108.96 Y1.88
G01 X108.89 Y1.79
G01 X108.82 Y1.70
G01 X108.78 Y1.65
G01 X108.74 Y1.61
G01 X108.72 Y1.60
G01 X108.71 Y1.59
G01 X108.70 Y1.59
G01 X108.68 Y1.59
G01 X108.66 Y1.60
G01 X108.65 Y1.61
G01 X108.64 Y1.63
G01 X108.62 Y1.66
G01 X108.62 Y1.70
G01 X108.62 Y1.71
G01 X108.62 Y1.72
G01 X108.62 Y1.77
G01 X108.64 Y1.84
G01 X108.65 Y1.90
G01 X108.67 Y1.97
G01 X108.71 Y2.05
G01 X109.25 Y3.29
F30
G01 Z6.00
G00 Z0.00
M9 M5
G00 Z0

(* SHAPE Nr: 9 *)
G00 X100.51 Y2.84
M3 M8
G00 Z6
G00 Z6.00
G01 Z6.00
F20
G01 X100.51 Y2.71
G01 X100.51 Y2.58
G01 X100.50 Y2.39
G01 X100.48 Y2.21
G01 X100.47 Y2.14
G01 X100.46 Y2.07
G01 X100.45 Y2.06
G01 X100.45 Y2.05
G01 X100.44 Y2.04
G01 X100.43 Y2.05
G01 X100.42 Y2.06
G01 X100.42 Y2.07
G01 X100.40 Y2.14
G01 X100.38 Y2.20
G01 X100.35 Y2.32
G01 X100.32 Y2.44
G01 X100.28 Y2.56
G01 X100.23 Y2.67
G01 X100.18 Y2.76
G01 X100.12 Y2.84
G01 X100.08 Y2.87
G01 X100.03 Y2.90
G01 X99.99 Y2.91
G01 X99.95 Y2.91
G01 X99.90 Y2.88
G01 X99.85 Y2.85
G01 X99.76 Y2.77
G01 X99.69 Y2.68
G01 X99.61 Y2.56
G01 X99.55 Y2.44
G01 X99.49 Y2.32
G01 X99.45 Y2.22
G01 X99.41 Y2.13
G01 X99.39 Y2.10
G01 X99.36 Y2.06
G01 X99.35 Y2.05
G01 X99.34 Y2.05
G01 X99.33 Y2.05
G01 X99.32 Y2.05
G01 X99.31 Y2.06
G01 X99.30 Y2.08
G01 X99.29 Y2.11
G01 X99.27 Y2.19
G01 X99.26 Y2.28
G01 X99.25 Y2.48
G01 X99.24 Y2.69
G01 X99.24 Y2.99
G01 X99.24 Y3.17
G01 X99.24 Y3.34
G01 X99.25 Y3.51
G01 X99.26 Y3.69
G01 X99.27 Y3.78
G01 X99.29 Y3.87
G01 X99.31 Y3.95
G01 X99.33 Y3.99
G01 X99.34 Y4.03
G01 X99.36 Y4.06
G01 X99.38 Y4.09
G01 X99.40 Y4.10
G01 X99.42 Y4.11
G01 X99.44 Y4.11
G01 X99.46 Y4.11
G01 X99.47 Y4.11
G01 X99.49 Y4.10
G01 X99.52 Y4.07
G01 X99.56 Y4.04
G01 X99.59 Y4.00
G01 X99.61 Y3.96
G01 X99.63 Y3.92
G01 X99.64 Y3.88
G01 X99.64 Y3.84
G01 X99.64 Y3.80
G01 X99.64 Y3.76
G01 X99.63 Y3.73
G01 X99.61 Y3.70
G01 X99.60 Y3.69
G01 X99.59 Y3.65
G01 X99.59 Y3.59
G01 X99.60 Y3.56
G01 X99.64 Y3.52
G01 X99.69 Y3.50
G01 X99.77 Y3.47
G01 X99.85 Y3.45
G01 X100.00 Y3.44
G01 X100.09 Y3.44
G01 X100.18 Y3.43
G01 X100.22 Y3.42
G01 X100.27 Y3.40
G01 X100.31 Y3.39
G01 X100.35 Y3.36
G01 X100.38 Y3.34
G01 X100.41 Y3.30
G01 X100.43 Y3.26
G01 X100.46 Y3.21
G01 X100.48 Y3.16
G01 X100.49 Y3.10
G01 X100.50 Y3.01
G01 X100.51 Y2.93
G01 X100.51 Y2.84
F30
G01 Z6.00
G00 Z0.00
M9 M5
G00 Z0

(* SHAPE Nr: 10 *)
G00 X100.87 Y3.06
M3 M8
G00 Z6
G00 Z6.00
G01 Z6.00
F20
G01 X100.86 Y3.08
G01 X100.85 Y3.10
G01 X100.85 Y3.13
G01 X100.85 Y3.15
G01 X100.85 Y3.17
G01 X100.86 Y3.19
G01 X100.87 Y3.21
G01 X100.89 Y3.26
G01 X100.92 Y3.30
G01 X100.95 Y3.34
G01 X101.03 Y3.43
G01 X101.11 Y3.52
G01 X101.17 Y3.57
G01 X101.23 Y3.62
G01 X101.30 Y3.67
G01 X101.35 Y3.70
G01 X101.42 Y3.73
G01 X101.48 Y3.75
G01 X101.52 Y3.76
G01 X101.56 Y3.76
G01 X101.60 Y3.76
G01 X101.65 Y3.75
G01 X101.69 Y3.74
G01 X101.73 Y3.71
G01 X101.77 Y3.69
G01 X101.81 Y3.65
G01 X101.84 Y3.62
G01 X101.87 Y3.57
G01 X101.89 Y3.53
G01 X101.92 Y3.46
G01 X101.94 Y3.40
G01 X101.96 Y3.33
G01 X101.97 Y3.26
G01 X101.98 Y3.16
G01 X101.99 Y3.07
G01 X101.99 Y2.97
G01 X101.98 Y2.87
G01 X101.97 Y2.77
G01 X101.96 Y2.68
G01 X101.94 Y2.58
G01 X101.92 Y2.47
G01 X101.89 Y2.35
G01 X101.85 Y2.24
G01 X101.82 Y2.16
G01 X101.78 Y2.08
G01 X101.73 Y2.01
G01 X101.70 Y1.97
G01 X101.67 Y1.93
G01 X101.63 Y1.90
G01 X101.61 Y1.88
G01 X101.58 Y1.87
G01 X101.56 Y1.86
G01 X101.53 Y1.86
G01 X101.50 Y1.87
G01 X101.48 Y1.88
G01 X101.46 Y1.89
G01 X101.43 Y1.92
G01 X101.41 Y1.95
G01 X101.39 Y1.99
G01 X101.37 Y2.04
G01 X101.36 Y2.10
G01 X101.35 Y2.17
G01 X101.34 Y2.26
G01 X101.34 Y2.36
G01 X101.32 Y2.51
G01 X101.30 Y2.61
G01 X101.26 Y2.70
G01 X101.21 Y2.79
G01 X101.18 Y2.85
G01 X101.13 Y2.89
G01 X101.08 Y2.94
G01 X101.02 Y2.97
G01 X100.96 Y3.00
G01 X100.91 Y3.02
G01 X100.89 Y3.04
G01 X100.87 Y3.06
F30
G01 Z6.00
G00 Z0.00
M9 M5
G00 Z0

(* SHAPE Nr: 11 *)
G00 X102.43 Y3.17
M3 M8
G00 Z6
G00 Z6.00
G01 Z6.00
F20
G01 X102.43 Y3.21
G01 X102.44 Y3.25
G01 X102.46 Y3.30
G01 X102.49 Y3.34
G01 X102.52 Y3.39
G01 X102.57 Y3.47
G01 X102.64 Y3.54
G01 X102.70 Y3.63
G01 X102.78 Y3.70
G01 X102.81 Y3.74
G01 X102.85 Y3.77
G01 X102.89 Y3.79
G01 X102.92 Y3.81
G01 X102.95 Y3.82
G01 X102.98 Y3.82
G01 X103.01 Y3.82
G01 X103.04 Y3.81
G01 X103.08 Y3.80
G01 X103.12 Y3.77
G01 X103.16 Y3.75
G01 X103.24 Y3.68
G01 X103.31 Y3.62
G01 X103.39 Y3.54
G01 X103.44 Y3.48
G01 X103.49 Y3.43
G01 X103.54 Y3.36
G01 X103.57 Y3.32
G01 X103.60 Y3.27
G01 X103.62 Y3.21
G01 X103.63 Y3.18
G01 X103.63 Y3.15
G01 X103.63 Y3.12
G01 X103.63 Y3.08
G01 X103.62 Y3.05
G01 X103.60 Y3.03
G01 X103.58 Y3.00
G01 X103.56 Y2.98
G01 X103.53 Y2.95
G01 X103.42 Y2.85
G01 X103.35 Y2.77
G01 X103.29 Y2.66
G01 X103.23 Y2.55
G01 X103.18 Y2.44
G01 X103.14 Y2.32
G01 X103.09 Y2.14
G01 X103.05 Y2.04
G01 X103.03 Y1.99
G01 X103.00 Y1.95
G01 X102.99 Y1.93
G01 X102.97 Y1.92
G01 X102.96 Y1.92
G01 X102.95 Y1.92
G01 X102.94 Y1.93
G01 X102.93 Y1.96
G01 X102.92 Y1.98
G01 X102.91 Y2.04
G01 X102.90 Y2.14
G01 X102.89 Y2.24
G01 X102.89 Y2.34
G01 X102.90 Y2.44
G01 X102.91 Y2.49
G01 X102.91 Y2.54
G01 X102.89 Y2.61
G01 X102.86 Y2.68
G01 X102.82 Y2.75
G01 X102.77 Y2.81
G01 X102.71 Y2.87
G01 X102.64 Y2.92
G01 X102.56 Y2.97
G01 X102.51 Y3.02
G01 X102.48 Y3.05
G01 X102.45 Y3.09
G01 X102.44 Y3.11
G01 X102.43 Y3.14
G01 X102.43 Y3.17
F30
G01 Z6.00
G00 Z0.00
M9 M5
G00 Z0

(* SHAPE Nr: 12 *)
G00 X110.18 Y3.21
M3 M8
G00 Z6
G00 Z6.00
G01 Z6.00
F20
G01 X110.18 Y3.22
G01 X110.18 Y3.26
G01 X110.19 Y3.30
G01 X110.20 Y3.34
G01 X110.21 Y3.36
G01 X110.23 Y3.38
G01 X110.24 Y3.40
G01 X110.26 Y3.42
G01 X110.29 Y3.43
G01 X110.31 Y3.44
G01 X110.34 Y3.44
G01 X110.36 Y3.44
G01 X110.39 Y3.43
G01 X110.41 Y3.42
G01 X110.44 Y3.40
G01 X110.48 Y3.37
G01 X110.50 Y3.33
G01 X110.54 Y3.28
G01 X110.56 Y3.21
G01 X110.58 Y3.15
G01 X110.59 Y3.09
G01 X110.60 Y3.04
G01 X110.60 Y2.98
G01 X110.61 Y2.77
G01 X110.63 Y2.69
G01 X110.64 Y2.67
G01 X110.65 Y2.66
G01 X110.67 Y2.67
G01 X110.70 Y2.70
G01 X110.79 Y2.83
G01 X110.96 Y3.10
G01 X111.02 Y3.20
G01 X111.05 Y3.23
G01 X111.08 Y3.27
G01 X111.11 Y3.30
G01 X111.14 Y3.32
G01 X111.17 Y3.33
G01 X111.19 Y3.34
G01 X111.22 Y3.34
G01 X111.24 Y3.34
G01 X111.26 Y3.33
G01 X111.29 Y3.31
G01 X111.32 Y3.29
G01 X111.35 Y3.26
G01 X111.40 Y3.20
G01 X111.44 Y3.14
G01 X111.55 Y3.00
G01 X111.59 Y2.97
G01 X111.63 Y2.94
G01 X111.67 Y2.92
G01 X111.70 Y2.93
G01 X111.72 Y2.94
G01 X111.76 Y2.97
G01 X111.78 Y3.01
G01 X111.83 Y3.11
G01 X111.85 Y3.16
G01 X111.88 Y3.20
G01 X111.91 Y3.25
G01 X111.95 Y3.29
G01 X111.99 Y3.33
G01 X112.04 Y3.36
G01 X112.09 Y3.39
G01 X112.15 Y3.41
G01 X112.21 Y3.43
G01 X112.27 Y3.43
G01 X112.33 Y3.43
G01 X112.39 Y3.42
G01 X112.45 Y3.40
G01 X112.50 Y3.38
G01 X112.54 Y3.35
G01 X112.58 Y3.32
G01 X112.62 Y3.28
G01 X112.64 Y3.24
G01 X112.67 Y3.20
G01 X112.69 Y3.16
G01 X112.70 Y3.10
G01 X112.71 Y3.05
G01 X112.71 Y2.99
G01 X112.72 Y2.81
G01 X112.74 Y2.74
G01 X112.75 Y2.72
G01 X112.77 Y2.71
G01 X112.79 Y2.71
G01 X112.85 Y2.76
G01 X112.98 Y2.90
G01 X113.18 Y3.15
G01 X113.26 Y3.25
G01 X113.31 Y3.30
G01 X113.36 Y3.34
G01 X113.39 Y3.35
G01 X113.42 Y3.36
G01 X113.44 Y3.36
G01 X113.45 Y3.35
G01 X113.46 Y3.34
G01 X113.47 Y3.33
G01 X113.48 Y3.31
G01 X113.49 Y3.28
G01 X113.50 Y3.24
G01 X113.50 Y3.21
G01 X113.51 Y3.08
G01 X113.54 Y3.01
G01 X113.55 Y2.99
G01 X113.58 Y2.98
G01 X113.60 Y2.98
G01 X113.68 Y3.01
G01 X113.83 Y3.11
G01 X113.98 Y3.23
G01 X114.06 Y3.29
G01 X114.11 Y3.32
G01 X114.16 Y3.34
G01 X114.19 Y3.35
G01 X114.21 Y3.35
G01 X114.23 Y3.34
G01 X114.25 Y3.33
G01 X114.26 Y3.31
G01 X114.27 Y3.29
G01 X114.28 Y3.26
G01 X114.28 Y3.23
G01 X114.28 Y3.16
G01 X114.28 Y3.10
G01 X114.27 Y3.03
G01 X114.23 Y2.85
G01 X114.19 Y2.67
G01 X114.14 Y2.47
G01 X114.12 Y2.42
G01 X114.10 Y2.37
G01 X114.07 Y2.31
G01 X114.04 Y2.26
G01 X114.00 Y2.21
G01 X113.95 Y2.16
G01 X113.90 Y2.12
G01 X113.84 Y2.08
G01 X113.78 Y2.04
G01 X113.72 Y2.02
G01 X113.65 Y1.99
G01 X113.58 Y1.98
G01 X113.50 Y1.96
G01 X113.42 Y1.95
G01 X113.34 Y1.95
G01 X113.26 Y1.96
G01 X113.17 Y1.97
G01 X113.09 Y1.98
G01 X113.01 Y2.01
G01 X112.93 Y2.04
G01 X112.85 Y2.07
G01 X112.78 Y2.12
G01 X112.71 Y2.16
G01 X112.65 Y2.21
G01 X112.61 Y2.25
G01 X112.56 Y2.30
G01 X112.52 Y2.35
G01 X112.49 Y2.40
G01 X112.46 Y2.45
G01 X112.43 Y2.50
G01 X112.41 Y2.54
G01 X112.32 Y2.77
G01 X112.27 Y2.86
G01 X112.24 Y2.88
G01 X112.22 Y2.89
G01 X112.20 Y2.88
G01 X112.17 Y2.83
G01 X112.11 Y2.68
G01 X112.02 Y2.41
G01 X111.99 Y2.34
G01 X111.96 Y2.27
G01 X111.93 Y2.22
G01 X111.90 Y2.18
G01 X111.86 Y2.14
G01 X111.82 Y2.10
G01 X111.77 Y2.06
G01 X111.71 Y2.03
G01 X111.66 Y2.00
G01 X111.58 Y1.98
G01 X111.50 Y1.96
G01 X111.42 Y1.95
G01 X111.31 Y1.95
G01 X111.20 Y1.95
G01 X111.16 Y1.95
G01 X111.07 Y1.96
G01 X110.98 Y1.98
G01 X110.89 Y2.00
G01 X110.81 Y2.03
G01 X110.72 Y2.06
G01 X110.65 Y2.09
G01 X110.59 Y2.13
G01 X110.53 Y2.18
G01 X110.50 Y2.21
G01 X110.47 Y2.24
G01 X110.45 Y2.28
G01 X110.44 Y2.29
G01 X110.43 Y2.32
G01 X110.19 Y3.10
G01 X110.18 Y3.17
G01 X110.18 Y3.21
F30
G01 Z6.00
G00 Z0.00
M9 M5
G00 Z0

(* SHAPE Nr: 13 *)
G00 X114.58 Y3.17
M3 M8
G00 Z6
G00 Z6.00
G01 Z6.00
F20
G01 X114.59 Y3.24
G01 X114.60 Y3.31
G01 X114.61 Y3.34
G01 X114.63 Y3.36
G01 X114.64 Y3.37
G01 X114.66 Y3.37
G01 X114.67 Y3.37
G01 X114.70 Y3.36
G01 X114.72 Y3.34
G01 X114.76 Y3.29
G01 X114.81 Y3.24
G01 X114.85 Y3.18
G01 X114.97 Y3.02
G01 X115.02 Y2.98
G01 X115.06 Y2.95
G01 X115.10 Y2.93
G01 X115.14 Y2.93
G01 X115.17 Y2.95
G01 X115.20 Y2.98
G01 X115.22 Y3.02
G01 X115.27 Y3.12
G01 X115.30 Y3.18
G01 X115.33 Y3.24
G01 X115.36 Y3.27
G01 X115.39 Y3.30
G01 X115.41 Y3.31
G01 X115.44 Y3.32
G01 X115.46 Y3.32
G01 X115.49 Y3.32
G01 X115.53 Y3.31
G01 X115.57 Y3.30
G01 X115.61 Y3.28
G01 X115.68 Y3.23
G01 X115.76 Y3.17
G01 X115.78 Y3.15
G01 X115.94 Y3.04
G01 X116.04 Y2.99
G01 X116.08 Y2.99
G01 X116.10 Y2.99
G01 X116.12 Y3.01
G01 X116.13 Y3.03
G01 X116.15 Y3.11
G01 X116.16 Y3.19
G01 X116.16 Y3.23
G01 X116.18 Y3.27
G01 X116.20 Y3.31
G01 X116.22 Y3.35
G01 X116.25 Y3.38
G01 X116.28 Y3.40
G01 X116.32 Y3.42
G01 X116.36 Y3.43
G01 X116.40 Y3.44
G01 X116.42 Y3.44
G01 X116.45 Y3.43
G01 X116.46 Y3.42
G01 X116.48 Y3.40
G01 X116.49 Y3.37
G01 X116.50 Y3.34
G01 X116.51 Y3.30
G01 X116.51 Y3.24
G01 X116.51 Y3.17
G01 X116.50 Y3.10
G01 X116.48 Y3.00
G01 X116.45 Y2.89
G01 X116.42 Y2.79
G01 X116.38 Y2.65
G01 X116.34 Y2.54
G01 X116.29 Y2.43
G01 X116.24 Y2.33
G01 X116.19 Y2.23
G01 X116.14 Y2.14
G01 X116.08 Y2.06
G01 X116.01 Y1.98
G01 X115.97 Y1.94
G01 X115.93 Y1.91
G01 X115.88 Y1.87
G01 X115.85 Y1.86
G01 X115.82 Y1.85
G01 X115.79 Y1.84
G01 X115.76 Y1.84
G01 X115.73 Y1.85
G01 X115.70 Y1.87
G01 X115.68 Y1.89
G01 X115.66 Y1.92
G01 X115.65 Y1.96
G01 X115.64 Y2.00
G01 X115.63 Y2.07
G01 X115.62 Y2.15
G01 X115.61 Y2.25
G01 X115.59 Y2.29
G01 X115.58 Y2.31
G01 X115.55 Y2.31
G01 X115.53 Y2.31
G01 X115.48 Y2.30
G01 X115.43 Y2.27
G01 X115.28 Y2.16
G01 X115.21 Y2.11
G01 X115.15 Y2.07
G01 X115.09 Y2.04
G01 X115.02 Y2.01
G01 X114.97 Y2.00
G01 X114.91 Y1.99
G01 X114.86 Y1.98
G01 X114.83 Y1.99
G01 X114.80 Y1.99
G01 X114.77 Y2.01
G01 X114.75 Y2.02
G01 X114.74 Y2.03
G01 X114.72 Y2.05
G01 X114.70 Y2.09
G01 X114.68 Y2.14
G01 X114.66 Y2.18
G01 X114.64 Y2.27
G01 X114.61 Y2.37
G01 X114.60 Y2.46
G01 X114.58 Y2.58
G01 X114.57 Y2.71
G01 X114.57 Y2.83
G01 X114.57 Y2.87
G01 X114.57 Y2.89
G01 X114.57 Y3.03
G01 X114.58 Y3.17
F30
G01 Z6.00
G00 Z0.00
M9 M5
G00 Z0

(* SHAPE Nr: 14 *)
G00 X118.10 Y2.30
M3 M8
G00 Z6
G00 Z6.00
G01 Z6.00
F20
G01 X118.11 Y2.32
G01 X118.12 Y2.34
G01 X118.14 Y2.36
G01 X118.16 Y2.37
G01 X118.20 Y2.38
G01 X118.23 Y2.38
G01 X118.51 Y2.42
G01 X118.68 Y2.47
G01 X118.85 Y2.52
G01 X118.96 Y2.56
G01 X119.01 Y2.57
G01 X119.06 Y2.58
G01 X119.09 Y2.58
G01 X119.13 Y2.58
G01 X119.17 Y2.58
G01 X119.20 Y2.57
G01 X119.23 Y2.55
G01 X119.25 Y2.53
G01 X119.27 Y2.51
G01 X119.29 Y2.48
G01 X119.30 Y2.44
G01 X119.31 Y2.40
G01 X119.32 Y2.36
G01 X119.33 Y2.32
G01 X119.33 Y2.28
G01 X119.32 Y2.23
G01 X119.32 Y2.19
G01 X119.30 Y2.15
G01 X119.28 Y2.11
G01 X119.26 Y2.07
G01 X119.22 Y2.03
G01 X119.18 Y2.00
G01 X119.14 Y1.97
G01 X119.09 Y1.94
G01 X119.03 Y1.91
G01 X118.96 Y1.89
G01 X118.90 Y1.87
G01 X118.83 Y1.86
G01 X118.75 Y1.85
G01 X118.68 Y1.85
G01 X118.60 Y1.86
G01 X118.53 Y1.87
G01 X118.46 Y1.89
G01 X118.40 Y1.91
G01 X118.34 Y1.93
G01 X118.28 Y1.97
G01 X118.23 Y2.01
G01 X118.20 Y2.04
G01 X118.16 Y2.08
G01 X118.14 Y2.12
G01 X118.12 Y2.15
G01 X118.11 Y2.18
G01 X118.09 Y2.22
G01 X118.09 Y2.24
G01 X118.09 Y2.26
G01 X118.09 Y2.28
G01 X118.10 Y2.30
F30
G01 Z6.00
G00 Z0.00
M9 M5
G00 Z0

(* SHAPE Nr: 15 *)
G00 X119.64 Y3.06
M3 M8
G00 Z6
G00 Z6.00
G01 Z6.00
F20
G01 X119.63 Y3.08
G01 X119.63 Y3.11
G01 X119.62 Y3.13
G01 X119.62 Y3.15
G01 X119.63 Y3.16
G01 X119.63 Y3.18
G01 X119.64 Y3.20
G01 X119.66 Y3.25
G01 X119.69 Y3.29
G01 X119.72 Y3.33
G01 X119.79 Y3.41
G01 X119.87 Y3.49
G01 X119.95 Y3.57
G01 X120.03 Y3.64
G01 X120.07 Y3.67
G01 X120.12 Y3.70
G01 X120.16 Y3.73
G01 X120.20 Y3.74
G01 X120.23 Y3.75
G01 X120.27 Y3.75
G01 X120.31 Y3.75
G01 X120.34 Y3.74
G01 X120.39 Y3.72
G01 X120.43 Y3.69
G01 X120.46 Y3.66
G01 X120.54 Y3.60
G01 X120.61 Y3.52
G01 X120.63 Y3.50
G01 X120.67 Y3.45
G01 X120.72 Y3.40
G01 X120.76 Y3.34
G01 X120.78 Y3.29
G01 X120.81 Y3.24
G01 X120.82 Y3.19
G01 X120.83 Y3.15
G01 X120.83 Y3.11
G01 X120.82 Y3.07
G01 X120.80 Y3.03
G01 X120.78 Y3.00
G01 X120.75 Y2.97
G01 X120.72 Y2.95
G01 X120.61 Y2.85
G01 X120.55 Y2.77
G01 X120.48 Y2.67
G01 X120.42 Y2.55
G01 X120.37 Y2.43
G01 X120.33 Y2.31
G01 X120.28 Y2.11
G01 X120.24 Y1.97
G01 X120.23 Y1.93
G01 X120.21 Y1.89
G01 X120.20 Y1.88
G01 X120.20 Y1.88
G01 X120.19 Y1.89
G01 X120.19 Y1.90
G01 X120.18 Y1.92
G01 X120.17 Y1.99
G01 X120.16 Y2.07
G01 X120.15 Y2.29
G01 X120.13 Y2.45
G01 X120.10 Y2.56
G01 X120.07 Y2.66
G01 X120.02 Y2.75
G01 X119.96 Y2.84
G01 X119.89 Y2.91
G01 X119.82 Y2.97
G01 X119.74 Y3.00
G01 X119.69 Y3.02
G01 X119.67 Y3.04
G01 X119.64 Y3.06
F30
G01 Z6.00
G00 Z0.00
M9 M5
G00 Z0

(* SHAPE Nr: 16 *)
G00 X121.32 Y2.99
M3 M8
G00 Z6
G00 Z6.00
G01 Z6.00
F20
G01 X121.36 Y3.05
G01 X121.41 Y3.11
G01 X121.47 Y3.16
G01 X121.53 Y3.21
G01 X121.57 Y3.24
G01 X121.62 Y3.27
G01 X121.67 Y3.29
G01 X121.73 Y3.31
G01 X121.98 Y3.39
G01 X122.06 Y3.41
G01 X122.15 Y3.42
G01 X122.19 Y3.42
G01 X122.24 Y3.42
G01 X122.27 Y3.41
G01 X122.30 Y3.39
G01 X122.32 Y3.38
G01 X122.34 Y3.35
G01 X122.37 Y3.32
G01 X122.40 Y3.28
G01 X122.42 Y3.24
G01 X122.45 Y3.16
G01 X122.47 Y3.08
G01 X122.50 Y3.01
G01 X122.55 Y2.81
G01 X122.59 Y2.62
G01 X122.60 Y2.58
G01 X122.63 Y2.44
G01 X122.66 Y2.31
G01 X122.67 Y2.25
G01 X122.67 Y2.18
G01 X122.68 Y2.12
G01 X122.67 Y2.08
G01 X122.67 Y2.05
G01 X122.66 Y2.01
G01 X122.64 Y1.98
G01 X122.62 Y1.95
G01 X122.60 Y1.93
G01 X122.57 Y1.91
G01 X122.53 Y1.89
G01 X122.48 Y1.88
G01 X122.44 Y1.87
G01 X122.34 Y1.86
G01 X122.24 Y1.85
G01 X122.15 Y1.85
G01 X122.10 Y1.85
G01 X121.98 Y1.86
G01 X121.86 Y1.87
G01 X121.74 Y1.89
G01 X121.62 Y1.92
G01 X121.55 Y1.93
G01 X121.49 Y1.96
G01 X121.43 Y1.98
G01 X121.40 Y2.00
G01 X121.37 Y2.02
G01 X121.36 Y2.03
G01 X121.34 Y2.04
G01 X121.30 Y2.09
G01 X121.26 Y2.15
G01 X121.23 Y2.21
G01 X121.21 Y2.27
G01 X121.19 Y2.33
G01 X121.18 Y2.41
G01 X121.17 Y2.49
G01 X121.18 Y2.56
G01 X121.18 Y2.64
G01 X121.20 Y2.71
G01 X121.22 Y2.79
G01 X121.25 Y2.86
G01 X121.28 Y2.93
G01 X121.32 Y2.99
F30
G01 Z6.00
G00 Z0.00
M9 M5
G00 Z0

(* SHAPE Nr: 17 *)
G00 X121.74 Y2.77
M3 M8
G00 Z6
G00 Z6.00
G01 Z6.00
F20
G01 X121.76 Y2.80
G01 X121.78 Y2.83
G01 X121.81 Y2.85
G01 X121.84 Y2.87
G01 X121.87 Y2.89
G01 X121.91 Y2.90
G01 X121.95 Y2.91
G01 X121.97 Y2.91
G01 X121.99 Y2.91
G01 X122.03 Y2.90
G01 X122.06 Y2.89
G01 X122.10 Y2.88
G01 X122.13 Y2.86
G01 X122.16 Y2.84
G01 X122.18 Y2.81
G01 X122.20 Y2.78
G01 X122.22 Y2.74
G01 X122.23 Y2.71
G01 X122.24 Y2.67
G01 X122.24 Y2.65
G01 X122.24 Y2.63
G01 X122.23 Y2.59
G01 X122.22 Y2.56
G01 X122.21 Y2.52
G01 X122.19 Y2.49
G01 X122.16 Y2.46
G01 X122.14 Y2.44
G01 X122.11 Y2.42
G01 X122.07 Y2.40
G01 X122.03 Y2.39
G01 X121.99 Y2.38
G01 X121.97 Y2.38
G01 X121.96 Y2.38
G01 X121.92 Y2.39
G01 X121.88 Y2.40
G01 X121.85 Y2.41
G01 X121.82 Y2.43
G01 X121.79 Y2.46
G01 X121.77 Y2.48
G01 X121.75 Y2.51
G01 X121.73 Y2.55
G01 X121.72 Y2.59
G01 X121.71 Y2.63
G01 X121.71 Y2.65
G01 X121.71 Y2.66
G01 X121.71 Y2.70
G01 X121.72 Y2.74
G01 X121.74 Y2.77
F30
G01 Z6.00
G00 Z0.00
M9 M5
G00 Z0

(* SHAPE Nr: 18 *)
G00 X123.05 Y2.75
M3 M8
G00 Z6
G00 Z6.00
G01 Z6.00
F20
G01 X123.05 Y2.87
G01 X123.05 Y2.98
G01 X123.06 Y3.07
G01 X123.07 Y3.16
G01 X123.08 Y3.19
G01 X123.10 Y3.23
G01 X123.11 Y3.26
G01 X123.14 Y3.29
G01 X123.16 Y3.31
G01 X123.19 Y3.34
G01 X123.22 Y3.35
G01 X123.27 Y3.37
G01 X123.32 Y3.38
G01 X123.38 Y3.39
G01 X123.46 Y3.40
G01 X123.55 Y3.40
G01 X123.64 Y3.40
G01 X123.83 Y3.39
G01 X124.02 Y3.37
G01 X124.21 Y3.36
G01 X124.40 Y3.34
G01 X124.49 Y3.32
G01 X124.57 Y3.31
G01 X124.66 Y3.28
G01 X124.72 Y3.26
G01 X124.77 Y3.24
G01 X124.82 Y3.21
G01 X124.86 Y3.18
G01 X124.91 Y3.14
G01 X124.94 Y3.10
G01 X124.97 Y3.05
G01 X125.00 Y2.99
G01 X125.02 Y2.93
G01 X125.04 Y2.87
G01 X125.06 Y2.74
G01 X125.08 Y2.62
G01 X125.09 Y2.51
G01 X125.16 Y1.72
G01 X124.76 Y2.38
G01 X124.47 Y2.85
G01 X124.43 Y2.88
G01 X124.41 Y2.88
G01 X124.40 Y2.87
G01 X124.38 Y2.83
G01 X124.37 Y2.68
G01 X124.36 Y2.36
G01 X124.35 Y2.28
G01 X124.34 Y2.20
G01 X124.32 Y2.12
G01 X124.30 Y2.06
G01 X124.27 Y2.00
G01 X124.24 Y1.95
G01 X124.22 Y1.92
G01 X124.20 Y1.89
G01 X124.17 Y1.87
G01 X124.15 Y1.86
G01 X124.12 Y1.85
G01 X124.11 Y1.85
G01 X124.09 Y1.85
G01 X124.07 Y1.86
G01 X124.04 Y1.88
G01 X124.01 Y1.90
G01 X123.98 Y1.92
G01 X123.94 Y1.98
G01 X123.90 Y2.04
G01 X123.87 Y2.10
G01 X123.83 Y2.18
G01 X123.80 Y2.27
G01 X123.78 Y2.36
G01 X123.76 Y2.45
G01 X123.67 Y2.85
G01 X123.65 Y2.88
G01 X123.63 Y2.89
G01 X123.62 Y2.88
G01 X123.59 Y2.85
G01 X123.51 Y2.72
G01 X123.21 Y2.07
G01 X123.18 Y2.00
G01 X123.15 Y1.94
G01 X123.13 Y1.93
G01 X123.12 Y1.91
G01 X123.11 Y1.91
G01 X123.10 Y1.91
G01 X123.09 Y1.92
G01 X123.09 Y1.94
G01 X123.08 Y1.95
G01 X123.07 Y2.02
G01 X123.06 Y2.09
G01 X123.06 Y2.28
G01 X123.05 Y2.47
G01 X123.05 Y2.58
G01 X123.05 Y2.75
F30
G01 Z6.00
G00 Z0.00
M9 M5
G00 Z0

(* SHAPE Nr: 19 *)
G00 X128.85 Y3.10
M3 M8
G00 Z6
G00 Z6.00
G01 Z6.00
F20
G01 X128.85 Y3.18
G01 X128.85 Y3.22
G01 X128.85 Y3.41
G01 X128.86 Y3.60
G01 X128.86 Y3.69
G01 X128.87 Y3.77
G01 X128.88 Y3.86
G01 X128.89 Y3.92
G01 X128.91 Y3.97
G01 X128.93 Y4.02
G01 X128.95 Y4.06
G01 X128.97 Y4.09
G01 X129.00 Y4.12
G01 X129.03 Y4.14
G01 X129.06 Y4.16
G01 X129.11 Y4.18
G01 X129.16 Y4.20
G01 X129.22 Y4.21
G01 X129.30 Y4.22
G01 X129.39 Y4.23
G01 X129.47 Y4.23
G01 X129.78 Y4.23
G01 X129.91 Y4.23
G01 X130.05 Y4.22
G01 X130.18 Y4.20
G01 X130.28 Y4.19
G01 X130.38 Y4.16
G01 X130.47 Y4.13
G01 X130.52 Y4.11
G01 X130.57 Y4.09
G01 X130.61 Y4.06
G01 X130.64 Y4.04
G01 X130.66 Y4.01
G01 X130.68 Y3.99
G01 X130.69 Y3.97
G01 X130.69 Y3.95
G01 X130.69 Y3.92
G01 X130.69 Y3.90
G01 X130.68 Y3.88
G01 X130.66 Y3.85
G01 X130.63 Y3.83
G01 X130.60 Y3.81
G01 X130.55 Y3.78
G01 X130.49 Y3.76
G01 X130.43 Y3.74
G01 X130.34 Y3.71
G01 X130.25 Y3.70
G01 X130.16 Y3.68
G01 X130.07 Y3.67
G01 X129.98 Y3.67
G01 X129.62 Y3.64
G01 X129.50 Y3.63
G01 X129.49 Y3.62
G01 X129.53 Y3.59
G01 X129.74 Y3.54
G01 X129.94 Y3.50
G01 X130.03 Y3.47
G01 X130.12 Y3.44
G01 X130.19 Y3.41
G01 X130.25 Y3.37
G01 X130.31 Y3.33
G01 X130.35 Y3.30
G01 X130.38 Y3.26
G01 X130.40 Y3.22
G01 X130.42 Y3.19
G01 X130.42 Y3.16
G01 X130.42 Y3.13
G01 X130.42 Y3.10
G01 X130.41 Y3.08
G01 X130.40 Y3.06
G01 X130.37 Y3.03
G01 X130.33 Y3.00
G01 X130.29 Y2.98
G01 X130.23 Y2.95
G01 X130.17 Y2.94
G01 X130.11 Y2.92
G01 X130.01 Y2.91
G01 X129.91 Y2.91
G01 X129.81 Y2.91
G01 X129.72 Y2.89
G01 X129.62 Y2.87
G01 X129.54 Y2.83
G01 X129.46 Y2.79
G01 X129.42 Y2.75
G01 X129.40 Y2.71
G01 X129.38 Y2.65
G01 X129.40 Y2.58
G01 X129.44 Y2.53
G01 X129.48 Y2.49
G01 X129.57 Y2.44
G01 X129.67 Y2.41
G01 X129.79 Y2.39
G01 X129.91 Y2.38
G01 X129.98 Y2.38
G01 X130.06 Y2.37
G01 X130.13 Y2.36
G01 X130.20 Y2.34
G01 X130.25 Y2.32
G01 X130.31 Y2.29
G01 X130.36 Y2.26
G01 X130.38 Y2.23
G01 X130.41 Y2.21
G01 X130.42 Y2.18
G01 X130.44 Y2.15
G01 X130.44 Y2.12
G01 X130.44 Y2.11
G01 X130.43 Y2.08
G01 X130.42 Y2.05
G01 X130.40 Y2.03
G01 X130.37 Y2.00
G01 X130.34 Y1.98
G01 X130.28 Y1.95
G01 X130.22 Y1.93
G01 X130.16 Y1.91
G01 X130.06 Y1.89
G01 X129.96 Y1.87
G01 X129.85 Y1.86
G01 X129.74 Y1.85
G01 X129.62 Y1.86
G01 X129.50 Y1.87
G01 X129.39 Y1.88
G01 X129.31 Y1.90
G01 X129.24 Y1.92
G01 X129.16 Y1.94
G01 X129.11 Y1.97
G01 X129.06 Y2.00
G01 X129.03 Y2.03
G01 X129.02 Y2.05
G01 X128.99 Y2.10
G01 X128.97 Y2.15
G01 X128.94 Y2.25
G01 X128.92 Y2.35
G01 X128.90 Y2.45
G01 X128.88 Y2.61
G01 X128.87 Y2.78
G01 X128.86 Y2.94
G01 X128.85 Y3.10
F30
G01 Z6.00
G00 Z0.00
M9 M5
G00 Z0

(* SHAPE Nr: 20 *)
G00 X130.86 Y2.88
M3 M8
G00 Z6
G00 Z6.00
G01 Z6.00
F20
G01 X130.90 Y2.94
G01 X130.94 Y3.00
G01 X130.97 Y3.05
G01 X131.00 Y3.08
G01 X131.04 Y3.12
G01 X131.10 Y3.18
G01 X131.18 Y3.24
G01 X131.25 Y3.29
G01 X131.34 Y3.33
G01 X131.42 Y3.37
G01 X131.51 Y3.40
G01 X131.57 Y3.42
G01 X131.62 Y3.43
G01 X131.68 Y3.43
G01 X131.74 Y3.43
G01 X131.80 Y3.43
G01 X131.85 Y3.41
G01 X131.90 Y3.39
G01 X131.93 Y3.37
G01 X131.96 Y3.35
G01 X131.99 Y3.32
G01 X132.00 Y3.29
G01 X132.01 Y3.26
G01 X132.02 Y3.22
G01 X132.03 Y3.18
G01 X132.02 Y3.14
G01 X132.02 Y3.11
G01 X132.00 Y3.08
G01 X131.98 Y3.05
G01 X131.95 Y3.02
G01 X131.92 Y3.00
G01 X131.89 Y2.97
G01 X131.84 Y2.95
G01 X131.78 Y2.93
G01 X131.72 Y2.92
G01 X131.67 Y2.91
G01 X131.63 Y2.91
G01 X131.55 Y2.90
G01 X131.47 Y2.89
G01 X131.40 Y2.86
G01 X131.35 Y2.83
G01 X131.31 Y2.80
G01 X131.27 Y2.76
G01 X131.24 Y2.69
G01 X131.23 Y2.65
G01 X131.25 Y2.58
G01 X131.29 Y2.53
G01 X131.33 Y2.49
G01 X131.42 Y2.45
G01 X131.52 Y2.41
G01 X131.65 Y2.39
G01 X131.78 Y2.38
G01 X131.85 Y2.38
G01 X131.92 Y2.37
G01 X131.99 Y2.36
G01 X132.03 Y2.34
G01 X132.08 Y2.32
G01 X132.12 Y2.30
G01 X132.14 Y2.28
G01 X132.15 Y2.27
G01 X132.17 Y2.25
G01 X132.18 Y2.22
G01 X132.18 Y2.19
G01 X132.18 Y2.16
G01 X132.17 Y2.14
G01 X132.16 Y2.12
G01 X132.14 Y2.08
G01 X132.11 Y2.05
G01 X132.08 Y2.03
G01 X132.04 Y1.99
G01 X131.98 Y1.96
G01 X131.93 Y1.93
G01 X131.87 Y1.91
G01 X131.80 Y1.89
G01 X131.73 Y1.87
G01 X131.65 Y1.86
G01 X131.58 Y1.86
G01 X131.49 Y1.86
G01 X131.40 Y1.87
G01 X131.31 Y1.89
G01 X131.22 Y1.91
G01 X131.14 Y1.94
G01 X131.08 Y1.97
G01 X131.02 Y2.00
G01 X130.97 Y2.04
G01 X130.91 Y2.08
G01 X130.88 Y2.12
G01 X130.85 Y2.16
G01 X130.82 Y2.20
G01 X130.81 Y2.23
G01 X130.80 Y2.25
G01 X130.78 Y2.31
G01 X130.77 Y2.36
G01 X130.77 Y2.44
G01 X130.77 Y2.51
G01 X130.78 Y2.59
G01 X130.79 Y2.66
G01 X130.81 Y2.74
G01 X130.83 Y2.81
G01 X130.86 Y2.88
F30
G01 Z6.00
G00 Z0.00
M9 M5
G00 Z0

(* SHAPE Nr: 21 *)
G00 X132.58 Y2.65
M3 M8
G00 Z6
G00 Z6.00
G01 Z6.00
F20
G01 X132.59 Y2.74
G01 X132.60 Y2.83
G01 X132.62 Y2.91
G01 X132.65 Y3.00
G01 X132.67 Y3.05
G01 X132.70 Y3.11
G01 X132.73 Y3.16
G01 X132.77 Y3.21
G01 X132.82 Y3.26
G01 X132.86 Y3.29
G01 X132.91 Y3.33
G01 X132.96 Y3.35
G01 X133.01 Y3.37
G01 X133.05 Y3.39
G01 X133.10 Y3.40
G01 X133.15 Y3.40
G01 X133.22 Y3.40
G01 X133.28 Y3.39
G01 X133.33 Y3.38
G01 X133.37 Y3.36
G01 X133.42 Y3.34
G01 X133.47 Y3.31
G01 X133.51 Y3.28
G01 X133.55 Y3.25
G01 X133.59 Y3.21
G01 X133.63 Y3.15
G01 X133.66 Y3.09
G01 X133.69 Y3.02
G01 X133.71 Y2.96
G01 X133.73 Y2.87
G01 X133.74 Y2.77
G01 X133.75 Y2.68
G01 X133.75 Y2.65
G01 X133.74 Y2.56
G01 X133.73 Y2.48
G01 X133.71 Y2.40
G01 X133.69 Y2.32
G01 X133.66 Y2.25
G01 X133.63 Y2.19
G01 X133.59 Y2.14
G01 X133.54 Y2.08
G01 X133.49 Y2.03
G01 X133.44 Y1.99
G01 X133.39 Y1.95
G01 X133.34 Y1.93
G01 X133.28 Y1.90
G01 X133.22 Y1.89
G01 X133.16 Y1.88
G01 X133.11 Y1.87
G01 X133.06 Y1.88
G01 X133.01 Y1.89
G01 X132.96 Y1.90
G01 X132.91 Y1.92
G01 X132.86 Y1.95
G01 X132.82 Y1.99
G01 X132.78 Y2.02
G01 X132.75 Y2.06
G01 X132.72 Y2.10
G01 X132.70 Y2.15
G01 X132.68 Y2.19
G01 X132.66 Y2.23
G01 X132.63 Y2.32
G01 X132.61 Y2.41
G01 X132.59 Y2.51
G01 X132.58 Y2.57
G01 X132.58 Y2.64
G01 X132.58 Y2.65
F30
G01 Z6.00
G00 Z0.00
M9 M5
G00 Z0

(* SHAPE Nr: 22 *)
G00 X132.82 Y2.65
M3 M8
G00 Z6
G00 Z6.00
G01 Z6.00
F20
G01 X132.82 Y2.67
G01 X132.83 Y2.70
G01 X132.84 Y2.72
G01 X132.85 Y2.74
G01 X132.87 Y2.77
G01 X132.89 Y2.79
G01 X132.93 Y2.82
G01 X132.96 Y2.84
G01 X133.00 Y2.86
G01 X133.05 Y2.88
G01 X133.11 Y2.90
G01 X133.17 Y2.91
G01 X133.23 Y2.91
G01 X133.28 Y2.91
G01 X133.32 Y2.90
G01 X133.36 Y2.89
G01 X133.40 Y2.88
G01 X133.43 Y2.87
G01 X133.47 Y2.84
G01 X133.48 Y2.82
G01 X133.50 Y2.80
G01 X133.51 Y2.78
G01 X133.51 Y2.75
G01 X133.51 Y2.72
G01 X133.50 Y2.68
G01 X133.48 Y2.65
G01 X133.45 Y2.60
G01 X133.41 Y2.56
G01 X133.37 Y2.52
G01 X133.32 Y2.48
G01 X133.27 Y2.45
G01 X133.22 Y2.42
G01 X133.17 Y2.40
G01 X133.12 Y2.39
G01 X133.09 Y2.38
G01 X133.07 Y2.38
G01 X133.06 Y2.38
G01 X133.02 Y2.39
G01 X132.99 Y2.40
G01 X132.96 Y2.41
G01 X132.93 Y2.43
G01 X132.90 Y2.46
G01 X132.87 Y2.49
G01 X132.85 Y2.53
G01 X132.83 Y2.56
G01 X132.82 Y2.60
G01 X132.82 Y2.65
F30
G01 Z6.00
G00 Z0.00
M9 M5
G00 Z0

(* SHAPE Nr: 23 *)
G00 X134.18 Y2.43
M3 M8
G00 Z6
G00 Z6.00
G01 Z6.00
F20
G01 X134.17 Y2.58
G01 X134.15 Y2.73
G01 X134.15 Y2.89
G01 X134.14 Y3.04
G01 X134.15 Y3.20
G01 X134.15 Y3.35
G01 X134.17 Y3.50
G01 X134.18 Y3.66
G01 X134.20 Y3.77
G01 X134.22 Y3.88
G01 X134.25 Y4.00
G01 X134.27 Y4.05
G01 X134.29 Y4.10
G01 X134.31 Y4.15
G01 X134.33 Y4.18
G01 X134.35 Y4.20
G01 X134.37 Y4.22
G01 X134.38 Y4.23
G01 X134.40 Y4.23
G01 X134.41 Y4.23
G01 X134.42 Y4.23
G01 X134.44 Y4.22
G01 X134.46 Y4.21
G01 X134.48 Y4.19
G01 X134.49 Y4.17
G01 X134.52 Y4.12
G01 X134.54 Y4.07
G01 X134.56 Y4.01
G01 X134.59 Y3.89
G01 X134.62 Y3.78
G01 X134.63 Y3.66
G01 X134.65 Y3.51
G01 X134.66 Y3.35
G01 X134.67 Y3.20
G01 X134.67 Y3.04
G01 X134.67 Y2.89
G01 X134.66 Y2.73
G01 X134.65 Y2.58
G01 X134.63 Y2.43
G01 X134.62 Y2.31
G01 X134.59 Y2.20
G01 X134.57 Y2.09
G01 X134.55 Y2.03
G01 X134.53 Y1.98
G01 X134.50 Y1.93
G01 X134.49 Y1.91
G01 X134.47 Y1.89
G01 X134.45 Y1.87
G01 X134.44 Y1.86
G01 X134.42 Y1.85
G01 X134.41 Y1.85
G01 X134.39 Y1.85
G01 X134.38 Y1.86
G01 X134.36 Y1.88
G01 X134.34 Y1.90
G01 X134.32 Y1.92
G01 X134.30 Y1.97
G01 X134.27 Y2.02
G01 X134.26 Y2.07
G01 X134.22 Y2.19
G01 X134.20 Y2.31
G01 X134.18 Y2.43
F30
G01 Z6.00
G00 Z0.00
M9 M5
G00 Z0

(* SHAPE Nr: 24 *)
G00 X134.98 Y2.45
M3 M8
G00 Z6
G00 Z6.00
G01 Z6.00
F20
G01 X134.98 Y2.47
G01 X134.99 Y2.53
G01 X134.99 Y2.59
G01 X135.01 Y2.68
G01 X135.03 Y2.76
G01 X135.06 Y2.85
G01 X135.09 Y2.94
G01 X135.13 Y3.02
G01 X135.18 Y3.10
G01 X135.23 Y3.17
G01 X135.27 Y3.22
G01 X135.31 Y3.27
G01 X135.35 Y3.31
G01 X135.40 Y3.35
G01 X135.45 Y3.38
G01 X135.51 Y3.41
G01 X135.56 Y3.43
G01 X135.61 Y3.44
G01 X135.65 Y3.44
G01 X135.69 Y3.44
G01 X135.72 Y3.43
G01 X135.79 Y3.42
G01 X135.86 Y3.40
G01 X135.93 Y3.37
G01 X136.01 Y3.32
G01 X136.09 Y3.28
G01 X136.16 Y3.23
G01 X136.24 Y3.17
G01 X136.30 Y3.11
G01 X136.36 Y3.05
G01 X136.42 Y2.98
G01 X136.60 Y2.75
G01 X136.68 Y2.66
G01 X136.72 Y2.65
G01 X136.74 Y2.65
G01 X136.75 Y2.66
G01 X136.76 Y2.71
G01 X136.78 Y2.85
G01 X136.78 Y3.02
G01 X136.79 Y3.06
G01 X136.80 Y3.11
G01 X136.82 Y3.16
G01 X136.85 Y3.20
G01 X136.87 Y3.24
G01 X136.91 Y3.27
G01 X136.95 Y3.31
G01 X137.00 Y3.35
G01 X137.05 Y3.38
G01 X137.11 Y3.40
G01 X137.18 Y3.42
G01 X137.25 Y3.43
G01 X137.32 Y3.44
G01 X137.39 Y3.44
G01 X137.47 Y3.43
G01 X137.54 Y3.42
G01 X137.59 Y3.40
G01 X137.63 Y3.38
G01 X137.68 Y3.35
G01 X137.72 Y3.32
G01 X137.75 Y3.29
G01 X137.78 Y3.25
G01 X137.80 Y3.22
G01 X137.82 Y3.17
G01 X137.84 Y3.13
G01 X137.84 Y3.08
G01 X137.85 Y3.03
G01 X137.85 Y2.98
G01 X137.84 Y2.93
G01 X137.83 Y2.88
G01 X137.81 Y2.85
G01 X137.79 Y2.82
G01 X137.77 Y2.79
G01 X137.75 Y2.78
G01 X137.72 Y2.76
G01 X137.70 Y2.76
G01 X137.67 Y2.75
G01 X137.64 Y2.76
G01 X137.60 Y2.77
G01 X137.57 Y2.79
G01 X137.49 Y2.81
G01 X137.46 Y2.81
G01 X137.42 Y2.80
G01 X137.35 Y2.77
G01 X137.30 Y2.72
G01 X137.24 Y2.64
G01 X137.19 Y2.55
G01 X137.13 Y2.39
G01 X137.10 Y2.27
G01 X137.06 Y2.17
G01 X137.04 Y2.11
G01 X137.00 Y2.05
G01 X136.99 Y2.03
G01 X136.96 Y2.01
G01 X136.95 Y2.00
G01 X136.93 Y2.00
G01 X136.91 Y2.00
G01 X136.89 Y2.01
G01 X136.87 Y2.03
G01 X136.84 Y2.05
G01 X136.82 Y2.08
G01 X136.79 Y2.12
G01 X136.76 Y2.16
G01 X136.67 Y2.29
G01 X136.64 Y2.32
G01 X136.59 Y2.35
G01 X136.55 Y2.37
G01 X136.51 Y2.37
G01 X136.47 Y2.36
G01 X136.41 Y2.34
G01 X136.36 Y2.30
G01 X136.22 Y2.18
G01 X136.15 Y2.12
G01 X136.08 Y2.06
G01 X136.00 Y2.01
G01 X135.92 Y1.96
G01 X135.86 Y1.93
G01 X135.80 Y1.91
G01 X135.73 Y1.89
G01 X135.66 Y1.88
G01 X135.60 Y1.87
G01 X135.54 Y1.86
G01 X135.47 Y1.87
G01 X135.41 Y1.88
G01 X135.35 Y1.89
G01 X135.30 Y1.91
G01 X135.26 Y1.94
G01 X135.21 Y1.97
G01 X135.17 Y2.00
G01 X135.13 Y2.04
G01 X135.10 Y2.08
G01 X135.07 Y2.12
G01 X135.04 Y2.17
G01 X135.02 Y2.21
G01 X135.00 Y2.28
G01 X134.99 Y2.35
G01 X134.98 Y2.42
G01 X134.98 Y2.45
F30
G01 Z6.00
G00 Z0.00
M9 M5
G00 Z0

(* SHAPE Nr: 25 *)
G00 X135.47 Y2.63
M3 M8
G00 Z6
G00 Z6.00
G01 Z6.00
F20
G01 X135.47 Y2.65
G01 X135.47 Y2.66
G01 X135.47 Y2.70
G01 X135.48 Y2.74
G01 X135.50 Y2.77
G01 X135.52 Y2.80
G01 X135.54 Y2.83
G01 X135.57 Y2.85
G01 X135.60 Y2.87
G01 X135.63 Y2.89
G01 X135.67 Y2.90
G01 X135.71 Y2.91
G01 X135.73 Y2.91
G01 X135.75 Y2.91
G01 X135.79 Y2.90
G01 X135.82 Y2.89
G01 X135.86 Y2.88
G01 X135.89 Y2.86
G01 X135.91 Y2.84
G01 X135.94 Y2.81
G01 X135.96 Y2.78
G01 X135.98 Y2.74
G01 X135.99 Y2.71
G01 X136.00 Y2.67
G01 X136.00 Y2.65
G01 X136.00 Y2.63
G01 X135.99 Y2.59
G01 X135.98 Y2.56
G01 X135.96 Y2.52
G01 X135.95 Y2.49
G01 X135.92 Y2.46
G01 X135.90 Y2.44
G01 X135.87 Y2.42
G01 X135.83 Y2.40
G01 X135.79 Y2.39
G01 X135.75 Y2.38
G01 X135.73 Y2.38
G01 X135.71 Y2.38
G01 X135.68 Y2.39
G01 X135.64 Y2.40
G01 X135.61 Y2.41
G01 X135.58 Y2.43
G01 X135.55 Y2.46
G01 X135.52 Y2.48
G01 X135.50 Y2.51
G01 X135.49 Y2.55
G01 X135.47 Y2.59
G01 X135.47 Y2.63
F30
G01 Z6.00
G00 Z0.00
M9 M5
G00 Z0

(* SHAPE Nr: 26 *)
G00 X138.17 Y2.45
M3 M8
G00 Z6
G00 Z6.00
G01 Z6.00
F20
G01 X138.17 Y2.52
G01 X138.18 Y2.59
G01 X138.19 Y2.66
G01 X138.21 Y2.72
G01 X138.24 Y2.79
G01 X138.28 Y2.87
G01 X138.32 Y2.94
G01 X138.37 Y3.02
G01 X138.43 Y3.09
G01 X138.49 Y3.15
G01 X138.56 Y3.21
G01 X138.63 Y3.27
G01 X138.70 Y3.30
G01 X138.77 Y3.34
G01 X138.84 Y3.36
G01 X138.91 Y3.38
G01 X138.96 Y3.39
G01 X139.02 Y3.39
G01 X139.07 Y3.39
G01 X139.12 Y3.38
G01 X139.15 Y3.38
G01 X139.18 Y3.37
G01 X139.24 Y3.34
G01 X139.28 Y3.30
G01 X139.33 Y3.26
G01 X139.37 Y3.21
G01 X139.41 Y3.15
G01 X139.45 Y3.09
G01 X139.48 Y3.03
G01 X139.52 Y2.95
G01 X139.55 Y2.87
G01 X139.58 Y2.78
G01 X139.60 Y2.70
G01 X139.62 Y2.61
G01 X139.62 Y2.58
G01 X139.64 Y2.45
G01 X139.65 Y2.31
G01 X139.65 Y2.25
G01 X139.65 Y2.18
G01 X139.64 Y2.12
G01 X139.63 Y2.09
G01 X139.62 Y2.05
G01 X139.61 Y2.02
G01 X139.59 Y1.99
G01 X139.57 Y1.96
G01 X139.54 Y1.94
G01 X139.51 Y1.92
G01 X139.46 Y1.90
G01 X139.41 Y1.88
G01 X139.36 Y1.87
G01 X139.25 Y1.86
G01 X139.15 Y1.85
G01 X139.04 Y1.85
G01 X138.97 Y1.85
G01 X138.89 Y1.86
G01 X138.80 Y1.88
G01 X138.72 Y1.89
G01 X138.64 Y1.92
G01 X138.56 Y1.95
G01 X138.49 Y1.98
G01 X138.44 Y2.01
G01 X138.38 Y2.05
G01 X138.34 Y2.08
G01 X138.29 Y2.12
G01 X138.27 Y2.15
G01 X138.24 Y2.18
G01 X138.22 Y2.22
G01 X138.21 Y2.25
G01 X138.19 Y2.32
G01 X138.17 Y2.38
G01 X138.17 Y2.45
F30
G01 Z6.00
G00 Z0.00
M9 M5
G00 Z0

(* SHAPE Nr: 27 *)
G00 X138.64 Y2.63
M3 M8
G00 Z6
G00 Z6.00
G01 Z6.00
F20
G01 X138.64 Y2.65
G01 X138.64 Y2.66
G01 X138.65 Y2.70
G01 X138.66 Y2.74
G01 X138.67 Y2.77
G01 X138.69 Y2.80
G01 X138.72 Y2.83
G01 X138.74 Y2.85
G01 X138.77 Y2.87
G01 X138.81 Y2.89
G01 X138.85 Y2.90
G01 X138.89 Y2.91
G01 X138.91 Y2.91
G01 X138.92 Y2.91
G01 X138.96 Y2.90
G01 X139.00 Y2.89
G01 X139.03 Y2.88
G01 X139.06 Y2.86
G01 X139.09 Y2.84
G01 X139.11 Y2.81
G01 X139.13 Y2.78
G01 X139.15 Y2.74
G01 X139.16 Y2.71
G01 X139.17 Y2.67
G01 X139.17 Y2.65
G01 X139.17 Y2.63
G01 X139.17 Y2.59
G01 X139.15 Y2.56
G01 X139.14 Y2.52
G01 X139.12 Y2.49
G01 X139.10 Y2.46
G01 X139.07 Y2.44
G01 X139.04 Y2.42
G01 X139.00 Y2.40
G01 X138.97 Y2.39
G01 X138.93 Y2.38
G01 X138.91 Y2.38
G01 X138.89 Y2.38
G01 X138.85 Y2.39
G01 X138.82 Y2.40
G01 X138.78 Y2.41
G01 X138.75 Y2.43
G01 X138.72 Y2.46
G01 X138.70 Y2.48
G01 X138.68 Y2.51
G01 X138.66 Y2.55
G01 X138.65 Y2.59
G01 X138.64 Y2.63
F30
G01 Z6.00
G00 Z0.00
M9 M5
G00 Z0

(* SHAPE Nr: 28 *)
G00 X140.23 Y2.14
M3 M8
G00 Z6
G00 Z6.00
G01 Z6.00
F20
G01 X140.24 Y2.18
G01 X140.25 Y2.22
G01 X140.27 Y2.25
G01 X140.29 Y2.28
G01 X140.31 Y2.31
G01 X140.34 Y2.33
G01 X140.37 Y2.35
G01 X140.40 Y2.37
G01 X140.44 Y2.38
G01 X140.48 Y2.38
G01 X140.49 Y2.38
G01 X140.51 Y2.38
G01 X140.55 Y2.37
G01 X140.59 Y2.36
G01 X140.63 Y2.34
G01 X140.66 Y2.32
G01 X140.68 Y2.30
G01 X140.71 Y2.27
G01 X140.73 Y2.24
G01 X140.74 Y2.21
G01 X140.75 Y2.17
G01 X140.76 Y2.13
G01 X140.76 Y2.12
G01 X140.76 Y2.10
G01 X140.75 Y2.06
G01 X140.74 Y2.02
G01 X140.72 Y1.98
G01 X140.70 Y1.95
G01 X140.68 Y1.93
G01 X140.65 Y1.90
G01 X140.62 Y1.88
G01 X140.58 Y1.87
G01 X140.55 Y1.86
G01 X140.51 Y1.85
G01 X140.49 Y1.85
G01 X140.47 Y1.85
G01 X140.43 Y1.86
G01 X140.40 Y1.87
G01 X140.36 Y1.89
G01 X140.33 Y1.91
G01 X140.30 Y1.93
G01 X140.28 Y1.96
G01 X140.26 Y1.99
G01 X140.25 Y2.03
G01 X140.23 Y2.06
G01 X140.23 Y2.10
G01 X140.23 Y2.12
G01 X140.23 Y2.14
F30
G01 Z6.00
G00 Z0.00
M9 M5
G00 Z0

(* SHAPE Nr: 29 *)
G00 X141.36 Y2.36
M3 M8
G00 Z6
G00 Z6.00
G01 Z6.00
F20
G01 X141.35 Y2.44
G01 X141.35 Y2.51
G01 X141.36 Y2.59
G01 X141.37 Y2.66
G01 X141.39 Y2.74
G01 X141.42 Y2.81
G01 X141.45 Y2.88
G01 X141.48 Y2.94
G01 X141.52 Y3.00
G01 X141.55 Y3.05
G01 X141.59 Y3.08
G01 X141.62 Y3.12
G01 X141.69 Y3.18
G01 X141.76 Y3.24
G01 X141.84 Y3.29
G01 X141.92 Y3.33
G01 X142.00 Y3.37
G01 X142.09 Y3.40
G01 X142.15 Y3.42
G01 X142.21 Y3.43
G01 X142.27 Y3.43
G01 X142.33 Y3.43
G01 X142.38 Y3.43
G01 X142.43 Y3.41
G01 X142.48 Y3.39
G01 X142.52 Y3.37
G01 X142.55 Y3.35
G01 X142.57 Y3.32
G01 X142.59 Y3.29
G01 X142.60 Y3.26
G01 X142.61 Y3.22
G01 X142.61 Y3.18
G01 X142.61 Y3.14
G01 X142.60 Y3.11
G01 X142.59 Y3.08
G01 X142.56 Y3.05
G01 X142.54 Y3.02
G01 X142.51 Y3.00
G01 X142.47 Y2.97
G01 X142.42 Y2.95
G01 X142.36 Y2.93
G01 X142.31 Y2.92
G01 X142.25 Y2.91
G01 X142.21 Y2.91
G01 X142.13 Y2.90
G01 X142.06 Y2.89
G01 X141.98 Y2.86
G01 X141.94 Y2.83
G01 X141.89 Y2.80
G01 X141.86 Y2.76
G01 X141.82 Y2.69
G01 X141.82 Y2.65
G01 X141.82 Y2.60
G01 X141.84 Y2.56
G01 X141.87 Y2.51
G01 X141.91 Y2.47
G01 X141.96 Y2.45
G01 X142.03 Y2.41
G01 X142.10 Y2.39
G01 X142.18 Y2.38
G01 X142.27 Y2.38
G01 X142.33 Y2.37
G01 X142.39 Y2.35
G01 X142.44 Y2.33
G01 X142.48 Y2.31
G01 X142.51 Y2.29
G01 X142.54 Y2.26
G01 X142.57 Y2.23
G01 X142.59 Y2.20
G01 X142.60 Y2.16
G01 X142.61 Y2.14
G01 X142.61 Y2.12
G01 X142.61 Y2.09
G01 X142.61 Y2.07
G01 X142.60 Y2.04
G01 X142.58 Y2.01
G01 X142.57 Y1.98
G01 X142.54 Y1.96
G01 X142.50 Y1.93
G01 X142.46 Y1.90
G01 X142.41 Y1.89
G01 X142.34 Y1.87
G01 X142.26 Y1.86
G01 X142.18 Y1.85
G01 X142.09 Y1.86
G01 X142.00 Y1.87
G01 X141.92 Y1.89
G01 X141.83 Y1.91
G01 X141.75 Y1.94
G01 X141.67 Y1.98
G01 X141.61 Y2.00
G01 X141.56 Y2.04
G01 X141.51 Y2.07
G01 X141.47 Y2.12
G01 X141.44 Y2.15
G01 X141.42 Y2.18
G01 X141.40 Y2.21
G01 X141.38 Y2.25
G01 X141.37 Y2.31
G01 X141.36 Y2.36
F30
G01 Z6.00
G00 Z0.00
M9 M5
G00 Z0

(* SHAPE Nr: 30 *)
G00 X142.88 Y2.45
M3 M8
G00 Z6
G00 Z6.00
G01 Z6.00
F20
G01 X142.89 Y2.48
G01 X142.89 Y2.52
G01 X142.90 Y2.55
G01 X142.91 Y2.58
G01 X142.94 Y2.67
G01 X142.99 Y2.75
G01 X143.04 Y2.84
G01 X143.08 Y2.91
G01 X143.14 Y2.98
G01 X143.19 Y3.04
G01 X143.25 Y3.10
G01 X143.31 Y3.15
G01 X143.37 Y3.19
G01 X143.43 Y3.22
G01 X143.49 Y3.26
G01 X143.56 Y3.28
G01 X143.62 Y3.30
G01 X143.68 Y3.31
G01 X143.74 Y3.32
G01 X143.80 Y3.32
G01 X143.86 Y3.31
G01 X143.92 Y3.30
G01 X143.98 Y3.28
G01 X144.03 Y3.25
G01 X144.09 Y3.22
G01 X144.13 Y3.18
G01 X144.18 Y3.14
G01 X144.21 Y3.09
G01 X144.25 Y3.03
G01 X144.28 Y2.96
G01 X144.30 Y2.90
G01 X144.31 Y2.83
G01 X144.32 Y2.77
G01 X144.33 Y2.71
G01 X144.33 Y2.65
G01 X144.33 Y2.56
G01 X144.32 Y2.47
G01 X144.30 Y2.38
G01 X144.28 Y2.32
G01 X144.26 Y2.25
G01 X144.23 Y2.19
G01 X144.19 Y2.13
G01 X144.16 Y2.09
G01 X144.12 Y2.05
G01 X144.08 Y2.02
G01 X144.03 Y1.98
G01 X143.98 Y1.96
G01 X143.93 Y1.94
G01 X143.87 Y1.92
G01 X143.80 Y1.91
G01 X143.73 Y1.91
G01 X143.66 Y1.91
G01 X143.59 Y1.92
G01 X143.51 Y1.94
G01 X143.43 Y1.96
G01 X143.36 Y1.99
G01 X143.29 Y2.02
G01 X143.21 Y2.06
G01 X143.14 Y2.11
G01 X143.07 Y2.16
G01 X143.00 Y2.22
G01 X142.97 Y2.25
G01 X142.94 Y2.28
G01 X142.92 Y2.31
G01 X142.90 Y2.36
G01 X142.89 Y2.40
G01 X142.88 Y2.45
F30
G01 Z6.00
G00 Z0.00
M9 M5
G00 Z0

(* SHAPE Nr: 31 *)
G00 X143.40 Y2.63
M3 M8
G00 Z6
G00 Z6.00
G01 Z6.00
F20
G01 X143.40 Y2.65
G01 X143.40 Y2.66
G01 X143.41 Y2.70
G01 X143.42 Y2.74
G01 X143.44 Y2.77
G01 X143.45 Y2.80
G01 X143.48 Y2.83
G01 X143.50 Y2.85
G01 X143.53 Y2.87
G01 X143.57 Y2.89
G01 X143.61 Y2.90
G01 X143.65 Y2.91
G01 X143.67 Y2.91
G01 X143.69 Y2.91
G01 X143.72 Y2.90
G01 X143.76 Y2.89
G01 X143.79 Y2.88
G01 X143.82 Y2.86
G01 X143.85 Y2.84
G01 X143.88 Y2.81
G01 X143.90 Y2.78
G01 X143.91 Y2.74
G01 X143.93 Y2.71
G01 X143.93 Y2.67
G01 X143.93 Y2.65
G01 X143.93 Y2.63
G01 X143.93 Y2.59
G01 X143.92 Y2.56
G01 X143.90 Y2.52
G01 X143.88 Y2.49
G01 X143.86 Y2.46
G01 X143.83 Y2.44
G01 X143.80 Y2.42
G01 X143.77 Y2.40
G01 X143.73 Y2.39
G01 X143.69 Y2.38
G01 X143.67 Y2.38
G01 X143.65 Y2.38
G01 X143.61 Y2.39
G01 X143.58 Y2.40
G01 X143.54 Y2.41
G01 X143.51 Y2.43
G01 X143.49 Y2.46
G01 X143.46 Y2.48
G01 X143.44 Y2.51
G01 X143.42 Y2.55
G01 X143.41 Y2.59
G01 X143.40 Y2.63
F30
G01 Z6.00
G00 Z0.00
M9 M5
G00 Z0

(* SHAPE Nr: 32 *)
G00 X144.74 Y2.60
M3 M8
G00 Z6
G00 Z6.00
G01 Z6.00
F20
G01 X144.74 Y2.77
G01 X144.74 Y2.89
G01 X144.75 Y3.00
G01 X144.75 Y3.09
G01 X144.77 Y3.18
G01 X144.78 Y3.21
G01 X144.79 Y3.25
G01 X144.81 Y3.28
G01 X144.83 Y3.31
G01 X144.86 Y3.34
G01 X144.89 Y3.36
G01 X144.92 Y3.38
G01 X144.97 Y3.39
G01 X145.02 Y3.41
G01 X145.07 Y3.41
G01 X145.16 Y3.42
G01 X145.25 Y3.42
G01 X145.33 Y3.42
G01 X145.53 Y3.40
G01 X145.72 Y3.39
G01 X145.91 Y3.37
G01 X146.09 Y3.35
G01 X146.18 Y3.34
G01 X146.27 Y3.32
G01 X146.36 Y3.29
G01 X146.41 Y3.27
G01 X146.46 Y3.25
G01 X146.51 Y3.22
G01 X146.56 Y3.19
G01 X146.60 Y3.15
G01 X146.64 Y3.11
G01 X146.66 Y3.06
G01 X146.69 Y3.00
G01 X146.71 Y2.94
G01 X146.73 Y2.87
G01 X146.75 Y2.75
G01 X146.77 Y2.62
G01 X146.78 Y2.51
G01 X146.85 Y1.72
G01 X146.46 Y2.38
G01 X146.16 Y2.85
G01 X146.12 Y2.88
G01 X146.11 Y2.88
G01 X146.10 Y2.87
G01 X146.08 Y2.83
G01 X146.06 Y2.68
G01 X146.06 Y2.36
G01 X146.05 Y2.28
G01 X146.03 Y2.20
G01 X146.01 Y2.12
G01 X145.99 Y2.06
G01 X145.97 Y2.00
G01 X145.94 Y1.95
G01 X145.92 Y1.92
G01 X145.89 Y1.89
G01 X145.86 Y1.87
G01 X145.84 Y1.86
G01 X145.82 Y1.85
G01 X145.80 Y1.85
G01 X145.78 Y1.85
G01 X145.76 Y1.86
G01 X145.73 Y1.88
G01 X145.70 Y1.90
G01 X145.68 Y1.92
G01 X145.63 Y1.98
G01 X145.59 Y2.04
G01 X145.56 Y2.10
G01 X145.53 Y2.18
G01 X145.50 Y2.27
G01 X145.47 Y2.36
G01 X145.45 Y2.45
G01 X145.36 Y2.85
G01 X145.34 Y2.88
G01 X145.33 Y2.89
G01 X145.31 Y2.88
G01 X145.28 Y2.85
G01 X145.21 Y2.72
G01 X144.91 Y2.07
G01 X144.88 Y2.00
G01 X144.84 Y1.95
G01 X144.83 Y1.93
G01 X144.81 Y1.92
G01 X144.81 Y1.92
G01 X144.80 Y1.92
G01 X144.79 Y1.92
G01 X144.78 Y1.94
G01 X144.78 Y1.96
G01 X144.77 Y2.03
G01 X144.76 Y2.10
G01 X144.75 Y2.29
G01 X144.75 Y2.48
G01 X144.74 Y2.60
F30
G01 Z6.00
G00 Z0.00
M9 M5
G00 Z0

(* SHAPE Nr: 33 *)
G00 X119.30 Y3.12
M3 M8
G00 Z6
G00 Z6.00
G01 Z6.00
F20
G01 X119.28 Y3.08
G01 X119.26 Y3.03
G01 X119.22 Y3.00
G01 X119.17 Y2.95
G01 X119.12 Y2.91
G01 X119.06 Y2.88
G01 X118.98 Y2.84
G01 X118.91 Y2.81
G01 X118.77 Y2.76
G01 X118.64 Y2.71
G01 X118.55 Y2.68
G01 X118.47 Y2.67
G01 X118.44 Y2.66
G01 X118.41 Y2.66
G01 X118.38 Y2.67
G01 X118.36 Y2.68
G01 X118.34 Y2.69
G01 X118.32 Y2.71
G01 X118.31 Y2.73
G01 X118.29 Y2.76
G01 X118.28 Y2.80
G01 X118.28 Y2.84
G01 X118.27 Y2.93
G01 X118.27 Y3.03
G01 X118.27 Y3.04
G01 X118.27 Y3.05
G01 X118.27 Y3.09
G01 X118.28 Y3.13
G01 X118.30 Y3.17
G01 X118.31 Y3.20
G01 X118.35 Y3.25
G01 X118.39 Y3.29
G01 X118.43 Y3.33
G01 X118.48 Y3.36
G01 X118.55 Y3.39
G01 X118.61 Y3.41
G01 X118.69 Y3.43
G01 X118.76 Y3.44
G01 X118.80 Y3.44
G01 X118.88 Y3.44
G01 X118.95 Y3.43
G01 X119.03 Y3.42
G01 X119.09 Y3.40
G01 X119.15 Y3.38
G01 X119.20 Y3.35
G01 X119.23 Y3.33
G01 X119.26 Y3.30
G01 X119.29 Y3.27
G01 X119.30 Y3.25
G01 X119.31 Y3.22
G01 X119.31 Y3.18
G01 X119.31 Y3.15
G01 X119.30 Y3.12
F30
G01 Z6.00
G00 Z0.00
M9 M5
G00 Z0

(* SHAPE Nr: 34 *)
G00 X106.81 Y22.72
M3 M8
G00 Z6
G00 Z6.00
G01 Z6.00
F20
G01 X106.38 Y22.33
G01 X105.95 Y21.94
G01 X105.52 Y21.55
G01 X105.08 Y21.17
G01 X104.63 Y20.80
G01 X104.18 Y20.43
G01 X103.72 Y20.07
G01 X103.26 Y19.71
G01 X102.80 Y19.36
G01 X102.33 Y19.02
G01 X101.86 Y18.68
G01 X101.38 Y18.35
G01 X100.90 Y18.02
G01 X100.41 Y17.70
G01 X99.92 Y17.39
G01 X99.42 Y17.08
G01 X98.91 Y16.77
G01 X98.40 Y16.47
G01 X97.88 Y16.18
G01 X97.37 Y15.89
G01 X96.85 Y15.61
G01 X96.32 Y15.34
G01 X95.79 Y15.07
G01 X95.26 Y14.81
G01 X94.73 Y14.56
G01 X94.19 Y14.31
G01 X93.65 Y14.07
G01 X93.11 Y13.84
G01 X92.57 Y13.62
G01 X92.03 Y13.40
G01 X91.49 Y13.19
G01 X90.94 Y12.99
G01 X90.39 Y12.79
G01 X89.84 Y12.60
G01 X89.29 Y12.41
G01 X88.73 Y12.24
G01 X88.17 Y12.06
G01 X87.62 Y11.90
G01 X87.02 Y11.73
G01 X86.43 Y11.57
G01 X85.83 Y11.42
G01 X85.23 Y11.27
G01 X84.63 Y11.13
G01 X84.02 Y11.00
G01 X83.42 Y10.87
G01 X82.81 Y10.75
G01 X82.42 Y10.68
G01 X82.22 Y10.64
G01 X82.02 Y10.61
G01 X81.67 Y10.56
G01 X81.32 Y10.51
G01 X80.97 Y10.47
G01 X80.61 Y10.44
G01 X80.07 Y10.38
G01 X79.52 Y10.34
G01 X78.97 Y10.30
G01 X78.42 Y10.27
G01 X77.72 Y10.23
G01 X77.02 Y10.21
G01 X76.31 Y10.19
G01 X75.61 Y10.18
G01 X74.91 Y10.17
G01 X74.21 Y10.17
G01 X73.50 Y10.18
G01 X73.00 Y10.19
G01 X72.50 Y10.21
G01 X71.99 Y10.23
G01 X71.49 Y10.26
G01 X71.06 Y10.29
G01 X70.63 Y10.33
G01 X70.19 Y10.38
G01 X69.99 Y10.40
G01 X69.78 Y10.43
G01 X69.69 Y10.44
G01 X69.11 Y10.54
G01 X68.53 Y10.63
G01 X67.94 Y10.74
G01 X67.37 Y10.85
G01 X66.79 Y10.97
G01 X66.21 Y11.09
G01 X65.63 Y11.21
G01 X65.03 Y11.36
G01 X64.42 Y11.50
G01 X63.82 Y11.66
G01 X63.21 Y11.82
G01 X62.61 Y11.99
G01 X62.01 Y12.17
G01 X61.42 Y12.35
G01 X60.82 Y12.54
G01 X60.26 Y12.73
G01 X59.71 Y12.93
G01 X59.15 Y13.13
G01 X58.60 Y13.33
G01 X58.05 Y13.55
G01 X57.50 Y13.77
G01 X56.95 Y14.00
G01 X56.41 Y14.23
G01 X55.87 Y14.47
G01 X55.37 Y14.70
G01 X54.87 Y14.94
G01 X54.38 Y15.18
G01 X53.88 Y15.43
G01 X53.39 Y15.69
G01 X52.91 Y15.95
G01 X52.42 Y16.21
G01 X51.94 Y16.49
G01 X51.46 Y16.77
G01 X50.99 Y17.05
G01 X50.51 Y17.35
G01 X50.03 Y17.65
G01 X49.56 Y17.96
G01 X49.09 Y18.27
G01 X48.62 Y18.59
G01 X48.16 Y18.92
G01 X47.70 Y19.25
G01 X47.25 Y19.59
G01 X46.80 Y19.94
G01 X46.36 Y20.29
G01 X45.92 Y20.64
G01 X45.48 Y21.00
G01 X45.05 Y21.37
G01 X44.62 Y21.74
G01 X44.20 Y22.12
G01 X43.79 Y22.50
G01 X43.37 Y22.90
G01 X42.96 Y23.30
G01 X42.55 Y23.70
G01 X42.14 Y24.11
G01 X41.75 Y24.53
G01 X41.35 Y24.94
G01 X40.97 Y25.37
G01 X40.58 Y25.80
G01 X40.21 Y26.23
G01 X39.84 Y26.67
G01 X39.47 Y27.11
G01 X39.11 Y27.56
G01 X38.76 Y28.01
G01 X38.41 Y28.46
G01 X38.07 Y28.92
G01 X37.73 Y29.38
G01 X37.39 Y29.84
G01 X37.07 Y30.31
G01 X36.74 Y30.78
G01 X36.42 Y31.27
G01 X36.11 Y31.75
G01 X35.82 Y32.21
G01 X35.53 Y32.68
G01 X35.25 Y33.15
G01 X34.98 Y33.62
G01 X34.71 Y34.11
G01 X34.44 Y34.60
G01 X34.18 Y35.09
G01 X33.93 Y35.59
G01 X33.68 Y36.09
G01 X33.44 Y36.60
G01 X33.21 Y37.10
G01 X32.98 Y37.61
G01 X32.76 Y38.13
G01 X32.55 Y38.64
G01 X32.33 Y39.20
G01 X32.11 Y39.76
G01 X31.90 Y40.33
G01 X31.70 Y40.90
G01 X31.51 Y41.47
G01 X31.33 Y42.04
G01 X31.15 Y42.62
G01 X30.98 Y43.20
G01 X30.82 Y43.78
G01 X30.66 Y44.36
G01 X30.51 Y44.94
G01 X30.37 Y45.54
G01 X30.24 Y46.14
G01 X30.11 Y46.74
G01 X29.99 Y47.35
G01 X29.88 Y47.95
G01 X29.78 Y48.56
G01 X29.68 Y49.16
G01 X29.59 Y49.77
G01 X29.51 Y50.38
G01 X29.44 Y50.99
G01 X29.38 Y51.60
G01 X29.32 Y52.22
G01 X29.27 Y52.82
G01 X29.23 Y53.42
G01 X29.20 Y54.03
G01 X29.17 Y54.63
G01 X29.15 Y55.24
G01 X29.14 Y55.84
G01 X29.14 Y56.45
G01 X29.15 Y57.06
G01 X29.16 Y57.66
G01 X29.18 Y58.27
G01 X29.21 Y58.87
G01 X29.24 Y59.48
G01 X29.29 Y60.08
G01 X29.34 Y60.68
G01 X29.40 Y61.29
G01 X29.46 Y61.89
G01 X29.54 Y62.49
G01 X29.62 Y63.09
G01 X29.69 Y63.60
G01 X29.78 Y64.12
G01 X29.86 Y64.63
G01 X29.96 Y65.14
G01 X30.06 Y65.65
G01 X30.16 Y66.16
G01 X30.27 Y66.67
G01 X30.40 Y67.20
G01 X30.52 Y67.73
G01 X30.66 Y68.26
G01 X30.80 Y68.79
G01 X30.95 Y69.31
G01 X31.11 Y69.83
G01 X31.28 Y70.38
G01 X31.45 Y70.92
G01 X31.63 Y71.46
G01 X31.75 Y71.79
G01 X31.87 Y72.12
G01 X32.08 Y72.69
G01 X32.30 Y73.25
G01 X32.52 Y73.80
G01 X32.75 Y74.36
G01 X32.99 Y74.91
G01 X33.24 Y75.46
G01 X33.49 Y76.00
G01 X33.75 Y76.54
G01 X34.01 Y77.08
G01 X34.29 Y77.62
G01 X34.57 Y78.15
G01 X34.86 Y78.68
G01 X35.15 Y79.20
G01 X35.45 Y79.72
G01 X35.76 Y80.24
G01 X36.08 Y80.75
G01 X36.40 Y81.26
G01 X36.73 Y81.76
G01 X37.06 Y82.26
G01 X37.40 Y82.76
G01 X37.75 Y83.25
G01 X38.10 Y83.74
G01 X38.46 Y84.22
G01 X38.83 Y84.70
G01 X39.20 Y85.17
G01 X39.58 Y85.64
G01 X39.97 Y86.10
G01 X40.36 Y86.56
G01 X40.75 Y87.01
G01 X41.15 Y87.46
G01 X41.56 Y87.90
G01 X41.98 Y88.34
G01 X42.39 Y88.77
G01 X42.82 Y89.20
G01 X43.23 Y89.61
G01 X43.65 Y90.01
G01 X44.08 Y90.40
G01 X44.51 Y90.79
G01 X44.94 Y91.18
G01 X45.38 Y91.56
G01 X45.82 Y91.94
G01 X46.27 Y92.30
G01 X46.72 Y92.67
G01 X47.18 Y93.03
G01 X47.64 Y93.38
G01 X48.10 Y93.73
G01 X48.57 Y94.07
G01 X49.05 Y94.41
G01 X51.13 Y95.87
G01 X48.12 Y96.83
G01 X47.38 Y97.07
G01 X46.64 Y97.32
G01 X46.27 Y97.44
G01 X45.91 Y97.57
G01 X45.54 Y97.71
G01 X45.29 Y97.80
G01 X45.04 Y97.90
G01 X44.79 Y98.01
G01 X44.61 Y98.10
G01 X44.43 Y98.19
G01 X44.26 Y98.28
G01 X44.15 Y98.34
G01 X44.05 Y98.41
G01 X43.95 Y98.48
G01 X43.85 Y98.55
G01 X43.78 Y98.62
G01 X43.71 Y98.68
G01 X43.64 Y98.75
G01 X43.57 Y98.84
G01 X43.50 Y98.93
G01 X43.44 Y99.02
G01 X43.38 Y99.11
G01 X43.32 Y99.21
G01 X43.27 Y99.32
G01 X43.22 Y99.43
G01 X43.18 Y99.53
G01 X43.11 Y99.74
G01 X43.04 Y99.94
G01 X42.95 Y100.24
G01 X42.86 Y100.54
G01 X42.78 Y100.84
G01 X42.72 Y101.07
G01 X42.66 Y101.30
G01 X42.61 Y101.53
G01 X42.56 Y101.79
G01 X42.52 Y102.05
G01 X42.48 Y102.32
G01 X42.44 Y102.58
G01 X42.41 Y102.89
G01 X42.38 Y103.20
G01 X42.36 Y103.51
G01 X42.34 Y103.82
G01 X42.32 Y104.28
G01 X42.31 Y104.75
G01 X42.30 Y105.22
G01 X42.30 Y105.80
G01 X42.29 Y106.38
G01 X42.30 Y106.88
G01 X42.31 Y107.38
G01 X42.33 Y107.87
G01 X42.35 Y108.37
G01 X42.38 Y108.87
G01 X42.42 Y109.36
G01 X42.46 Y109.86
G01 X42.51 Y110.35
G01 X42.57 Y110.84
G01 X42.64 Y111.33
G01 X42.71 Y111.83
G01 X42.79 Y112.31
G01 X42.88 Y112.80
G01 X42.97 Y113.29
G01 X43.07 Y113.78
G01 X43.18 Y114.23
G01 X43.29 Y114.68
G01 X43.40 Y115.14
G01 X43.53 Y115.58
G01 X43.66 Y116.03
G01 X43.80 Y116.48
G01 X43.94 Y116.92
G01 X44.09 Y117.36
G01 X44.24 Y117.75
G01 X44.38 Y118.15
G01 X44.54 Y118.54
G01 X44.70 Y118.92
G01 X44.87 Y119.31
G01 X45.04 Y119.69
G01 X45.22 Y120.07
G01 X45.40 Y120.46
G01 X45.61 Y120.85
G01 X45.81 Y121.24
G01 X46.03 Y121.63
G01 X46.24 Y122.01
G01 X46.47 Y122.40
G01 X46.68 Y122.75
G01 X46.90 Y123.09
G01 X47.12 Y123.43
G01 X47.35 Y123.77
G01 X47.59 Y124.11
G01 X47.83 Y124.44
G01 X48.08 Y124.77
G01 X48.31 Y125.07
G01 X48.55 Y125.37
G01 X48.80 Y125.66
G01 X49.05 Y125.95
G01 X49.30 Y126.24
G01 X49.56 Y126.52
G01 X49.85 Y126.82
G01 X50.14 Y127.11
G01 X50.43 Y127.40
G01 X50.73 Y127.68
G01 X51.04 Y127.96
G01 X51.35 Y128.23
G01 X51.67 Y128.50
G01 X51.99 Y128.76
G01 X52.32 Y129.01
G01 X52.63 Y129.25
G01 X52.95 Y129.48
G01 X53.28 Y129.71
G01 X53.61 Y129.93
G01 X53.94 Y130.15
G01 X54.28 Y130.36
G01 X54.62 Y130.57
G01 X54.96 Y130.77
G01 X55.33 Y130.97
G01 X55.71 Y131.18
G01 X56.08 Y131.37
G01 X56.47 Y131.57
G01 X56.85 Y131.75
G01 X57.23 Y131.93
G01 X57.62 Y132.11
G01 X58.08 Y132.30
G01 X58.55 Y132.49
G01 X59.01 Y132.68
G01 X59.48 Y132.86
G01 X59.95 Y133.03
G01 X60.43 Y133.19
G01 X60.92 Y133.35
G01 X61.42 Y133.51
G01 X61.92 Y133.66
G01 X62.43 Y133.81
G01 X62.93 Y133.95
G01 X63.30 Y134.04
G01 X63.67 Y134.14
G01 X64.05 Y134.24
G01 X64.20 Y134.29
G01 X64.35 Y134.35
G01 X64.45 Y134.40
G01 X64.54 Y134.46
G01 X64.59 Y134.51
G01 X64.64 Y134.56
G01 X64.69 Y134.61
G01 X64.72 Y134.68
G01 X64.77 Y134.79
G01 X64.81 Y134.91
G01 X64.87 Y135.22
G01 X64.91 Y135.69
G01 X64.91 Y135.91
G01 X64.90 Y136.45
G01 X64.88 Y136.99
G01 X64.82 Y138.02
G01 X64.74 Y139.05
G01 X64.64 Y140.15
G01 X64.53 Y141.30
G01 X64.45 Y142.16
G01 X64.42 Y142.55
G01 X64.39 Y142.94
G01 X64.37 Y143.32
G01 X64.36 Y143.54
G01 X64.36 Y143.75
G01 X64.36 Y143.87
G01 X64.36 Y143.91
G01 X64.36 Y144.11
G01 X64.37 Y144.31
G01 X64.38 Y144.40
G01 X64.39 Y144.49
G01 X64.41 Y144.58
G01 X64.43 Y144.63
G01 X64.45 Y144.68
G01 X64.47 Y144.73
G01 X64.49 Y144.75
G01 X64.50 Y144.78
G01 X64.51 Y144.79
G01 X64.57 Y144.84
G01 X64.64 Y144.89
G01 X64.67 Y144.92
G01 X64.71 Y144.94
G01 X64.75 Y144.95
G01 X64.78 Y144.96
G01 X64.82 Y144.96
G01 X64.85 Y144.96
G01 X64.88 Y144.95
G01 X64.91 Y144.93
G01 X64.95 Y144.91
G01 X64.98 Y144.88
G01 X65.01 Y144.84
G01 X65.05 Y144.78
G01 X65.08 Y144.71
G01 X65.11 Y144.64
G01 X65.16 Y144.53
G01 X65.19 Y144.41
G01 X65.23 Y144.28
G01 X65.28 Y144.06
G01 X65.33 Y143.84
G01 X65.37 Y143.62
G01 X65.43 Y143.24
G01 X65.49 Y142.85
G01 X65.54 Y142.47
G01 X65.63 Y141.67
G01 X65.73 Y140.88
G01 X65.74 Y140.76
G01 X65.86 Y139.73
G01 X65.96 Y139.04
G01 X66.06 Y138.36
G01 X66.17 Y137.68
G01 X66.28 Y137.09
G01 X66.39 Y136.52
G01 X66.46 Y136.23
G01 X66.54 Y135.95
G01 X66.58 Y135.80
G01 X67.04 Y134.61
G01 X68.38 Y134.77
G01 X68.51 Y134.79
G01 X68.95 Y134.84
G01 X69.40 Y134.88
G01 X69.84 Y134.92
G01 X69.99 Y134.93
G01 X70.15 Y134.93
G01 X70.20 Y134.94
G01 X70.33 Y134.95
G01 X70.40 Y134.97
G01 X70.45 Y135.01
G01 X70.49 Y135.05
G01 X70.53 Y135.12
G01 X70.55 Y135.19
G01 X70.58 Y135.31
G01 X70.59 Y135.44
G01 X70.60 Y135.67
G01 X70.60 Y135.90
G01 X70.58 Y136.69
G01 X70.53 Y137.63
G01 X70.49 Y138.52
G01 X70.45 Y139.40
G01 X70.41 Y140.28
G01 X70.40 Y140.64
G01 X70.40 Y140.70
G01 X70.39 Y140.87
G01 X70.37 Y141.03
G01 X70.34 Y141.18
G01 X70.30 Y141.32
G01 X70.27 Y141.40
G01 X70.22 Y141.48
G01 X70.17 Y141.55
G01 X70.10 Y141.61
G01 X70.03 Y141.67
G01 X69.93 Y141.73
G01 X69.83 Y141.77
G01 X69.75 Y141.81
G01 X69.69 Y141.84
G01 X69.63 Y141.88
G01 X69.58 Y141.92
G01 X69.53 Y141.97
G01 X69.48 Y142.02
G01 X69.40 Y142.12
G01 X69.32 Y142.22
G01 X69.25 Y142.33
G01 X69.16 Y142.50
G01 X69.07 Y142.67
G01 X68.99 Y142.84
G01 X68.89 Y143.07
G01 X68.79 Y143.30
G01 X68.70 Y143.54
G01 X68.62 Y143.75
G01 X68.55 Y143.95
G01 X67.87 Y145.92
G01 X62.71 Y145.92
G01 X57.55 Y145.92
G01 X56.86 Y143.93
G01 X56.16 Y141.95
G01 X51.96 Y141.76
G01 X50.81 Y141.71
G01 X49.66 Y141.66
G01 X49.14 Y141.65
G01 X48.63 Y141.64
G01 X48.12 Y141.63
G01 X47.80 Y141.63
G01 X47.48 Y141.63
G01 X47.16 Y141.64
G01 X46.98 Y141.65
G01 X46.80 Y141.66
G01 X46.62 Y141.68
G01 X46.51 Y141.69
G01 X46.40 Y141.71
G01 X46.29 Y141.74
G01 X46.23 Y141.76
G01 X46.16 Y141.78
G01 X46.10 Y141.81
G01 X46.07 Y141.83
G01 X46.04 Y141.86
G01 X46.01 Y141.88
G01 X45.98 Y141.91
G01 X45.97 Y141.94
G01 X45.95 Y141.98
G01 X45.95 Y142.01
G01 X45.94 Y142.05
G01 X45.95 Y142.09
G01 X45.95 Y142.11
G01 X45.98 Y142.26
G01 X46.02 Y142.41
G01 X46.23 Y143.15
G01 X46.44 Y143.89
G01 X46.85 Y145.32
G01 X47.28 Y146.74
G01 X47.70 Y148.17
G01 X51.00 Y159.18
G01 X51.27 Y160.07
G01 X52.35 Y163.69
G01 X52.84 Y165.32
G01 X53.34 Y166.95
G01 X53.59 Y167.74
G01 X53.85 Y168.53
G01 X54.10 Y169.33
G01 X54.26 Y169.79
G01 X54.42 Y170.25
G01 X54.47 Y170.39
G01 X54.53 Y170.52
G01 X54.54 Y170.55
G01 X54.56 Y170.58
G01 X54.56 Y170.59
G01 X54.59 Y170.61
G01 X54.62 Y170.63
G01 X54.65 Y170.65
G01 X54.69 Y170.66
G01 X54.77 Y170.69
G01 X54.85 Y170.71
G01 X54.93 Y170.72
G01 X55.10 Y170.75
G01 X55.26 Y170.77
G01 X55.43 Y170.79
G01 X55.76 Y170.81
G01 X56.09 Y170.83
G01 X56.43 Y170.85
G01 X57.04 Y170.87
G01 X57.65 Y170.89
G01 X58.26 Y170.90
G01 X59.68 Y170.91
G01 X61.09 Y170.92
G01 X62.58 Y170.92
G01 X70.34 Y170.92
G01 X70.87 Y169.27
G01 X70.95 Y169.03
G01 X71.51 Y167.28
G01 X72.06 Y165.53
G01 X72.70 Y163.49
G01 X73.33 Y161.45
G01 X73.43 Y161.13
G01 X76.31 Y151.90
G01 X77.25 Y148.90
G01 X77.34 Y148.60
G01 X78.24 Y145.71
G01 X79.14 Y142.82
G01 X79.30 Y142.30
G01 X79.31 Y142.28
G01 X79.32 Y142.23
G01 X79.32 Y142.18
G01 X79.32 Y142.15
G01 X79.32 Y142.12
G01 X79.31 Y142.09
G01 X79.29 Y142.06
G01 X79.27 Y142.04
G01 X79.24 Y142.01
G01 X79.21 Y141.99
G01 X79.17 Y141.97
G01 X79.11 Y141.95
G01 X79.04 Y141.93
G01 X78.97 Y141.92
G01 X78.84 Y141.90
G01 X78.70 Y141.88
G01 X78.57 Y141.87
G01 X78.30 Y141.85
G01 X78.04 Y141.84
G01 X77.78 Y141.84
G01 X77.08 Y141.82
G01 X76.38 Y141.82
G01 X75.16 Y141.82
G01 X70.88 Y141.82
G01 X71.03 Y140.56
G01 X71.23 Y139.20
G01 X71.40 Y138.11
G01 X71.48 Y137.64
G01 X71.57 Y137.09
G01 X71.65 Y136.54
G01 X71.73 Y135.98
G01 X71.74 Y135.82
G01 X71.76 Y135.66
G01 X71.77 Y135.60
G01 X71.79 Y135.35
G01 X71.81 Y135.26
G01 X71.83 Y135.16
G01 X71.88 Y135.06
G01 X71.91 Y135.01
G01 X71.95 Y134.97
G01 X71.99 Y134.94
G01 X72.08 Y134.88
G01 X72.18 Y134.85
G01 X72.33 Y134.80
G01 X72.49 Y134.77
G01 X72.76 Y134.73
G01 X73.04 Y134.70
G01 X73.89 Y134.62
G01 X74.27 Y134.58
G01 X74.65 Y134.54
G01 X75.02 Y134.49
G01 X75.40 Y134.43
G01 X75.78 Y134.37
G01 X76.15 Y134.30
G01 X76.52 Y134.23
G01 X76.89 Y134.15
G01 X77.30 Y134.05
G01 X77.71 Y133.95
G01 X78.11 Y133.84
G01 X78.51 Y133.72
G01 X78.91 Y133.59
G01 X79.31 Y133.46
G01 X79.71 Y133.32
G01 X80.10 Y133.18
G01 X80.49 Y133.03
G01 X80.88 Y132.87
G01 X81.26 Y132.70
G01 X81.66 Y132.53
G01 X82.05 Y132.34
G01 X82.44 Y132.15
G01 X82.82 Y131.95
G01 X83.20 Y131.75
G01 X83.58 Y131.54
G01 X83.96 Y131.32
G01 X84.33 Y131.10
G01 X84.69 Y130.87
G01 X85.06 Y130.63
G01 X85.42 Y130.39
G01 X85.78 Y130.13
G01 X86.14 Y129.88
G01 X86.50 Y129.61
G01 X86.85 Y129.34
G01 X87.19 Y129.07
G01 X87.53 Y128.79
G01 X87.87 Y128.50
G01 X88.20 Y128.21
G01 X88.53 Y127.91
G01 X88.87 Y127.60
G01 X89.20 Y127.28
G01 X89.53 Y126.95
G01 X89.85 Y126.62
G01 X90.17 Y126.28
G01 X90.48 Y125.94
G01 X90.79 Y125.59
G01 X91.09 Y125.24
G01 X91.39 Y124.89
G01 X91.68 Y124.53
G01 X91.96 Y124.16
G01 X92.25 Y123.79
G01 X92.52 Y123.41
G01 X92.79 Y123.03
G01 X93.06 Y122.65
G01 X93.32 Y122.26
G01 X93.57 Y121.87
G01 X93.82 Y121.47
G01 X94.07 Y121.08
G01 X94.30 Y120.67
G01 X94.53 Y120.27
G01 X94.77 Y119.84
G01 X95.00 Y119.41
G01 X95.22 Y118.98
G01 X95.43 Y118.55
G01 X95.64 Y118.11
G01 X95.85 Y117.67
G01 X96.04 Y117.23
G01 X96.23 Y116.78
G01 X96.42 Y116.33
G01 X96.60 Y115.88
G01 X96.77 Y115.43
G01 X96.93 Y114.98
G01 X97.09 Y114.54
G01 X97.23 Y114.09
G01 X97.38 Y113.63
G01 X97.52 Y113.18
G01 X97.65 Y112.73
G01 X97.77 Y112.27
G01 X97.89 Y111.81
G01 X97.95 Y111.57
G01 X98.00 Y111.34
G01 X98.07 Y110.99
G01 X98.14 Y110.63
G01 X98.20 Y110.28
G01 X98.25 Y109.92
G01 X98.29 Y109.56
G01 X98.33 Y109.19
G01 X98.36 Y108.82
G01 X98.39 Y108.45
G01 X98.40 Y108.08
G01 X98.42 Y107.71
G01 X98.42 Y107.34
G01 X98.42 Y107.05
G01 X98.42 Y106.75
G01 X98.40 Y106.46
G01 X98.39 Y106.16
G01 X98.36 Y105.90
G01 X98.33 Y105.65
G01 X98.29 Y105.39
G01 X98.26 Y105.22
G01 X98.23 Y105.06
G01 X98.18 Y104.90
G01 X98.16 Y104.81
G01 X98.13 Y104.73
G01 X98.09 Y104.64
G01 X98.05 Y104.56
G01 X98.02 Y104.49
G01 X97.98 Y104.42
G01 X97.91 Y104.32
G01 X97.83 Y104.22
G01 X97.76 Y104.12
G01 X97.67 Y104.03
G01 X97.55 Y103.90
G01 X97.42 Y103.77
G01 X97.29 Y103.65
G01 X97.15 Y103.53
G01 X96.96 Y103.37
G01 X96.76 Y103.21
G01 X96.56 Y103.06
G01 X96.35 Y102.91
G01 X96.05 Y102.70
G01 X95.74 Y102.50
G01 X95.42 Y102.31
G01 X95.11 Y102.13
G01 X94.74 Y101.92
G01 X94.37 Y101.72
G01 X94.00 Y101.52
G01 X93.62 Y101.34
G01 X93.37 Y101.22
G01 X93.13 Y101.10
G01 X91.01 Y100.10
G01 X93.70 Y98.95
G01 X94.24 Y98.72
G01 X94.78 Y98.47
G01 X95.31 Y98.23
G01 X95.84 Y97.97
G01 X96.36 Y97.71
G01 X96.88 Y97.44
G01 X97.39 Y97.17
G01 X97.89 Y96.89
G01 X98.40 Y96.61
G01 X98.89 Y96.32
G01 X99.39 Y96.02
G01 X99.88 Y95.72
G01 X100.36 Y95.41
G01 X100.85 Y95.10
G01 X101.33 Y94.78
G01 X101.80 Y94.45
G01 X102.27 Y94.12
G01 X102.74 Y93.78
G01 X103.20 Y93.43
G01 X103.66 Y93.08
G01 X104.11 Y92.72
G01 X104.58 Y92.34
G01 X105.05 Y91.96
G01 X105.51 Y91.57
G01 X105.96 Y91.17
G01 X106.41 Y90.76
G01 X106.86 Y90.35
G01 X107.30 Y89.94
G01 X107.73 Y89.51
G01 X108.16 Y89.09
G01 X108.59 Y88.65
G01 X109.01 Y88.22
G01 X109.42 Y87.77
G01 X109.82 Y87.32
G01 X110.23 Y86.87
G01 X110.62 Y86.41
G01 X111.01 Y85.95
G01 X111.39 Y85.48
G01 X111.76 Y85.02
G01 X112.11 Y84.56
G01 X112.46 Y84.10
G01 X112.81 Y83.63
G01 X113.15 Y83.15
G01 X113.48 Y82.67
G01 X113.81 Y82.19
G01 X114.13 Y81.71
G01 X114.45 Y81.22
G01 X114.76 Y80.72
G01 X115.06 Y80.22
G01 X115.36 Y79.72
G01 X115.65 Y79.22
G01 X115.94 Y78.71
G01 X116.21 Y78.20
G01 X116.49 Y77.68
G01 X116.75 Y77.16
G01 X117.01 Y76.63
G01 X117.26 Y76.11
G01 X117.51 Y75.58
G01 X117.75 Y75.04
G01 X117.98 Y74.51
G01 X118.21 Y73.97
G01 X118.42 Y73.42
G01 X118.64 Y72.88
G01 X118.84 Y72.33
G01 X119.04 Y71.78
G01 X119.23 Y71.23
G01 X119.41 Y70.67
G01 X119.59 Y70.11
G01 X119.75 Y69.56
G01 X119.91 Y69.01
G01 X120.06 Y68.45
G01 X120.21 Y67.89
G01 X120.34 Y67.33
G01 X120.47 Y66.77
G01 X120.60 Y66.21
G01 X120.68 Y65.78
G01 X120.77 Y65.36
G01 X120.87 Y64.78
G01 X120.97 Y64.21
G01 X121.06 Y63.63
G01 X121.14 Y63.05
G01 X121.22 Y62.48
G01 X121.29 Y61.90
G01 X121.35 Y61.32
G01 X121.41 Y60.73
G01 X121.45 Y60.15
G01 X121.49 Y59.57
G01 X121.53 Y58.99
G01 X121.55 Y58.40
G01 X121.57 Y57.81
G01 X121.58 Y57.22
G01 X121.59 Y56.63
G01 X121.58 Y56.04
G01 X121.57 Y55.45
G01 X121.55 Y54.86
G01 X121.52 Y54.27
G01 X121.49 Y53.68
G01 X121.45 Y53.09
G01 X121.40 Y52.49
G01 X121.34 Y51.90
G01 X121.27 Y51.30
G01 X121.20 Y50.70
G01 X121.11 Y50.11
G01 X121.02 Y49.52
G01 X120.93 Y48.93
G01 X120.82 Y48.33
G01 X120.71 Y47.75
G01 X120.59 Y47.16
G01 X120.46 Y46.57
G01 X120.32 Y45.99
G01 X120.18 Y45.40
G01 X120.02 Y44.82
G01 X119.86 Y44.25
G01 X119.70 Y43.69
G01 X119.54 Y43.13
G01 X119.36 Y42.58
G01 X119.18 Y42.03
G01 X118.99 Y41.48
G01 X118.79 Y40.93
G01 X118.59 Y40.39
G01 X118.38 Y39.85
G01 X118.17 Y39.31
G01 X117.94 Y38.77
G01 X117.71 Y38.24
G01 X117.48 Y37.71
G01 X117.23 Y37.18
G01 X116.99 Y36.66
G01 X116.73 Y36.14
G01 X116.45 Y35.59
G01 X116.17 Y35.04
G01 X115.88 Y34.50
G01 X115.58 Y33.97
G01 X115.27 Y33.43
G01 X114.96 Y32.90
G01 X114.64 Y32.38
G01 X114.32 Y31.85
G01 X113.99 Y31.34
G01 X113.65 Y30.82
G01 X113.32 Y30.34
G01 X112.99 Y29.86
G01 X112.65 Y29.39
G01 X112.31 Y28.92
G01 X111.96 Y28.45
G01 X111.60 Y27.99
G01 X111.24 Y27.53
G01 X110.88 Y27.08
G01 X110.50 Y26.63
G01 X110.12 Y26.17
G01 X109.72 Y25.72
G01 X109.32 Y25.28
G01 X108.92 Y24.84
G01 X108.51 Y24.41
G01 X108.09 Y23.98
G01 X107.67 Y23.55
G01 X107.24 Y23.13
G01 X106.81 Y22.72
F30
G01 Z6.00
G00 Z0.00
M9 M5
G00 Z0

(* SHAPE Nr: 35 *)
G00 X80.43 Y16.51
M3 M8
G00 Z6
G00 Z6.00
G01 Z6.00
F20
G01 X80.43 Y16.49
G01 X80.39 Y16.45
G01 X80.35 Y16.42
G01 X80.16 Y16.26
G01 X79.97 Y16.11
G01 X79.62 Y15.84
G01 X79.27 Y15.58
G01 X78.91 Y15.32
G01 X78.52 Y15.03
G01 X78.06 Y14.68
G01 X77.61 Y14.31
G01 X77.17 Y13.94
G01 X76.76 Y13.58
G01 X76.35 Y13.21
G01 X75.96 Y12.83
G01 X75.70 Y12.57
G01 X75.45 Y12.31
G01 X75.20 Y12.04
G01 X75.00 Y11.80
G01 X74.81 Y11.55
G01 X74.72 Y11.41
G01 X74.63 Y11.26
G01 X74.60 Y11.18
G01 X74.54 Y11.04
G01 X74.51 Y10.99
G01 X74.49 Y10.93
G01 X74.45 Y10.88
G01 X74.42 Y10.84
G01 X74.38 Y10.80
G01 X74.33 Y10.76
G01 X74.28 Y10.73
G01 X74.23 Y10.71
G01 X74.17 Y10.69
G01 X74.12 Y10.67
G01 X74.03 Y10.66
G01 X73.94 Y10.64
G01 X73.85 Y10.64
G01 X73.70 Y10.63
G01 X73.56 Y10.63
G01 X73.41 Y10.64
G01 X73.17 Y10.66
G01 X72.92 Y10.67
G01 X72.68 Y10.70
G01 X72.07 Y10.76
G01 X71.46 Y10.84
G01 X70.44 Y10.97
G01 X69.43 Y11.10
G01 X69.12 Y11.14
G01 X68.72 Y11.20
G01 X68.33 Y11.26
G01 X67.93 Y11.33
G01 X67.71 Y11.37
G01 X67.49 Y11.42
G01 X67.27 Y11.47
G01 X67.15 Y11.50
G01 X67.02 Y11.55
G01 X66.99 Y11.56
G01 X66.96 Y11.59
G01 X66.95 Y11.59
G01 X66.95 Y11.60
G01 X66.95 Y11.63
G01 X66.95 Y11.65
G01 X66.97 Y11.70
G01 X66.99 Y11.75
G01 X67.01 Y11.79
G01 X67.06 Y11.87
G01 X67.11 Y11.94
G01 X67.16 Y12.01
G01 X67.26 Y12.14
G01 X67.36 Y12.26
G01 X67.47 Y12.38
G01 X67.65 Y12.56
G01 X67.83 Y12.75
G01 X68.02 Y12.92
G01 X68.32 Y13.20
G01 X68.63 Y13.47
G01 X68.94 Y13.73
G01 X69.33 Y14.06
G01 X69.73 Y14.38
G01 X70.13 Y14.70
G01 X70.54 Y15.02
G01 X71.06 Y15.42
G01 X71.60 Y15.81
G01 X72.13 Y16.20
G01 X72.67 Y16.58
G01 X73.22 Y16.96
G01 X73.77 Y17.33
G01 X74.15 Y17.59
G01 X75.67 Y18.59
G01 X78.05 Y17.60
G01 X78.59 Y17.37
G01 X79.13 Y17.14
G01 X79.61 Y16.92
G01 X80.09 Y16.70
G01 X80.24 Y16.62
G01 X80.39 Y16.55
G01 X80.41 Y16.53
G01 X80.43 Y16.51
F30
G01 Z6.00
G00 Z0.00
M9 M5
G00 Z0

(* SHAPE Nr: 36 *)
G00 X79.26 Y14.97
M3 M8
G00 Z6
G00 Z6.00
G01 Z6.00
F20
G01 X79.84 Y15.39
G01 X80.41 Y15.80
G01 X81.00 Y16.21
G01 X81.58 Y16.61
G01 X82.17 Y17.01
G01 X82.77 Y17.39
G01 X83.37 Y17.77
G01 X83.97 Y18.15
G01 X84.45 Y18.44
G01 X84.93 Y18.72
G01 X85.86 Y19.26
G01 X87.84 Y18.11
G01 X88.65 Y17.66
G01 X89.10 Y17.42
G01 X89.56 Y17.19
G01 X89.78 Y17.09
G01 X90.00 Y16.99
G01 X90.14 Y16.95
G01 X90.29 Y16.96
G01 X90.43 Y17.00
G01 X90.57 Y17.04
G01 X90.85 Y17.15
G01 X91.13 Y17.27
G01 X91.48 Y17.44
G01 X91.82 Y17.61
G01 X92.16 Y17.79
G01 X92.50 Y17.97
G01 X92.81 Y18.16
G01 X93.11 Y18.36
G01 X93.28 Y18.47
G01 X93.43 Y18.60
G01 X93.61 Y18.78
G01 X93.66 Y18.86
G01 X93.70 Y18.93
G01 X93.72 Y19.00
G01 X93.73 Y19.11
G01 X93.72 Y19.22
G01 X93.70 Y19.33
G01 X93.65 Y19.49
G01 X93.60 Y19.64
G01 X93.49 Y19.90
G01 X93.37 Y20.14
G01 X93.00 Y20.91
G01 X92.07 Y22.75
G01 X94.12 Y23.78
G01 X94.83 Y24.13
G01 X95.54 Y24.47
G01 X96.26 Y24.81
G01 X96.89 Y25.10
G01 X97.54 Y25.39
G01 X98.18 Y25.66
G01 X98.83 Y25.94
G01 X99.48 Y26.20
G01 X99.99 Y26.40
G01 X100.49 Y26.59
G01 X101.00 Y26.78
G01 X101.51 Y26.96
G01 X102.02 Y27.14
G01 X102.53 Y27.31
G01 X103.05 Y27.47
G01 X103.56 Y27.63
G01 X104.08 Y27.78
G01 X104.60 Y27.92
G01 X105.12 Y28.05
G01 X105.55 Y28.16
G01 X105.99 Y28.26
G01 X106.43 Y28.35
G01 X106.87 Y28.43
G01 X107.31 Y28.51
G01 X107.70 Y28.57
G01 X108.10 Y28.63
G01 X108.70 Y28.70
G01 X109.17 Y28.75
G01 X109.64 Y28.80
G01 X109.86 Y28.82
G01 X110.08 Y28.83
G01 X110.31 Y28.83
G01 X110.44 Y28.83
G01 X110.57 Y28.83
G01 X110.70 Y28.81
G01 X110.77 Y28.80
G01 X110.85 Y28.78
G01 X110.92 Y28.76
G01 X110.96 Y28.74
G01 X111.00 Y28.72
G01 X111.04 Y28.69
G01 X111.07 Y28.66
G01 X111.09 Y28.63
G01 X111.11 Y28.59
G01 X111.12 Y28.55
G01 X111.12 Y28.52
G01 X111.12 Y28.48
G01 X111.11 Y28.44
G01 X111.10 Y28.39
G01 X111.09 Y28.34
G01 X111.07 Y28.29
G01 X111.03 Y28.21
G01 X110.99 Y28.13
G01 X110.95 Y28.06
G01 X110.86 Y27.93
G01 X110.77 Y27.80
G01 X110.68 Y27.68
G01 X110.49 Y27.43
G01 X110.29 Y27.19
G01 X110.20 Y27.08
G01 X109.99 Y26.84
G01 X109.77 Y26.59
G01 X109.36 Y26.13
G01 X108.94 Y25.67
G01 X108.52 Y25.22
G01 X108.10 Y24.77
G01 X107.67 Y24.32
G01 X107.37 Y24.02
G01 X106.95 Y23.59
G01 X106.67 Y23.31
G01 X106.38 Y23.04
G01 X106.25 Y22.91
G01 X106.11 Y22.79
G01 X105.97 Y22.67
G01 X105.86 Y22.59
G01 X105.75 Y22.52
G01 X105.63 Y22.45
G01 X105.55 Y22.40
G01 X105.46 Y22.37
G01 X105.37 Y22.33
G01 X105.28 Y22.31
G01 X105.20 Y22.29
G01 X105.12 Y22.27
G01 X105.04 Y22.26
G01 X104.91 Y22.24
G01 X104.78 Y22.23
G01 X104.64 Y22.23
G01 X104.41 Y22.23
G01 X104.17 Y22.22
G01 X103.80 Y22.21
G01 X103.56 Y22.19
G01 X103.24 Y22.15
G01 X102.93 Y22.11
G01 X102.61 Y22.06
G01 X102.30 Y21.99
G01 X101.91 Y21.90
G01 X101.53 Y21.80
G01 X101.31 Y21.73
G01 X100.52 Y21.44
G01 X100.08 Y21.26
G01 X99.63 Y21.07
G01 X99.19 Y20.88
G01 X98.75 Y20.67
G01 X98.35 Y20.47
G01 X97.95 Y20.26
G01 X97.76 Y20.14
G01 X97.57 Y20.02
G01 X97.49 Y19.95
G01 X97.42 Y19.89
G01 X97.37 Y19.82
G01 X97.37 Y19.80
G01 X97.41 Y19.72
G01 X97.55 Y19.60
G01 X97.73 Y19.47
G01 X97.92 Y19.35
G01 X98.17 Y19.20
G01 X98.43 Y19.05
G01 X98.70 Y18.91
G01 X98.81 Y18.85
G01 X98.93 Y18.79
G01 X99.08 Y18.71
G01 X99.23 Y18.61
G01 X99.37 Y18.52
G01 X99.47 Y18.44
G01 X99.57 Y18.36
G01 X99.67 Y18.28
G01 X99.72 Y18.23
G01 X99.76 Y18.17
G01 X99.80 Y18.11
G01 X99.82 Y18.07
G01 X99.84 Y18.03
G01 X99.85 Y17.99
G01 X99.85 Y17.95
G01 X99.84 Y17.92
G01 X99.83 Y17.89
G01 X99.81 Y17.86
G01 X99.78 Y17.83
G01 X99.75 Y17.81
G01 X99.71 Y17.79
G01 X99.65 Y17.77
G01 X99.59 Y17.76
G01 X99.53 Y17.74
G01 X99.44 Y17.73
G01 X99.36 Y17.73
G01 X99.27 Y17.73
G01 X99.26 Y17.73
G01 X99.21 Y17.73
G01 X99.09 Y17.76
G01 X98.97 Y17.79
G01 X98.80 Y17.84
G01 X98.62 Y17.90
G01 X98.45 Y17.97
G01 X98.15 Y18.08
G01 X97.85 Y18.21
G01 X97.55 Y18.33
G01 X97.26 Y18.47
G01 X97.16 Y18.52
G01 X95.49 Y19.30
G01 X94.43 Y18.64
G01 X94.18 Y18.47
G01 X93.94 Y18.29
G01 X93.79 Y18.16
G01 X93.65 Y18.02
G01 X93.59 Y17.95
G01 X93.54 Y17.87
G01 X93.51 Y17.77
G01 X93.52 Y17.74
G01 X93.63 Y17.63
G01 X93.79 Y17.50
G01 X93.95 Y17.37
G01 X94.37 Y17.08
G01 X94.80 Y16.79
G01 X95.12 Y16.59
G01 X95.37 Y16.41
G01 X95.53 Y16.31
G01 X95.68 Y16.19
G01 X95.83 Y16.08
G01 X95.92 Y16.00
G01 X96.00 Y15.92
G01 X96.02 Y15.89
G01 X96.04 Y15.86
G01 X96.04 Y15.85
G01 X96.04 Y15.84
G01 X96.04 Y15.83
G01 X96.01 Y15.79
G01 X95.98 Y15.76
G01 X95.92 Y15.71
G01 X95.87 Y15.67
G01 X95.81 Y15.62
G01 X95.67 Y15.54
G01 X95.53 Y15.46
G01 X95.38 Y15.39
G01 X95.37 Y15.39
G01 X95.28 Y15.35
G01 X95.19 Y15.32
G01 X95.10 Y15.29
G01 X95.01 Y15.28
G01 X94.91 Y15.26
G01 X94.82 Y15.26
G01 X94.72 Y15.26
G01 X94.62 Y15.27
G01 X94.52 Y15.28
G01 X94.41 Y15.30
G01 X94.30 Y15.33
G01 X94.20 Y15.36
G01 X94.09 Y15.40
G01 X93.92 Y15.47
G01 X93.75 Y15.55
G01 X93.58 Y15.63
G01 X93.37 Y15.75
G01 X93.16 Y15.87
G01 X92.95 Y16.00
G01 X92.71 Y16.16
G01 X92.47 Y16.32
G01 X92.24 Y16.48
G01 X91.82 Y16.76
G01 X91.72 Y16.81
G01 X91.61 Y16.86
G01 X91.53 Y16.87
G01 X91.45 Y16.88
G01 X91.37 Y16.88
G01 X91.28 Y16.86
G01 X91.20 Y16.83
G01 X91.07 Y16.78
G01 X90.94 Y16.72
G01 X90.58 Y16.53
G01 X90.05 Y16.24
G01 X89.87 Y16.12
G01 X89.68 Y15.99
G01 X89.58 Y15.90
G01 X89.49 Y15.81
G01 X89.44 Y15.74
G01 X89.40 Y15.66
G01 X89.38 Y15.57
G01 X89.41 Y15.42
G01 X89.45 Y15.34
G01 X89.51 Y15.28
G01 X89.60 Y15.19
G01 X89.70 Y15.10
G01 X89.85 Y14.99
G01 X90.02 Y14.88
G01 X90.48 Y14.60
G01 X90.76 Y14.44
G01 X91.03 Y14.28
G01 X91.15 Y14.21
G01 X91.25 Y14.14
G01 X91.36 Y14.06
G01 X91.41 Y14.02
G01 X91.45 Y13.98
G01 X91.50 Y13.94
G01 X91.52 Y13.92
G01 X91.53 Y13.89
G01 X91.54 Y13.86
G01 X91.55 Y13.85
G01 X91.54 Y13.83
G01 X91.54 Y13.81
G01 X91.53 Y13.79
G01 X91.51 Y13.78
G01 X91.47 Y13.75
G01 X91.43 Y13.73
G01 X91.36 Y13.70
G01 X91.28 Y13.68
G01 X91.26 Y13.68
G01 X91.21 Y13.67
G01 X91.16 Y13.67
G01 X91.07 Y13.67
G01 X90.98 Y13.67
G01 X90.88 Y13.68
G01 X90.72 Y13.71
G01 X90.55 Y13.75
G01 X90.38 Y13.79
G01 X90.18 Y13.84
G01 X89.97 Y13.91
G01 X89.77 Y13.98
G01 X89.57 Y14.06
G01 X89.37 Y14.14
G01 X89.26 Y14.18
G01 X87.80 Y14.83
G01 X86.76 Y14.24
G01 X86.47 Y14.06
G01 X86.31 Y13.94
G01 X86.15 Y13.81
G01 X86.00 Y13.68
G01 X85.86 Y13.53
G01 X85.73 Y13.39
G01 X85.62 Y13.24
G01 X85.51 Y13.09
G01 X85.41 Y12.93
G01 X85.29 Y12.69
G01 X85.28 Y12.66
G01 X85.20 Y12.50
G01 X85.12 Y12.34
G01 X85.07 Y12.24
G01 X85.02 Y12.15
G01 X84.95 Y12.07
G01 X84.91 Y12.01
G01 X84.86 Y11.96
G01 X84.81 Y11.91
G01 X84.75 Y11.87
G01 X84.70 Y11.83
G01 X84.64 Y11.80
G01 X84.59 Y11.77
G01 X84.49 Y11.73
G01 X84.38 Y11.68
G01 X84.28 Y11.65
G01 X84.12 Y11.61
G01 X83.97 Y11.57
G01 X83.82 Y11.54
G01 X83.50 Y11.47
G01 X83.18 Y11.41
G01 X83.02 Y11.38
G01 X82.68 Y11.33
G01 X82.34 Y11.27
G01 X81.59 Y11.17
G01 X80.83 Y11.07
G01 X80.08 Y10.97
G01 X79.33 Y10.89
G01 X78.91 Y10.85
G01 X78.29 Y10.79
G01 X77.66 Y10.73
G01 X77.03 Y10.68
G01 X76.39 Y10.63
G01 X76.15 Y10.62
G01 X75.90 Y10.61
G01 X75.65 Y10.61
G01 X75.52 Y10.61
G01 X75.39 Y10.61
G01 X75.26 Y10.62
G01 X75.19 Y10.63
G01 X75.12 Y10.65
G01 X75.05 Y10.67
G01 X75.01 Y10.68
G01 X74.97 Y10.70
G01 X74.94 Y10.73
G01 X74.92 Y10.74
G01 X74.90 Y10.77
G01 X74.89 Y10.79
G01 X74.88 Y10.81
G01 X74.88 Y10.84
G01 X74.88 Y10.86
G01 X74.88 Y10.88
G01 X74.88 Y10.91
G01 X74.90 Y10.97
G01 X74.92 Y11.03
G01 X74.96 Y11.12
G01 X75.01 Y11.21
G01 X75.07 Y11.30
G01 X75.14 Y11.39
G01 X75.21 Y11.47
G01 X75.34 Y11.63
G01 X75.48 Y11.79
G01 X75.63 Y11.94
G01 X75.86 Y12.17
G01 X76.09 Y12.40
G01 X76.33 Y12.62
G01 X76.62 Y12.87
G01 X76.91 Y13.12
G01 X77.21 Y13.37
G01 X77.51 Y13.62
G01 X77.94 Y13.96
G01 X78.38 Y14.30
G01 X78.82 Y14.64
G01 X79.26 Y14.97
F30
G01 Z6.00
G00 Z0.00
M9 M5
G00 Z0

(* SHAPE Nr: 37 *)
G00 X94.54 Y19.64
M3 M8
G00 Z6
G00 Z6.00
G01 Z6.00
F20
G01 X94.52 Y19.70
G01 X94.51 Y19.76
G01 X94.50 Y19.82
G01 X94.49 Y19.94
G01 X94.48 Y20.05
G01 X94.49 Y20.17
G01 X94.50 Y20.29
G01 X94.51 Y20.41
G01 X94.52 Y20.46
G01 X94.53 Y20.50
G01 X94.53 Y20.51
G01 X94.54 Y20.52
G01 X94.55 Y20.53
G01 X94.55 Y20.52
G01 X94.56 Y20.52
G01 X94.57 Y20.51
G01 X94.58 Y20.49
G01 X94.60 Y20.43
G01 X94.62 Y20.37
G01 X94.63 Y20.33
G01 X94.67 Y20.24
G01 X94.70 Y20.20
G01 X94.74 Y20.17
G01 X94.78 Y20.16
G01 X94.85 Y20.14
G01 X94.92 Y20.14
G01 X95.04 Y20.16
G01 X95.15 Y20.18
G01 X95.35 Y20.25
G01 X95.55 Y20.32
G01 X95.93 Y20.48
G01 X96.30 Y20.64
G01 X97.45 Y21.18
G01 X97.83 Y21.36
G01 X98.21 Y21.53
G01 X98.60 Y21.70
G01 X98.98 Y21.86
G01 X99.36 Y22.01
G01 X99.74 Y22.15
G01 X100.11 Y22.28
G01 X100.50 Y22.40
G01 X100.88 Y22.52
G01 X101.20 Y22.61
G01 X101.51 Y22.70
G01 X101.83 Y22.78
G01 X102.16 Y22.85
G01 X102.34 Y22.89
G01 X102.53 Y22.92
G01 X104.91 Y23.38
G01 X106.18 Y24.99
G01 X106.43 Y25.30
G01 X106.66 Y25.62
G01 X106.83 Y25.85
G01 X106.98 Y26.09
G01 X107.06 Y26.23
G01 X107.12 Y26.37
G01 X107.15 Y26.44
G01 X107.17 Y26.52
G01 X107.17 Y26.56
G01 X107.17 Y26.60
G01 X107.15 Y26.64
G01 X107.12 Y26.66
G01 X106.93 Y26.66
G01 X106.70 Y26.62
G01 X106.46 Y26.58
G01 X105.89 Y26.45
G01 X105.32 Y26.31
G01 X104.38 Y26.06
G01 X103.44 Y25.80
G01 X102.64 Y25.56
G01 X102.08 Y25.39
G01 X101.54 Y25.20
G01 X100.99 Y25.01
G01 X100.45 Y24.81
G01 X99.91 Y24.60
G01 X99.37 Y24.38
G01 X98.84 Y24.16
G01 X98.31 Y23.92
G01 X97.78 Y23.68
G01 X97.26 Y23.43
G01 X96.74 Y23.16
G01 X96.40 Y22.98
G01 X96.06 Y22.79
G01 X95.72 Y22.59
G01 X95.41 Y22.39
G01 X95.11 Y22.17
G01 X94.92 Y22.02
G01 X94.73 Y21.86
G01 X94.63 Y21.75
G01 X94.53 Y21.63
G01 X94.49 Y21.56
G01 X94.45 Y21.49
G01 X94.43 Y21.43
G01 X94.24 Y20.77
G01 X94.22 Y21.43
G01 X94.22 Y21.45
G01 X94.22 Y21.47
G01 X94.22 Y21.54
G01 X94.23 Y21.61
G01 X94.23 Y21.67
G01 X94.25 Y21.75
G01 X94.27 Y21.83
G01 X94.30 Y21.90
G01 X94.34 Y21.97
G01 X94.38 Y22.04
G01 X94.43 Y22.11
G01 X94.49 Y22.17
G01 X94.55 Y22.23
G01 X94.61 Y22.29
G01 X94.71 Y22.37
G01 X94.81 Y22.44
G01 X94.91 Y22.51
G01 X95.05 Y22.60
G01 X95.39 Y22.79
G01 X95.74 Y22.98
G01 X96.08 Y23.17
G01 X96.52 Y23.40
G01 X96.96 Y23.63
G01 X97.41 Y23.84
G01 X97.85 Y24.06
G01 X98.31 Y24.26
G01 X98.76 Y24.46
G01 X99.22 Y24.65
G01 X99.68 Y24.84
G01 X100.15 Y25.02
G01 X100.63 Y25.20
G01 X101.10 Y25.37
G01 X101.58 Y25.54
G01 X102.06 Y25.70
G01 X102.54 Y25.85
G01 X103.02 Y26.00
G01 X103.49 Y26.13
G01 X103.95 Y26.26
G01 X104.42 Y26.39
G01 X104.89 Y26.50
G01 X105.35 Y26.62
G01 X105.82 Y26.73
G01 X106.35 Y26.84
G01 X106.87 Y26.95
G01 X107.39 Y27.05
G01 X107.68 Y27.11
G01 X107.97 Y27.15
G01 X108.04 Y27.16
G01 X108.11 Y27.17
G01 X108.13 Y27.16
G01 X108.12 Y27.13
G01 X108.10 Y27.10
G01 X108.01 Y26.96
G01 X107.92 Y26.82
G01 X107.61 Y26.40
G01 X107.29 Y25.99
G01 X106.89 Y25.48
G01 X106.49 Y24.97
G01 X106.17 Y24.57
G01 X105.85 Y24.17
G01 X105.70 Y23.98
G01 X105.54 Y23.79
G01 X105.38 Y23.61
G01 X105.27 Y23.50
G01 X105.16 Y23.39
G01 X105.05 Y23.28
G01 X104.96 Y23.20
G01 X104.86 Y23.12
G01 X104.76 Y23.05
G01 X104.70 Y23.01
G01 X104.64 Y22.98
G01 X104.57 Y22.95
G01 X104.50 Y22.92
G01 X104.42 Y22.89
G01 X104.34 Y22.87
G01 X104.23 Y22.85
G01 X104.11 Y22.83
G01 X103.99 Y22.82
G01 X103.80 Y22.81
G01 X103.61 Y22.80
G01 X103.57 Y22.79
G01 X103.35 Y22.78
G01 X103.09 Y22.75
G01 X102.83 Y22.71
G01 X102.58 Y22.67
G01 X102.19 Y22.59
G01 X101.80 Y22.49
G01 X101.42 Y22.39
G01 X100.89 Y22.24
G01 X100.37 Y22.07
G01 X99.85 Y21.90
G01 X99.39 Y21.73
G01 X98.93 Y21.55
G01 X98.48 Y21.37
G01 X98.03 Y21.18
G01 X97.58 Y20.98
G01 X97.13 Y20.78
G01 X96.57 Y20.50
G01 X96.11 Y20.27
G01 X95.65 Y20.05
G01 X95.18 Y19.83
G01 X94.95 Y19.72
G01 X94.71 Y19.62
G01 X94.66 Y19.60
G01 X94.60 Y19.58
G01 X94.58 Y19.58
G01 X94.57 Y19.59
G01 X94.56 Y19.60
G01 X94.55 Y19.62
G01 X94.54 Y19.64
F30
G01 Z6.00
G00 Z0.00
M9 M5
G00 Z0

(* SHAPE Nr: 38 *)
G00 X84.50 Y24.61
M3 M8
G00 Z6
G00 Z6.00
G01 Z6.00
F20
G01 X84.49 Y24.60
G01 X84.48 Y24.59
G01 X84.42 Y24.55
G01 X84.37 Y24.51
G01 X84.09 Y24.33
G01 X83.81 Y24.15
G01 X82.86 Y23.55
G01 X81.91 Y22.96
G01 X80.31 Y21.97
G01 X78.71 Y20.99
G01 X77.10 Y20.01
G01 X76.97 Y19.94
G01 X75.50 Y19.04
G01 X72.57 Y20.63
G01 X71.96 Y20.95
G01 X71.36 Y21.27
G01 X70.75 Y21.57
G01 X70.26 Y21.79
G01 X69.77 Y22.01
G01 X69.54 Y22.10
G01 X69.32 Y22.18
G01 X69.14 Y22.22
G01 X69.04 Y22.21
G01 X68.89 Y22.15
G01 X68.65 Y22.02
G01 X68.41 Y21.86
G01 X68.18 Y21.69
G01 X67.77 Y21.38
G01 X67.37 Y21.06
G01 X66.72 Y20.52
G01 X66.08 Y19.96
G01 X65.58 Y19.51
G01 X65.09 Y19.05
G01 X64.61 Y18.59
G01 X64.20 Y18.18
G01 X63.81 Y17.77
G01 X63.62 Y17.55
G01 X63.44 Y17.33
G01 X63.36 Y17.21
G01 X63.28 Y17.09
G01 X63.24 Y16.98
G01 X63.24 Y16.90
G01 X63.26 Y16.85
G01 X63.28 Y16.80
G01 X63.34 Y16.72
G01 X63.41 Y16.65
G01 X63.53 Y16.55
G01 X63.66 Y16.45
G01 X63.87 Y16.32
G01 X64.10 Y16.19
G01 X64.47 Y16.00
G01 X64.85 Y15.81
G01 X65.88 Y15.36
G01 X68.52 Y14.23
G01 X67.60 Y13.15
G01 X67.29 Y12.78
G01 X67.08 Y12.51
G01 X66.88 Y12.24
G01 X66.80 Y12.10
G01 X66.72 Y11.97
G01 X66.68 Y11.87
G01 X66.67 Y11.83
G01 X66.67 Y11.81
G01 X66.66 Y11.78
G01 X66.64 Y11.76
G01 X66.62 Y11.74
G01 X66.60 Y11.72
G01 X66.57 Y11.71
G01 X66.54 Y11.70
G01 X66.49 Y11.68
G01 X66.44 Y11.67
G01 X66.38 Y11.67
G01 X66.28 Y11.67
G01 X66.18 Y11.68
G01 X66.09 Y11.68
G01 X65.91 Y11.71
G01 X65.73 Y11.74
G01 X65.56 Y11.77
G01 X65.26 Y11.83
G01 X64.95 Y11.90
G01 X64.65 Y11.97
G01 X64.01 Y12.13
G01 X63.37 Y12.29
G01 X63.10 Y12.36
G01 X62.83 Y12.44
G01 X62.40 Y12.56
G01 X61.98 Y12.69
G01 X61.55 Y12.82
G01 X61.13 Y12.96
G01 X60.57 Y13.14
G01 X60.02 Y13.33
G01 X59.47 Y13.53
G01 X58.92 Y13.74
G01 X58.38 Y13.95
G01 X57.83 Y14.17
G01 X57.29 Y14.39
G01 X56.75 Y14.63
G01 X56.22 Y14.86
G01 X55.77 Y15.07
G01 X55.33 Y15.28
G01 X54.89 Y15.49
G01 X54.45 Y15.72
G01 X54.01 Y15.94
G01 X53.61 Y16.16
G01 X53.21 Y16.38
G01 X52.82 Y16.61
G01 X52.43 Y16.84
G01 X52.16 Y17.01
G01 X51.89 Y17.19
G01 X51.63 Y17.37
G01 X51.37 Y17.55
G01 X51.20 Y17.68
G01 X51.04 Y17.81
G01 X50.88 Y17.94
G01 X50.73 Y18.08
G01 X50.63 Y18.17
G01 X50.54 Y18.26
G01 X50.40 Y18.40
G01 X50.22 Y18.59
G01 X50.05 Y18.78
G01 X49.88 Y18.97
G01 X49.54 Y19.37
G01 X49.21 Y19.77
G01 X48.88 Y20.17
G01 X48.32 Y20.87
G01 X47.77 Y21.56
G01 X47.23 Y22.27
G01 X46.59 Y23.10
G01 X45.96 Y23.93
G01 X45.33 Y24.77
G01 X44.71 Y25.61
G01 X44.10 Y26.46
G01 X43.57 Y27.19
G01 X43.06 Y27.92
G01 X42.54 Y28.65
G01 X42.03 Y29.38
G01 X41.71 Y29.85
G01 X41.39 Y30.32
G01 X41.33 Y30.42
G01 X41.16 Y30.68
G01 X40.99 Y30.94
G01 X40.63 Y31.51
G01 X40.27 Y32.09
G01 X39.92 Y32.67
G01 X39.52 Y33.36
G01 X39.13 Y34.05
G01 X38.74 Y34.74
G01 X38.36 Y35.43
G01 X37.98 Y36.12
G01 X37.62 Y36.81
G01 X37.25 Y37.51
G01 X36.90 Y38.21
G01 X36.61 Y38.77
G01 X36.34 Y39.34
G01 X36.07 Y39.92
G01 X35.93 Y40.23
G01 X35.80 Y40.54
G01 X35.67 Y40.85
G01 X35.61 Y41.01
G01 X35.56 Y41.16
G01 X35.51 Y41.32
G01 X35.49 Y41.39
G01 X35.47 Y41.47
G01 X35.46 Y41.54
G01 X35.45 Y41.59
G01 X35.46 Y41.62
G01 X35.46 Y41.65
G01 X35.47 Y41.70
G01 X35.49 Y41.75
G01 X35.51 Y41.80
G01 X35.55 Y41.89
G01 X35.59 Y41.97
G01 X35.64 Y42.05
G01 X35.73 Y42.18
G01 X35.83 Y42.31
G01 X35.93 Y42.43
G01 X36.08 Y42.61
G01 X36.24 Y42.78
G01 X36.41 Y42.95
G01 X36.67 Y43.21
G01 X36.93 Y43.45
G01 X37.20 Y43.70
G01 X37.49 Y43.95
G01 X37.79 Y44.21
G01 X38.10 Y44.46
G01 X38.41 Y44.70
G01 X38.72 Y44.94
G01 X39.03 Y45.18
G01 X39.30 Y45.37
G01 X39.57 Y45.56
G01 X39.84 Y45.75
G01 X40.11 Y45.93
G01 X40.37 Y46.09
G01 X40.63 Y46.25
G01 X40.90 Y46.40
G01 X41.05 Y46.48
G01 X41.22 Y46.56
G01 X41.38 Y46.63
G01 X41.47 Y46.66
G01 X41.57 Y46.69
G01 X41.66 Y46.72
G01 X41.72 Y46.73
G01 X41.77 Y46.73
G01 X41.83 Y46.73
G01 X41.86 Y46.73
G01 X41.89 Y46.72
G01 X41.92 Y46.71
G01 X41.95 Y46.69
G01 X41.97 Y46.68
G01 X41.98 Y46.65
G01 X42.00 Y46.63
G01 X42.11 Y46.36
G01 X42.20 Y46.19
G01 X42.38 Y45.89
G01 X42.57 Y45.58
G01 X42.93 Y45.06
G01 X43.30 Y44.54
G01 X43.72 Y43.97
G01 X44.15 Y43.41
G01 X44.60 Y42.86
G01 X45.05 Y42.32
G01 X45.51 Y41.78
G01 X45.99 Y41.26
G01 X46.42 Y40.79
G01 X46.82 Y40.39
G01 X47.22 Y39.99
G01 X47.63 Y39.61
G01 X48.05 Y39.23
G01 X48.47 Y38.86
G01 X48.83 Y38.56
G01 X49.20 Y38.26
G01 X49.57 Y37.97
G01 X49.95 Y37.69
G01 X50.33 Y37.41
G01 X50.72 Y37.14
G01 X51.11 Y36.88
G01 X51.51 Y36.63
G01 X51.91 Y36.38
G01 X52.31 Y36.14
G01 X52.72 Y35.91
G01 X53.14 Y35.68
G01 X53.61 Y35.43
G01 X54.09 Y35.19
G01 X54.57 Y34.97
G01 X55.06 Y34.75
G01 X55.55 Y34.54
G01 X56.04 Y34.34
G01 X56.54 Y34.14
G01 X57.07 Y33.95
G01 X57.60 Y33.77
G01 X58.14 Y33.60
G01 X58.68 Y33.43
G01 X59.22 Y33.28
G01 X59.89 Y33.11
G01 X60.22 Y33.04
G01 X60.56 Y32.98
G01 X60.89 Y32.92
G01 X61.23 Y32.88
G01 X61.62 Y32.84
G01 X62.01 Y32.81
G01 X62.40 Y32.78
G01 X63.12 Y32.75
G01 X63.85 Y32.73
G01 X65.62 Y32.71
G01 X67.27 Y32.72
G01 X67.85 Y32.74
G01 X68.43 Y32.76
G01 X69.02 Y32.79
G01 X69.55 Y32.83
G01 X70.07 Y32.88
G01 X70.60 Y32.94
G01 X71.00 Y33.00
G01 X71.39 Y33.07
G01 X71.79 Y33.15
G01 X72.18 Y33.24
G01 X72.66 Y33.36
G01 X73.14 Y33.50
G01 X73.60 Y33.64
G01 X74.05 Y33.80
G01 X74.51 Y33.96
G01 X75.15 Y34.20
G01 X75.79 Y34.45
G01 X76.10 Y34.57
G01 X76.49 Y34.73
G01 X76.89 Y34.88
G01 X77.05 Y34.94
G01 X77.22 Y34.99
G01 X77.39 Y35.04
G01 X77.48 Y35.07
G01 X77.57 Y35.09
G01 X77.67 Y35.10
G01 X77.73 Y35.11
G01 X77.79 Y35.10
G01 X77.85 Y35.10
G01 X77.89 Y35.09
G01 X77.93 Y35.07
G01 X77.96 Y35.05
G01 X78.00 Y35.03
G01 X78.04 Y34.99
G01 X78.08 Y34.94
G01 X78.12 Y34.88
G01 X78.17 Y34.81
G01 X78.71 Y33.97
G01 X81.52 Y29.66
G01 X81.95 Y29.01
G01 X82.31 Y28.45
G01 X82.67 Y27.88
G01 X83.02 Y27.32
G01 X83.37 Y26.75
G01 X83.71 Y26.18
G01 X83.89 Y25.87
G01 X84.06 Y25.56
G01 X84.23 Y25.24
G01 X84.31 Y25.11
G01 X84.37 Y24.97
G01 X84.44 Y24.82
G01 X84.47 Y24.75
G01 X84.49 Y24.67
G01 X84.50 Y24.64
G01 X84.50 Y24.61
F30
G01 Z6.00
G00 Z0.00
M9 M5
G00 Z0

(* SHAPE Nr: 39 *)
G00 X58.20 Y15.19
M3 M8
G00 Z6
G00 Z6.00
G01 Z6.00
F20
G01 X58.20 Y15.17
G01 X58.20 Y15.16
G01 X58.19 Y15.14
G01 X58.18 Y15.13
G01 X58.16 Y15.12
G01 X58.14 Y15.11
G01 X58.12 Y15.10
G01 X58.05 Y15.09
G01 X57.98 Y15.08
G01 X57.96 Y15.08
G01 X57.93 Y15.08
G01 X57.91 Y15.09
G01 X57.86 Y15.10
G01 X57.80 Y15.12
G01 X57.75 Y15.15
G01 X57.71 Y15.18
G01 X57.66 Y15.21
G01 X57.62 Y15.25
G01 X57.58 Y15.30
G01 X57.55 Y15.34
G01 X57.53 Y15.38
G01 X57.52 Y15.41
G01 X57.52 Y15.43
G01 X57.52 Y15.44
G01 X57.52 Y15.45
G01 X57.53 Y15.47
G01 X57.54 Y15.48
G01 X57.55 Y15.49
G01 X57.58 Y15.49
G01 X57.62 Y15.49
G01 X57.65 Y15.49
G01 X57.72 Y15.47
G01 X57.80 Y15.45
G01 X57.88 Y15.41
G01 X57.96 Y15.38
G01 X58.03 Y15.34
G01 X58.08 Y15.31
G01 X58.12 Y15.28
G01 X58.16 Y15.25
G01 X58.17 Y15.23
G01 X58.19 Y15.21
G01 X58.20 Y15.19
F30
G01 Z6.00
G00 Z0.00
M9 M5
G00 Z0

(* SHAPE Nr: 40 *)
G00 X68.44 Y24.58
M3 M8
G00 Z6
G00 Z6.00
G01 Z6.00
F20
G01 X68.39 Y24.64
G01 X68.35 Y24.70
G01 X68.30 Y24.76
G01 X68.29 Y24.79
G01 X68.28 Y24.83
G01 X68.27 Y24.86
G01 X68.26 Y24.89
G01 X68.26 Y24.90
G01 X68.27 Y24.91
G01 X68.28 Y24.93
G01 X68.29 Y24.94
G01 X68.31 Y24.94
G01 X68.34 Y24.94
G01 X68.37 Y24.93
G01 X68.42 Y24.90
G01 X68.47 Y24.88
G01 X68.52 Y24.84
G01 X68.60 Y24.78
G01 X68.68 Y24.71
G01 X68.76 Y24.64
G01 X68.79 Y24.61
G01 X68.97 Y24.44
G01 X69.12 Y24.32
G01 X69.28 Y24.22
G01 X69.38 Y24.15
G01 X69.49 Y24.10
G01 X69.58 Y24.08
G01 X69.75 Y24.09
G01 X69.87 Y24.11
G01 X69.99 Y24.15
G01 X70.11 Y24.19
G01 X70.23 Y24.25
G01 X70.35 Y24.33
G01 X70.46 Y24.41
G01 X70.56 Y24.49
G01 X70.66 Y24.59
G01 X70.73 Y24.68
G01 X70.79 Y24.77
G01 X70.84 Y24.86
G01 X70.88 Y24.96
G01 X70.90 Y25.06
G01 X70.91 Y25.14
G01 X70.89 Y25.29
G01 X70.87 Y25.38
G01 X70.83 Y25.47
G01 X70.79 Y25.55
G01 X70.74 Y25.62
G01 X70.68 Y25.69
G01 X70.61 Y25.76
G01 X70.50 Y25.85
G01 X70.39 Y25.93
G01 X70.26 Y25.99
G01 X70.15 Y26.04
G01 X70.03 Y26.08
G01 X69.92 Y26.12
G01 X69.80 Y26.14
G01 X69.68 Y26.16
G01 X69.56 Y26.17
G01 X69.43 Y26.17
G01 X69.30 Y26.16
G01 X69.16 Y26.14
G01 X69.02 Y26.10
G01 X68.93 Y26.07
G01 X68.83 Y26.02
G01 X68.75 Y25.96
G01 X68.68 Y25.90
G01 X68.62 Y25.83
G01 X68.57 Y25.76
G01 X68.49 Y25.64
G01 X68.43 Y25.56
G01 X68.39 Y25.52
G01 X68.35 Y25.48
G01 X68.33 Y25.47
G01 X68.32 Y25.47
G01 X68.30 Y25.47
G01 X68.29 Y25.48
G01 X68.28 Y25.49
G01 X68.28 Y25.51
G01 X68.27 Y25.52
G01 X68.27 Y25.55
G01 X68.27 Y25.60
G01 X68.28 Y25.66
G01 X68.29 Y25.72
G01 X68.31 Y25.79
G01 X68.34 Y25.85
G01 X68.39 Y25.92
G01 X68.44 Y25.98
G01 X68.49 Y26.05
G01 X68.55 Y26.10
G01 X68.62 Y26.16
G01 X68.70 Y26.21
G01 X68.78 Y26.26
G01 X68.86 Y26.30
G01 X68.94 Y26.34
G01 X69.05 Y26.37
G01 X69.16 Y26.40
G01 X69.26 Y26.43
G01 X69.37 Y26.44
G01 X69.49 Y26.45
G01 X69.60 Y26.46
G01 X69.69 Y26.45
G01 X69.79 Y26.44
G01 X69.89 Y26.42
G01 X69.98 Y26.40
G01 X70.07 Y26.37
G01 X70.16 Y26.34
G01 X70.25 Y26.30
G01 X70.35 Y26.24
G01 X70.46 Y26.18
G01 X70.56 Y26.11
G01 X70.65 Y26.03
G01 X70.74 Y25.95
G01 X70.83 Y25.86
G01 X70.90 Y25.77
G01 X70.96 Y25.68
G01 X71.02 Y25.59
G01 X71.07 Y25.50
G01 X71.11 Y25.40
G01 X71.14 Y25.32
G01 X71.16 Y25.24
G01 X71.17 Y25.16
G01 X71.17 Y25.11
G01 X71.17 Y25.06
G01 X71.17 Y25.03
G01 X71.17 Y25.00
G01 X71.15 Y24.93
G01 X71.12 Y24.87
G01 X71.09 Y24.81
G01 X71.04 Y24.71
G01 X70.97 Y24.62
G01 X70.90 Y24.54
G01 X70.80 Y24.43
G01 X70.70 Y24.33
G01 X70.59 Y24.24
G01 X70.47 Y24.15
G01 X70.35 Y24.06
G01 X70.23 Y23.99
G01 X70.13 Y23.93
G01 X70.03 Y23.89
G01 X69.93 Y23.85
G01 X69.88 Y23.83
G01 X69.82 Y23.82
G01 X69.77 Y23.82
G01 X69.72 Y23.81
G01 X69.69 Y23.82
G01 X69.63 Y23.83
G01 X69.57 Y23.84
G01 X69.51 Y23.86
G01 X69.40 Y23.91
G01 X69.29 Y23.96
G01 X69.18 Y24.02
G01 X69.04 Y24.10
G01 X68.91 Y24.18
G01 X68.85 Y24.22
G01 X68.81 Y24.25
G01 X68.72 Y24.33
G01 X68.62 Y24.41
G01 X68.53 Y24.49
G01 X68.44 Y24.58
F30
G01 Z6.00
G00 Z0.00
M9 M5
G00 Z0

(* SHAPE Nr: 41 *)
G00 X46.21 Y32.41
M3 M8
G00 Z6
G00 Z6.00
G01 Z6.00
F20
G01 X46.18 Y32.34
G01 X46.15 Y32.28
G01 X46.11 Y32.22
G01 X46.07 Y32.16
G01 X46.03 Y32.11
G01 X45.98 Y32.07
G01 X45.93 Y32.01
G01 X45.87 Y31.97
G01 X45.80 Y31.92
G01 X45.72 Y31.88
G01 X45.63 Y31.84
G01 X45.55 Y31.81
G01 X45.46 Y31.79
G01 X45.36 Y31.78
G01 X45.27 Y31.77
G01 X45.17 Y31.76
G01 X45.07 Y31.77
G01 X44.97 Y31.78
G01 X44.87 Y31.79
G01 X44.78 Y31.82
G01 X44.69 Y31.85
G01 X44.60 Y31.88
G01 X44.52 Y31.92
G01 X44.43 Y31.96
G01 X44.35 Y32.01
G01 X44.28 Y32.07
G01 X44.21 Y32.12
G01 X44.15 Y32.17
G01 X44.09 Y32.23
G01 X44.02 Y32.32
G01 X43.95 Y32.41
G01 X43.89 Y32.50
G01 X43.83 Y32.60
G01 X43.79 Y32.68
G01 X43.75 Y32.78
G01 X43.71 Y32.87
G01 X43.68 Y32.96
G01 X43.66 Y33.06
G01 X43.65 Y33.14
G01 X43.64 Y33.23
G01 X43.64 Y33.31
G01 X43.64 Y33.35
G01 X43.64 Y33.45
G01 X43.66 Y33.55
G01 X43.68 Y33.65
G01 X43.71 Y33.75
G01 X43.74 Y33.84
G01 X43.78 Y33.93
G01 X43.83 Y34.01
G01 X43.88 Y34.09
G01 X43.93 Y34.15
G01 X43.99 Y34.22
G01 X44.06 Y34.28
G01 X44.12 Y34.34
G01 X44.20 Y34.39
G01 X44.27 Y34.43
G01 X44.35 Y34.47
G01 X44.43 Y34.50
G01 X44.52 Y34.53
G01 X44.60 Y34.55
G01 X44.69 Y34.56
G01 X44.78 Y34.56
G01 X44.88 Y34.56
G01 X44.98 Y34.55
G01 X45.08 Y34.54
G01 X45.17 Y34.51
G01 X45.27 Y34.48
G01 X45.36 Y34.44
G01 X45.45 Y34.40
G01 X45.54 Y34.35
G01 X45.63 Y34.29
G01 X45.70 Y34.25
G01 X45.77 Y34.19
G01 X45.83 Y34.13
G01 X45.90 Y34.05
G01 X45.97 Y33.97
G01 X46.03 Y33.89
G01 X46.09 Y33.79
G01 X46.14 Y33.70
G01 X46.18 Y33.60
G01 X46.22 Y33.50
G01 X46.25 Y33.40
G01 X46.28 Y33.29
G01 X46.30 Y33.19
G01 X46.31 Y33.08
G01 X46.31 Y32.97
G01 X46.31 Y32.86
G01 X46.30 Y32.77
G01 X46.29 Y32.68
G01 X46.27 Y32.59
G01 X46.24 Y32.50
G01 X46.21 Y32.41
F30
G01 Z6.00
G00 Z0.00
M9 M5
G00 Z0

(* SHAPE Nr: 42 *)
G00 X45.89 Y32.39
M3 M8
G00 Z6
G00 Z6.00
G01 Z6.00
F20
G01 X45.86 Y32.35
G01 X45.82 Y32.31
G01 X45.78 Y32.27
G01 X45.74 Y32.24
G01 X45.69 Y32.21
G01 X45.65 Y32.19
G01 X45.62 Y32.18
G01 X45.57 Y32.16
G01 X45.43 Y32.11
G01 X45.29 Y32.07
G01 X45.22 Y32.05
G01 X45.13 Y32.04
G01 X45.05 Y32.03
G01 X44.99 Y32.03
G01 X44.93 Y32.04
G01 X44.87 Y32.05
G01 X44.81 Y32.08
G01 X44.74 Y32.10
G01 X44.67 Y32.15
G01 X44.60 Y32.19
G01 X44.54 Y32.25
G01 X44.43 Y32.34
G01 X44.32 Y32.44
G01 X44.27 Y32.50
G01 X44.22 Y32.56
G01 X44.17 Y32.63
G01 X44.13 Y32.70
G01 X44.09 Y32.77
G01 X44.06 Y32.85
G01 X44.03 Y32.93
G01 X44.01 Y33.01
G01 X43.99 Y33.10
G01 X43.98 Y33.20
G01 X43.98 Y33.29
G01 X43.99 Y33.39
G01 X44.00 Y33.48
G01 X44.02 Y33.58
G01 X44.05 Y33.67
G01 X44.09 Y33.76
G01 X44.13 Y33.83
G01 X44.17 Y33.91
G01 X44.22 Y33.97
G01 X44.28 Y34.04
G01 X44.34 Y34.10
G01 X44.40 Y34.15
G01 X44.45 Y34.19
G01 X44.50 Y34.23
G01 X44.56 Y34.26
G01 X44.62 Y34.29
G01 X44.68 Y34.31
G01 X44.74 Y34.33
G01 X44.79 Y34.35
G01 X44.84 Y34.35
G01 X44.89 Y34.35
G01 X44.93 Y34.35
G01 X44.98 Y34.34
G01 X45.02 Y34.33
G01 X45.06 Y34.31
G01 X45.13 Y34.28
G01 X45.20 Y34.24
G01 X45.27 Y34.20
G01 X45.38 Y34.11
G01 X45.49 Y34.01
G01 X45.54 Y33.96
G01 X45.59 Y33.91
G01 X45.66 Y33.83
G01 X45.73 Y33.75
G01 X45.79 Y33.66
G01 X45.84 Y33.57
G01 X45.88 Y33.48
G01 X45.92 Y33.38
G01 X45.96 Y33.29
G01 X45.98 Y33.19
G01 X46.00 Y33.09
G01 X46.02 Y33.01
G01 X46.02 Y32.92
G01 X46.02 Y32.84
G01 X46.02 Y32.76
G01 X46.00 Y32.68
G01 X45.99 Y32.60
G01 X45.96 Y32.53
G01 X45.93 Y32.46
G01 X45.89 Y32.39
F30
G01 Z6.00
G00 Z0.00
M9 M5
G00 Z0

(* SHAPE Nr: 43 *)
G00 X85.58 Y12.68
M3 M8
G00 Z6
G00 Z6.00
G01 Z6.00
F20
G01 X85.63 Y12.78
G01 X85.68 Y12.88
G01 X85.74 Y12.97
G01 X85.80 Y13.06
G01 X85.90 Y13.18
G01 X85.99 Y13.30
G01 X86.09 Y13.41
G01 X86.19 Y13.52
G01 X86.30 Y13.62
G01 X86.43 Y13.74
G01 X86.56 Y13.84
G01 X86.70 Y13.94
G01 X86.85 Y14.04
G01 X86.94 Y14.10
G01 X87.04 Y14.15
G01 X87.16 Y14.21
G01 X87.28 Y14.27
G01 X87.36 Y14.30
G01 X87.45 Y14.34
G01 X87.54 Y14.36
G01 X87.61 Y14.38
G01 X87.68 Y14.39
G01 X87.75 Y14.40
G01 X87.82 Y14.40
G01 X87.89 Y14.39
G01 X87.98 Y14.38
G01 X88.06 Y14.36
G01 X88.15 Y14.34
G01 X88.27 Y14.30
G01 X88.40 Y14.26
G01 X88.52 Y14.21
G01 X88.76 Y14.11
G01 X89.01 Y14.01
G01 X89.23 Y13.91
G01 X89.45 Y13.80
G01 X89.63 Y13.71
G01 X89.81 Y13.62
G01 X89.99 Y13.53
G01 X90.09 Y13.47
G01 X90.18 Y13.41
G01 X90.20 Y13.39
G01 X90.22 Y13.37
G01 X90.22 Y13.36
G01 X90.21 Y13.34
G01 X90.19 Y13.33
G01 X90.10 Y13.29
G01 X90.02 Y13.25
G01 X89.73 Y13.14
G01 X89.44 Y13.03
G01 X88.99 Y12.87
G01 X88.54 Y12.72
G01 X88.09 Y12.58
G01 X87.14 Y12.28
G01 X86.75 Y12.17
G01 X86.35 Y12.06
G01 X86.21 Y12.02
G01 X86.07 Y11.99
G01 X85.93 Y11.96
G01 X85.85 Y11.95
G01 X85.77 Y11.94
G01 X85.70 Y11.94
G01 X85.65 Y11.94
G01 X85.61 Y11.95
G01 X85.57 Y11.96
G01 X85.55 Y11.98
G01 X85.53 Y11.99
G01 X85.51 Y12.01
G01 X85.49 Y12.04
G01 X85.48 Y12.08
G01 X85.47 Y12.12
G01 X85.46 Y12.18
G01 X85.46 Y12.24
G01 X85.46 Y12.28
G01 X85.47 Y12.34
G01 X85.48 Y12.40
G01 X85.50 Y12.50
G01 X85.54 Y12.59
G01 X85.58 Y12.68
F30
G01 Z6.00
G00 Z0.00
M9 M5
G00 Z0

(* SHAPE Nr: 44 *)
G00 X89.81 Y15.44
M3 M8
G00 Z6
G00 Z6.00
G01 Z6.00
F20
G01 X89.80 Y15.47
G01 X89.80 Y15.50
G01 X89.80 Y15.51
G01 X89.80 Y15.53
G01 X89.81 Y15.56
G01 X89.82 Y15.59
G01 X89.85 Y15.62
G01 X89.87 Y15.66
G01 X89.90 Y15.69
G01 X89.99 Y15.77
G01 X90.09 Y15.85
G01 X90.26 Y15.98
G01 X90.43 Y16.10
G01 X91.24 Y16.68
G01 X92.75 Y15.77
G01 X94.27 Y14.85
G01 X93.27 Y14.44
G01 X93.17 Y14.40
G01 X92.77 Y14.23
G01 X92.37 Y14.08
G01 X92.31 Y14.05
G01 X92.24 Y14.03
G01 X92.18 Y14.06
G01 X91.99 Y14.13
G01 X91.81 Y14.21
G01 X91.50 Y14.36
G01 X91.18 Y14.52
G01 X90.87 Y14.69
G01 X90.57 Y14.86
G01 X90.37 Y14.97
G01 X90.19 Y15.10
G01 X90.12 Y15.14
G01 X90.02 Y15.22
G01 X89.94 Y15.29
G01 X89.88 Y15.35
G01 X89.85 Y15.38
G01 X89.83 Y15.41
G01 X89.81 Y15.44
F30
G01 Z6.00
G00 Z0.00
M9 M5
G00 Z0

(* SHAPE Nr: 45 *)
G00 X75.13 Y18.79
M3 M8
G00 Z6
G00 Z6.00
G01 Z6.00
F20
G01 X75.12 Y18.78
G01 X75.11 Y18.76
G01 X75.09 Y18.74
G01 X75.01 Y18.67
G01 X74.93 Y18.60
G01 X74.65 Y18.39
G01 X74.38 Y18.18
G01 X73.95 Y17.88
G01 X73.52 Y17.58
G01 X73.09 Y17.29
G01 X71.36 Y16.12
G01 X70.17 Y15.28
G01 X68.92 Y14.36
G01 X66.28 Y15.49
G01 X65.95 Y15.63
G01 X65.63 Y15.78
G01 X65.31 Y15.93
G01 X64.99 Y16.09
G01 X64.73 Y16.22
G01 X64.47 Y16.36
G01 X64.21 Y16.51
G01 X64.08 Y16.59
G01 X63.96 Y16.67
G01 X63.84 Y16.76
G01 X63.78 Y16.80
G01 X63.73 Y16.85
G01 X63.68 Y16.89
G01 X63.66 Y16.92
G01 X63.65 Y16.94
G01 X63.64 Y16.97
G01 X63.63 Y16.98
G01 X63.63 Y16.99
G01 X63.64 Y17.01
G01 X63.65 Y17.06
G01 X63.68 Y17.11
G01 X63.75 Y17.21
G01 X63.82 Y17.31
G01 X63.93 Y17.44
G01 X64.05 Y17.58
G01 X64.16 Y17.71
G01 X64.39 Y17.95
G01 X64.62 Y18.18
G01 X64.85 Y18.41
G01 X65.28 Y18.83
G01 X65.72 Y19.25
G01 X66.16 Y19.65
G01 X66.50 Y19.95
G01 X66.83 Y20.25
G01 X67.17 Y20.54
G01 X67.51 Y20.83
G01 X67.77 Y21.04
G01 X68.04 Y21.25
G01 X68.30 Y21.45
G01 X68.43 Y21.55
G01 X68.57 Y21.64
G01 X68.70 Y21.73
G01 X68.76 Y21.76
G01 X68.83 Y21.80
G01 X68.90 Y21.83
G01 X68.94 Y21.84
G01 X68.96 Y21.85
G01 X69.00 Y21.85
G01 X69.04 Y21.86
G01 X69.11 Y21.85
G01 X69.19 Y21.85
G01 X69.26 Y21.83
G01 X69.38 Y21.81
G01 X69.50 Y21.77
G01 X69.61 Y21.74
G01 X69.80 Y21.67
G01 X69.99 Y21.60
G01 X70.18 Y21.52
G01 X70.50 Y21.38
G01 X70.81 Y21.23
G01 X71.12 Y21.08
G01 X71.51 Y20.88
G01 X71.91 Y20.67
G01 X72.30 Y20.46
G01 X72.88 Y20.14
G01 X73.45 Y19.82
G01 X74.02 Y19.49
G01 X74.29 Y19.33
G01 X74.56 Y19.17
G01 X74.83 Y19.00
G01 X74.96 Y18.92
G01 X75.08 Y18.83
G01 X75.10 Y18.81
G01 X75.12 Y18.79
G01 X75.13 Y18.79
F30
G01 Z6.00
G00 Z0.00
M9 M5
G00 Z0

(* SHAPE Nr: 46 *)
G00 X93.83 Y17.78
M3 M8
G00 Z6
G00 Z6.00
G01 Z6.00
F20
G01 X94.47 Y18.28
G01 X94.62 Y18.38
G01 X94.77 Y18.49
G01 X94.87 Y18.55
G01 X94.98 Y18.61
G01 X95.09 Y18.65
G01 X95.17 Y18.68
G01 X95.25 Y18.71
G01 X95.34 Y18.73
G01 X95.43 Y18.74
G01 X95.51 Y18.74
G01 X95.62 Y18.74
G01 X95.72 Y18.73
G01 X95.83 Y18.72
G01 X95.97 Y18.69
G01 X96.10 Y18.65
G01 X96.24 Y18.61
G01 X96.43 Y18.54
G01 X96.61 Y18.47
G01 X96.80 Y18.40
G01 X97.14 Y18.25
G01 X97.49 Y18.09
G01 X99.00 Y17.40
G01 X97.89 Y16.77
G01 X97.64 Y16.63
G01 X97.38 Y16.49
G01 X97.12 Y16.35
G01 X96.92 Y16.26
G01 X96.73 Y16.18
G01 X96.67 Y16.16
G01 X96.61 Y16.14
G01 X96.60 Y16.14
G01 X96.59 Y16.14
G01 X96.58 Y16.14
G01 X96.52 Y16.16
G01 X96.46 Y16.19
G01 X96.26 Y16.29
G01 X96.08 Y16.39
G01 X95.76 Y16.57
G01 X95.45 Y16.75
G01 X95.15 Y16.94
G01 X95.12 Y16.96
G01 X93.83 Y17.78
F30
G01 Z6.00
G00 Z0.00
M9 M5
G00 Z0

(* SHAPE Nr: 47 *)
G00 X94.42 Y24.34
M3 M8
G00 Z6
G00 Z6.00
G01 Z6.00
F20
G01 X93.29 Y23.78
G01 X92.16 Y23.21
G01 X91.04 Y22.63
G01 X89.93 Y22.04
G01 X88.82 Y21.44
G01 X87.71 Y20.83
G01 X86.82 Y20.33
G01 X85.93 Y19.82
G01 X85.05 Y19.30
G01 X84.49 Y18.97
G01 X83.94 Y18.63
G01 X83.39 Y18.28
G01 X82.95 Y17.99
G01 X82.48 Y17.68
G01 X82.19 Y17.49
G01 X81.89 Y17.30
G01 X81.75 Y17.22
G01 X81.60 Y17.14
G01 X81.45 Y17.06
G01 X81.37 Y17.03
G01 X81.28 Y16.99
G01 X81.19 Y16.96
G01 X81.10 Y16.94
G01 X81.01 Y16.92
G01 X80.92 Y16.91
G01 X80.84 Y16.90
G01 X80.75 Y16.90
G01 X80.66 Y16.91
G01 X80.56 Y16.93
G01 X80.46 Y16.95
G01 X80.36 Y16.98
G01 X80.23 Y17.02
G01 X80.10 Y17.06
G01 X79.98 Y17.11
G01 X79.76 Y17.20
G01 X79.54 Y17.30
G01 X78.24 Y17.87
G01 X79.27 Y18.77
G01 X79.38 Y18.87
G01 X79.50 Y18.97
G01 X79.73 Y19.16
G01 X79.97 Y19.35
G01 X80.20 Y19.53
G01 X80.52 Y19.76
G01 X80.84 Y19.99
G01 X81.16 Y20.21
G01 X81.49 Y20.43
G01 X81.92 Y20.72
G01 X82.35 Y21.00
G01 X82.79 Y21.27
G01 X83.23 Y21.54
G01 X83.85 Y21.91
G01 X84.48 Y22.28
G01 X85.10 Y22.64
G01 X85.73 Y22.99
G01 X86.41 Y23.36
G01 X87.10 Y23.73
G01 X87.79 Y24.10
G01 X88.48 Y24.46
G01 X89.17 Y24.81
G01 X89.95 Y25.20
G01 X90.73 Y25.59
G01 X91.51 Y25.97
G01 X92.30 Y26.35
G01 X93.09 Y26.72
G01 X93.88 Y27.09
G01 X94.79 Y27.50
G01 X95.71 Y27.91
G01 X96.63 Y28.31
G01 X97.55 Y28.71
G01 X98.47 Y29.10
G01 X99.40 Y29.48
G01 X100.22 Y29.81
G01 X101.04 Y30.13
G01 X101.87 Y30.45
G01 X102.70 Y30.76
G01 X103.53 Y31.07
G01 X104.22 Y31.31
G01 X104.91 Y31.54
G01 X105.49 Y31.74
G01 X106.07 Y31.93
G01 X106.54 Y32.08
G01 X107.01 Y32.23
