(Generated with: DXF2GCODE, Version: Py3.6.0 PyQt5.12, Date: $Date$)
(Created from file: /Users/lorenzodaneo/Desktop/aquila.dxf)
(Output format description: G-CODE for LinuxCNC)
(Time: Sat Mar 16 14:21:03 2019)
G21 (Units in millimeters)
G90 (Absolute programming)
G64 (Default cutting) G17 (XY plane) G40 (Cancel radius comp.) G49 (Cancel length comp.)
G00 Z15.0

(*** LAYER: Layer 1 ***)
T1 M6
S6000

(* SHAPE Nr: 1 *)
G00 X45.4 Y48.1
M3 M8
G00 Z3.0
F60
G01 Z0.0
F30
G01 X45.7 Y49.2
G01 X58.7 Y52.7
G01 X58.8 Y53.7
G01 X57.9 Y53.9
G01 X57.1 Y54.0
G01 X56.3 Y54.2
G01 X55.4 Y54.3
G01 X54.6 Y54.4
G01 X53.7 Y54.6
G01 X52.9 Y54.8
G01 X52.0 Y55.0
G01 X51.1 Y55.2
G01 X50.3 Y55.3
G01 X49.5 Y55.5
G01 X48.7 Y55.7
G01 X48.0 Y55.9
G01 X47.2 Y56.1
G01 X46.4 Y56.3
G01 X45.7 Y56.5
G01 X44.9 Y56.7
G01 X44.2 Y57.0
G01 X43.4 Y57.2
G01 X42.7 Y57.4
G01 X42.1 Y57.6
G01 X41.5 Y57.9
G01 X40.9 Y58.1
G01 X40.3 Y58.3
G01 X39.7 Y58.5
G01 X39.1 Y58.7
G01 X38.5 Y59.0
G01 X37.9 Y59.2
G01 X37.3 Y59.5
G01 X36.7 Y59.7
G01 X36.2 Y60.0
G01 X35.6 Y60.2
G01 X35.0 Y60.5
G01 X34.4 Y60.8
G01 X33.9 Y61.1
G01 X33.3 Y61.4
G01 X32.8 Y61.7
G01 X32.2 Y62.0
G01 X31.7 Y62.3
G01 X31.1 Y62.6
G01 X30.6 Y62.9
G01 X30.0 Y63.2
G01 X29.5 Y63.6
G01 X29.0 Y63.9
G01 X28.5 Y64.2
G01 X28.0 Y64.6
G01 X27.5 Y64.9
G01 X27.0 Y65.2
G01 X26.5 Y65.6
G01 X26.1 Y65.9
G01 X25.6 Y66.3
G01 X25.1 Y66.7
G01 X24.7 Y67.0
G01 X24.2 Y67.4
G01 X23.8 Y67.8
G01 X23.4 Y68.1
G01 X22.9 Y68.5
G01 X22.5 Y68.9
G01 X22.1 Y69.3
G01 X21.7 Y69.7
G01 X21.3 Y70.1
G01 X20.9 Y70.5
G01 X20.5 Y70.9
G01 X20.1 Y71.3
G01 X19.7 Y71.8
G01 X19.3 Y72.2
G01 X19.0 Y72.6
G01 X18.6 Y73.0
G01 X18.2 Y73.5
G01 X17.9 Y73.9
G01 X17.5 Y74.3
G01 X34.7 Y72.9
G01 X35.1 Y73.9
G01 X34.5 Y74.1
G01 X33.9 Y74.4
G01 X33.4 Y74.6
G01 X32.8 Y74.9
G01 X32.2 Y75.2
G01 X31.6 Y75.4
G01 X31.0 Y75.7
G01 X30.4 Y76.0
G01 X29.8 Y76.3
G01 X29.2 Y76.7
G01 X28.6 Y77.0
G01 X28.0 Y77.3
G01 X27.4 Y77.7
G01 X26.8 Y78.0
G01 X26.3 Y78.4
G01 X25.7 Y78.7
G01 X25.2 Y79.1
G01 X24.6 Y79.4
G01 X24.1 Y79.8
G01 X23.6 Y80.1
G01 X23.0 Y80.5
G01 X22.5 Y80.9
G01 X22.0 Y81.3
G01 X21.5 Y81.7
G01 X21.0 Y82.0
G01 X20.5 Y82.4
G01 X20.1 Y82.8
G01 X19.6 Y83.2
G01 X19.2 Y83.6
G01 X18.7 Y84.0
G01 X18.3 Y84.4
G01 X17.8 Y84.8
G01 X17.4 Y85.2
G01 X16.9 Y85.7
G01 X16.5 Y86.1
G01 X16.1 Y86.5
G01 X15.6 Y87.0
G01 X15.2 Y87.4
G01 X14.8 Y87.9
G01 X14.4 Y88.4
G01 X14.0 Y88.8
G01 X13.6 Y89.3
G01 X13.3 Y89.7
G01 X12.9 Y90.2
G01 X12.5 Y90.7
G01 X12.2 Y91.2
G01 X11.8 Y91.6
G01 X11.5 Y92.1
G01 X11.1 Y92.6
G01 X10.8 Y93.2
G01 X10.4 Y93.7
G01 X10.1 Y94.2
G01 X9.7 Y94.8
G01 X9.4 Y95.3
G01 X9.1 Y95.8
G01 X8.7 Y96.4
G01 X8.4 Y96.9
G01 X8.1 Y97.5
G01 X7.9 Y98.0
G01 X7.6 Y98.6
G01 X7.3 Y99.1
G01 X7.0 Y99.7
G01 X6.7 Y100.2
G01 X6.5 Y100.8
G01 X6.2 Y101.3
G01 X6.0 Y101.9
G01 X5.8 Y102.4
G01 X5.5 Y102.9
G01 X5.3 Y103.5
G01 X5.1 Y104.0
G01 X4.8 Y104.7
G01 X4.6 Y105.4
G01 X4.3 Y106.0
G01 X4.1 Y106.7
G01 X3.9 Y107.4
G01 X3.6 Y108.1
G01 X3.4 Y108.8
G01 X3.2 Y109.5
G01 X3.0 Y110.2
G01 X2.8 Y110.8
G01 X2.6 Y111.6
G01 X2.4 Y112.3
G01 X2.2 Y113.0
G01 X2.0 Y113.7
G01 X1.9 Y114.4
G01 X1.7 Y115.2
G01 X1.5 Y116.0
G01 X1.4 Y116.7
G01 X1.2 Y117.5
G01 X1.0 Y118.3
G01 X0.9 Y119.0
G01 X0.7 Y119.9
G01 X0.6 Y120.8
G01 X0.4 Y121.7
G01 X0.3 Y122.6
G01 X0.1 Y123.5
G01 X0.0 Y124.4
G01 X0.3 Y124.0
G01 X0.7 Y123.6
G01 X1.0 Y123.1
G01 X1.4 Y122.7
G01 X1.8 Y122.3
G01 X2.2 Y121.8
G01 X2.6 Y121.4
G01 X3.0 Y121.0
G01 X3.4 Y120.6
G01 X3.8 Y120.2
G01 X4.3 Y119.9
G01 X4.7 Y119.5
G01 X5.1 Y119.1
G01 X5.5 Y118.8
G01 X6.0 Y118.4
G01 X6.4 Y118.1
G01 X6.9 Y117.7
G01 X7.3 Y117.4
G01 X7.8 Y117.0
G01 X8.3 Y116.7
G01 X8.8 Y116.4
G01 X9.3 Y116.0
G01 X9.8 Y115.7
G01 X10.3 Y115.4
G01 X10.9 Y115.1
G01 X11.4 Y114.8
G01 X11.9 Y114.5
G01 X12.5 Y114.2
G01 X13.1 Y113.9
G01 X13.7 Y113.6
G01 X14.2 Y113.3
G01 X14.8 Y113.0
G01 X15.5 Y112.7
G01 X16.2 Y112.4
G01 X16.8 Y112.1
G01 X17.5 Y111.8
G01 X18.2 Y111.6
G01 X19.0 Y111.2
G01 X19.9 Y110.9
G01 X20.7 Y110.6
G01 X21.5 Y110.3
G01 X22.4 Y110.1
G01 X23.3 Y109.8
G01 X24.2 Y109.5
G01 X25.1 Y109.2
G01 X26.0 Y109.0
G01 X25.4 Y109.5
G01 X24.8 Y110.0
G01 X24.3 Y110.5
G01 X23.7 Y111.0
G01 X23.1 Y111.5
G01 X22.7 Y111.9
G01 X22.2 Y112.4
G01 X21.7 Y112.8
G01 X21.3 Y113.3
G01 X20.8 Y113.8
G01 X20.4 Y114.2
G01 X19.9 Y114.7
G01 X19.4 Y115.2
G01 X18.9 Y115.7
G01 X18.5 Y116.3
G01 X18.0 Y116.8
G01 X17.6 Y117.2
G01 X17.2 Y117.7
G01 X16.8 Y118.2
G01 X16.4 Y118.7
G01 X16.0 Y119.2
G01 X15.6 Y119.6
G01 X15.3 Y120.1
G01 X14.9 Y120.7
G01 X14.5 Y121.2
G01 X14.1 Y121.7
G01 X13.8 Y122.2
G01 X13.4 Y122.7
G01 X13.1 Y123.3
G01 X12.7 Y123.8
G01 X12.4 Y124.3
G01 X12.1 Y124.8
G01 X11.8 Y125.3
G01 X11.5 Y125.9
G01 X11.2 Y126.4
G01 X11.0 Y126.9
G01 X10.7 Y127.4
G01 X10.4 Y127.9
G01 X10.2 Y128.4
G01 X9.9 Y129.0
G01 X9.7 Y129.5
G01 X9.5 Y130.0
G01 X9.3 Y130.5
G01 X9.0 Y131.0
G01 X8.8 Y131.5
G01 X8.6 Y132.1
G01 X8.4 Y132.6
G01 X8.3 Y133.1
G01 X8.1 Y133.7
G01 X7.9 Y134.2
G01 X7.7 Y134.7
G01 X7.6 Y135.3
G01 X7.4 Y135.8
G01 X7.3 Y136.4
G01 X7.1 Y136.9
G01 X7.0 Y137.5
G01 X6.8 Y138.1
G01 X6.7 Y138.6
G01 X6.6 Y139.2
G01 X6.5 Y139.8
G01 X6.4 Y140.3
G01 X6.3 Y140.9
G01 X6.2 Y141.4
G01 X6.1 Y142.0
G01 X6.0 Y142.6
G01 X6.0 Y143.1
G01 X5.9 Y143.7
G01 X5.9 Y144.2
G01 X5.8 Y144.9
G01 X5.8 Y145.5
G01 X5.7 Y146.1
G01 X5.7 Y146.7
G01 X5.7 Y147.3
G01 X5.7 Y148.0
G01 X5.7 Y148.6
G01 X5.7 Y149.1
G01 X5.7 Y149.7
G01 X5.7 Y150.2
G01 X5.7 Y150.8
G01 X5.7 Y151.3
G01 X5.7 Y151.9
G01 X5.8 Y152.5
G01 X5.8 Y153.2
G01 X5.9 Y153.9
G01 X5.9 Y154.6
G01 X6.0 Y155.3
G01 X6.1 Y156.0
G01 X6.2 Y156.6
G01 X6.3 Y157.4
G01 X6.4 Y158.1
G01 X6.5 Y158.8
G01 X6.6 Y159.6
G01 X6.7 Y160.3
G01 X6.9 Y161.0
G01 X7.2 Y160.4
G01 X7.5 Y159.8
G01 X7.8 Y159.2
G01 X8.1 Y158.5
G01 X8.4 Y157.9
G01 X8.7 Y157.3
G01 X9.1 Y156.7
G01 X9.4 Y156.1
G01 X9.8 Y155.5
G01 X10.1 Y155.0
G01 X10.5 Y154.4
G01 X10.9 Y153.8
G01 X11.2 Y153.2
G01 X11.6 Y152.7
G01 X12.0 Y152.1
G01 X12.4 Y151.5
G01 X12.8 Y151.0
G01 X13.2 Y150.4
G01 X13.7 Y149.9
G01 X14.1 Y149.4
G01 X14.5 Y148.8
G01 X15.0 Y148.3
G01 X15.4 Y147.8
G01 X15.8 Y147.3
G01 X16.3 Y146.7
G01 X16.8 Y146.2
G01 X17.3 Y145.7
G01 X17.9 Y145.1
G01 X18.4 Y144.6
G01 X18.9 Y144.1
G01 X19.4 Y143.6
G01 X20.0 Y143.0
G01 X20.7 Y142.5
G01 X21.3 Y141.9
G01 X21.9 Y141.4
G01 X22.5 Y140.8
G01 X23.2 Y140.3
G01 X23.9 Y139.7
G01 X24.6 Y139.2
G01 X25.3 Y138.6
G01 X26.0 Y138.1
G01 X26.7 Y137.6
G01 X27.4 Y137.1
G01 X28.2 Y136.6
G01 X28.9 Y136.1
G01 X29.6 Y135.6
G01 X30.4 Y135.1
G01 X31.1 Y134.6
G01 X31.9 Y134.1
G01 X32.9 Y133.5
G01 X33.9 Y132.9
G01 X35.0 Y132.3
G01 X36.0 Y131.7
G01 X37.0 Y131.1
G01 X38.1 Y130.5
G01 X39.2 Y130.0
G01 X40.2 Y129.4
G01 X41.3 Y128.8
G01 X42.9 Y128.0
G01 X44.6 Y127.2
G01 X46.2 Y126.4
G01 X47.9 Y125.6
G01 X49.7 Y124.7
G01 X51.5 Y123.9
G01 X55.1 Y122.2
G01 X56.6 Y121.6
G01 X59.2 Y120.4
G01 X60.4 Y119.9
G01 X61.6 Y119.4
G01 X62.4 Y119.0
G01 X63.3 Y118.6
G01 X64.2 Y118.2
G01 X64.8 Y117.9
G01 X65.4 Y117.7
G01 X66.0 Y117.4
G01 X66.6 Y117.1
G01 X67.1 Y116.8
G01 X67.6 Y116.5
G01 X68.1 Y116.3
G01 X68.7 Y116.0
G01 X69.2 Y115.7
G01 X69.5 Y115.5
G01 X69.8 Y115.4
G01 X70.1 Y115.2
G01 X70.4 Y115.0
G01 X70.6 Y114.8
G01 X70.9 Y114.7
G01 X71.1 Y114.5
G01 X71.4 Y114.3
G01 X71.6 Y114.1
G01 X71.8 Y113.9
G01 X72.0 Y113.7
G01 X72.2 Y113.6
G01 X72.4 Y113.4
G01 X72.6 Y113.2
G01 X72.8 Y113.0
G01 X72.9 Y112.8
G01 X73.1 Y112.6
G01 X73.2 Y112.5
G01 X73.3 Y112.3
G01 X73.4 Y112.1
G01 X73.5 Y112.0
G01 X73.6 Y111.8
G01 X73.7 Y111.6
G01 X73.8 Y111.4
G01 X73.9 Y111.2
G01 X74.0 Y111.1
G01 X74.0 Y110.9
G01 X74.1 Y110.7
G01 X74.1 Y110.5
G01 X74.2 Y110.3
G01 X74.2 Y110.1
G01 X74.3 Y109.9
G01 X74.3 Y109.7
G01 X74.3 Y109.4
G01 X74.4 Y109.2
G01 X74.4 Y109.0
G01 X74.4 Y108.8
G01 X74.4 Y108.5
G01 X74.4 Y108.3
G01 X74.4 Y108.1
G01 X74.3 Y107.9
G01 X74.3 Y107.6
G01 X74.3 Y107.3
G01 X74.2 Y107.0
G01 X74.2 Y106.7
G01 X74.1 Y106.4
G01 X74.0 Y106.1
G01 X73.9 Y105.7
G01 X73.8 Y105.4
G01 X73.7 Y105.0
G01 X73.4 Y105.0
G01 X73.3 Y105.0
G01 X72.3 Y105.1
G01 X71.4 Y105.2
G01 X70.8 Y105.3
G01 X70.2 Y105.4
G01 X69.7 Y105.5
G01 X69.2 Y105.5
G01 X68.7 Y105.5
G01 X68.3 Y105.6
G01 X67.7 Y105.6
G01 X67.2 Y105.6
G01 X66.8 Y105.6
G01 X66.4 Y105.5
G01 X66.1 Y105.5
G01 X65.8 Y105.5
G01 X65.5 Y105.4
G01 X65.2 Y105.4
G01 X65.0 Y105.3
G01 X64.7 Y105.3
G01 X64.5 Y105.2
G01 X64.3 Y105.1
G01 X64.1 Y105.1
G01 X63.8 Y105.0
G01 X63.6 Y104.9
G01 X63.4 Y104.7
G01 X63.2 Y104.6
G01 X63.1 Y104.5
G01 X62.9 Y104.4
G01 X62.7 Y104.3
G01 X62.6 Y104.1
G01 X62.4 Y104.0
G01 X62.3 Y103.8
G01 X62.2 Y103.7
G01 X62.0 Y103.5
G01 X61.9 Y103.3
G01 X61.8 Y103.1
G01 X61.7 Y102.9
G01 X61.6 Y102.7
G01 X61.5 Y102.5
G01 X61.4 Y102.2
G01 X61.3 Y102.0
G01 X61.3 Y101.7
G01 X61.2 Y101.4
G01 X61.1 Y101.1
G01 X61.1 Y100.8
G01 X61.0 Y100.5
G01 X61.0 Y100.1
G01 X60.9 Y99.7
G01 X60.9 Y99.3
G01 X60.9 Y98.9
G01 X60.9 Y98.5
G01 X60.9 Y98.2
G01 X60.9 Y97.5
G01 X60.9 Y96.8
G01 X60.9 Y96.2
G01 X61.0 Y95.5
G01 X61.0 Y94.9
G01 X61.1 Y94.1
G01 X61.2 Y93.3
G01 X61.2 Y92.7
G01 X61.3 Y92.1
G01 X61.4 Y91.4
G01 X61.5 Y90.8
G01 X61.6 Y90.2
G01 X61.8 Y89.6
G01 X61.9 Y89.0
G01 X62.0 Y88.5
G01 X62.1 Y87.9
G01 X62.3 Y87.3
G01 X62.4 Y86.8
G01 X62.6 Y86.2
G01 X62.7 Y85.7
G01 X62.9 Y85.1
G01 X63.1 Y84.6
G01 X63.3 Y84.1
G01 X63.4 Y83.6
G01 X63.6 Y83.1
G01 X63.8 Y82.5
G01 X64.1 Y82.0
G01 X64.3 Y81.5
G01 X64.5 Y81.0
G01 X64.7 Y80.6
G01 X65.0 Y80.1
G01 X65.2 Y79.6
G01 X65.4 Y79.1
G01 X65.7 Y78.7
G01 X66.0 Y78.2
G01 X66.2 Y77.7
G01 X66.5 Y77.3
G01 X66.8 Y76.8
G01 X67.1 Y76.3
G01 X67.5 Y75.9
G01 X67.8 Y75.4
G01 X68.1 Y75.0
G01 X68.4 Y74.5
G01 X68.8 Y74.1
G01 X69.2 Y73.6
G01 X69.5 Y73.2
G01 X69.9 Y72.8
G01 X70.3 Y72.4
G01 X70.6 Y72.0
G01 X71.0 Y71.6
G01 X71.4 Y71.2
G01 X71.8 Y70.8
G01 X72.2 Y70.4
G01 X72.6 Y70.0
G01 X73.1 Y69.7
G01 X73.5 Y69.3
G01 X73.9 Y68.9
G01 X74.4 Y68.6
G01 X74.8 Y68.2
G01 X75.2 Y67.9
G01 X75.7 Y67.6
G01 X76.2 Y67.3
G01 X76.7 Y66.9
G01 X77.2 Y66.5
G01 X77.8 Y66.2
G01 X78.4 Y65.8
G01 X78.9 Y65.5
G01 X79.5 Y65.2
G01 X80.1 Y64.8
G01 X80.8 Y64.5
G01 X81.4 Y64.1
G01 X82.1 Y63.8
G01 X82.7 Y63.5
G01 X83.3 Y63.3
G01 X83.9 Y63.0
G01 X84.4 Y62.7
G01 X85.0 Y62.5
G01 X85.6 Y62.3
G01 X86.3 Y62.0
G01 X87.1 Y61.7
G01 X87.8 Y61.5
G01 X88.5 Y61.2
G01 X89.2 Y61.0
G01 X89.9 Y60.8
G01 X87.6 Y62.8
G01 X87.7 Y63.2
G01 X87.8 Y63.6
G01 X88.1 Y64.3
G01 X88.3 Y65.0
G01 X89.0 Y67.2
G01 X89.3 Y68.1
G01 X89.4 Y68.6
G01 X89.5 Y69.0
G01 X89.7 Y69.5
G01 X89.8 Y70.0
G01 X89.9 Y70.6
G01 X90.0 Y71.1
G01 X90.0 Y71.2
G01 X90.0 Y71.2
G01 X90.0 Y71.3
G01 X89.9 Y71.3
G01 X89.9 Y71.4
G01 X89.8 Y71.5
G01 X89.7 Y71.6
G01 X89.6 Y71.7
G01 X89.4 Y71.9
G01 X89.2 Y72.0
G01 X88.9 Y72.2
G01 X88.7 Y72.3
G01 X88.5 Y72.5
G01 X88.2 Y72.6
G01 X88.0 Y72.7
G01 X87.8 Y72.8
G01 X87.7 Y72.8
G01 X87.5 Y72.9
G01 X87.4 Y72.9
G01 X87.2 Y72.9
G01 X87.1 Y72.9
G01 X87.0 Y72.9
G01 X86.7 Y72.9
G01 X86.5 Y72.8
G01 X86.3 Y72.7
G01 X86.0 Y72.6
G01 X85.7 Y72.5
G01 X85.5 Y72.4
G01 X85.2 Y72.3
G01 X84.9 Y72.1
G01 X84.6 Y71.9
G01 X83.9 Y71.4
G01 X83.7 Y71.3
G01 X83.3 Y71.0
G01 X82.8 Y70.7
G01 X82.6 Y70.6
G01 X82.3 Y70.4
G01 X82.4 Y70.3
G01 X82.4 Y70.3
G01 X82.3 Y70.3
G01 X82.3 Y70.3
G01 X82.2 Y70.4
G01 X82.1 Y70.4
G01 X82.0 Y70.4
G01 X82.0 Y70.5
G01 X81.9 Y70.5
G01 X81.8 Y70.5
G01 X81.8 Y70.6
G01 X81.8 Y70.6
G01 X81.7 Y70.7
G01 X81.7 Y70.7
G01 X81.7 Y70.8
G01 X81.4 Y71.5
G01 X81.0 Y72.4
G01 X80.8 Y72.9
G01 X80.6 Y73.2
G01 X80.4 Y73.6
G01 X80.3 Y74.0
G01 X80.1 Y74.3
G01 X80.0 Y74.6
G01 X79.9 Y74.9
G01 X79.8 Y75.1
G01 X79.8 Y75.3
G01 X79.7 Y75.5
G01 X79.7 Y75.7
G01 X79.6 Y75.8
G01 X79.6 Y75.9
G01 X79.6 Y76.1
G01 X79.6 Y76.2
G01 X79.6 Y76.4
G01 X79.6 Y76.5
G01 X79.6 Y76.6
G01 X79.6 Y76.7
G01 X79.6 Y76.8
G01 X79.6 Y76.9
G01 X79.6 Y77.0
G01 X79.7 Y77.0
G01 X79.7 Y77.1
G01 X79.7 Y77.2
G01 X79.8 Y77.2
G01 X79.9 Y77.3
G01 X80.0 Y77.4
G01 X80.1 Y77.5
G01 X80.3 Y77.6
G01 X80.4 Y77.8
G01 X80.5 Y77.8
G01 X80.7 Y77.9
G01 X80.8 Y78.0
G01 X81.0 Y78.1
G01 X81.1 Y78.2
G01 X81.3 Y78.3
G01 X81.4 Y78.3
G01 X81.6 Y78.4
G01 X81.8 Y78.4
G01 X82.0 Y78.5
G01 X82.1 Y78.5
G01 X82.3 Y78.5
G01 X82.5 Y78.6
G01 X82.7 Y78.6
G01 X82.9 Y78.6
G01 X83.1 Y78.6
G01 X83.2 Y78.6
G01 X83.4 Y78.6
G01 X83.6 Y78.6
G01 X83.8 Y78.6
G01 X84.0 Y78.6
G01 X84.2 Y78.5
G01 X84.4 Y78.5
G01 X84.6 Y78.4
G01 X84.8 Y78.4
G01 X85.1 Y78.3
G01 X85.3 Y78.2
G01 X85.5 Y78.2
G01 X85.7 Y78.1
G01 X85.9 Y78.0
G01 X86.1 Y77.9
G01 X86.3 Y77.8
G01 X86.6 Y77.7
G01 X86.8 Y77.5
G01 X87.0 Y77.4
G01 X87.2 Y77.3
G01 X87.4 Y77.1
G01 X87.6 Y77.0
G01 X87.6 Y76.9
G01 X87.8 Y76.9
G01 X87.9 Y76.8
G01 X88.1 Y76.8
G01 X88.2 Y76.8
G01 X88.4 Y76.7
G01 X88.6 Y76.7
G01 X88.7 Y76.7
G01 X89.2 Y76.8
G01 X89.5 Y76.8
G01 X89.8 Y76.9
G01 X90.6 Y77.0
G01 X91.1 Y77.1
G01 X91.3 Y77.2
G01 X91.6 Y77.2
G01 X91.8 Y77.2
G01 X92.0 Y77.2
G01 X92.1 Y77.3
G01 X92.0 Y78.5
G01 X87.0 Y79.7
G01 X87.2 Y79.9
G01 X87.4 Y80.1
G01 X87.6 Y80.4
G01 X87.8 Y80.6
G01 X88.1 Y80.8
G01 X88.3 Y81.0
G01 X88.5 Y81.2
G01 X88.7 Y81.4
G01 X88.9 Y81.6
G01 X89.1 Y81.7
G01 X89.4 Y81.9
G01 X89.6 Y82.1
G01 X89.8 Y82.2
G01 X90.1 Y82.4
G01 X90.3 Y82.6
G01 X90.6 Y82.7
G01 X90.8 Y82.8
G01 X91.1 Y83.0
G01 X91.3 Y83.1
G01 X91.6 Y83.2
G01 X91.9 Y83.3
G01 X92.1 Y83.4
G01 X92.4 Y83.5
G01 X92.7 Y83.6
G01 X93.0 Y83.7
G01 X93.3 Y83.8
G01 X93.6 Y83.9
G01 X93.9 Y84.0
G01 X94.2 Y84.1
G01 X94.5 Y84.2
G01 X94.8 Y84.2
G01 X95.2 Y84.3
G01 X95.6 Y84.4
G01 X96.0 Y84.5
G01 X96.5 Y84.6
G01 X97.0 Y84.6
G01 X97.5 Y84.7
G01 X98.3 Y84.8
G01 X99.0 Y84.9
G01 X99.9 Y85.0
G01 X101.4 Y85.2
G01 X102.1 Y85.2
G01 X102.8 Y85.3
G01 X103.5 Y85.5
G01 X104.0 Y85.6
G01 X104.5 Y85.7
G01 X105.0 Y85.8
G01 X105.4 Y85.9
G01 X105.7 Y86.0
G01 X106.1 Y86.1
G01 X106.4 Y86.2
G01 X106.7 Y86.3
G01 X107.0 Y86.5
G01 X107.3 Y86.6
G01 X107.6 Y86.7
G01 X103.6 Y82.3
G01 X106.4 Y72.6
G01 X109.5 Y63.1
G01 X109.1 Y63.0
G01 X108.8 Y62.9
G01 X108.6 Y62.8
G01 X108.4 Y62.7
G01 X108.2 Y62.6
G01 X108.0 Y62.5
G01 X107.7 Y62.3
G01 X107.6 Y62.2
G01 X107.4 Y62.1
G01 X107.2 Y61.9
G01 X107.0 Y61.8
G01 X106.8 Y61.6
G01 X106.7 Y61.5
G01 X106.5 Y61.3
G01 X106.4 Y61.1
G01 X106.2 Y60.9
G01 X106.0 Y60.7
G01 X105.9 Y60.4
G01 X105.7 Y60.2
G01 X105.6 Y59.9
G01 X105.5 Y59.7
G01 X105.3 Y59.4
G01 X105.2 Y59.1
G01 X105.1 Y58.8
G01 X105.0 Y58.6
G01 X104.9 Y58.1
G01 X104.7 Y57.7
G01 X104.6 Y57.2
G01 X104.5 Y56.7
G01 X104.4 Y56.2
G01 X104.3 Y55.6
G01 X104.1 Y54.4
G01 X104.0 Y53.9
G01 X104.0 Y53.7
G01 X104.3 Y54.2
G01 X104.7 Y54.8
G01 X105.1 Y55.4
G01 X105.5 Y56.0
G01 X105.7 Y56.3
G01 X106.0 Y56.7
G01 X106.2 Y57.1
G01 X106.5 Y57.4
G01 X106.7 Y57.7
G01 X107.0 Y58.0
G01 X107.2 Y58.3
G01 X107.4 Y58.5
G01 X107.6 Y58.8
G01 X107.9 Y59.0
G01 X108.1 Y59.3
G01 X108.3 Y59.5
G01 X108.5 Y59.7
G01 X108.8 Y59.9
G01 X109.0 Y60.1
G01 X109.3 Y60.3
G01 X109.6 Y60.6
G01 X109.9 Y60.8
G01 X110.1 Y61.0
G01 X110.5 Y61.2
G01 X110.8 Y61.4
G01 X111.1 Y61.6
G01 X111.5 Y61.8
G01 X111.9 Y62.1
G01 X112.3 Y62.3
G01 X112.7 Y62.5
G01 X113.1 Y62.7
G01 X113.5 Y62.9
G01 X114.1 Y63.2
G01 X114.7 Y63.5
G01 X115.5 Y63.9
G01 X116.3 Y64.3
G01 X117.4 Y64.8
G01 X118.1 Y65.2
G01 X118.6 Y65.5
G01 X119.1 Y65.7
G01 X119.6 Y66.0
G01 X120.0 Y66.3
G01 X120.5 Y66.6
G01 X121.0 Y67.0
G01 X121.5 Y67.3
G01 X121.9 Y67.6
G01 X122.3 Y67.9
G01 X122.7 Y68.2
G01 X123.2 Y68.6
G01 X123.6 Y68.9
G01 X124.0 Y69.2
G01 X124.4 Y69.6
G01 X124.8 Y70.0
G01 X125.2 Y70.3
G01 X125.5 Y70.7
G01 X125.9 Y71.0
G01 X126.3 Y71.4
G01 X126.6 Y71.8
G01 X127.0 Y72.2
G01 X127.3 Y72.6
G01 X127.6 Y73.0
G01 X127.9 Y73.4
G01 X128.3 Y73.8
G01 X128.6 Y74.2
G01 X128.9 Y74.6
G01 X129.2 Y75.0
G01 X129.5 Y75.5
G01 X129.8 Y75.9
G01 X130.1 Y76.4
G01 X130.3 Y76.8
G01 X130.6 Y77.3
G01 X130.9 Y77.7
G01 X131.1 Y78.2
G01 X131.4 Y78.7
G01 X131.6 Y79.2
G01 X131.9 Y79.7
G01 X132.1 Y80.2
G01 X132.3 Y80.8
G01 X132.5 Y81.3
G01 X132.7 Y81.8
G01 X132.9 Y82.3
G01 X133.1 Y82.9
G01 X133.3 Y83.4
G01 X133.5 Y84.0
G01 X133.6 Y84.6
G01 X133.8 Y85.1
G01 X133.9 Y85.7
G01 X134.1 Y86.3
G01 X134.2 Y86.9
G01 X134.3 Y87.4
G01 X134.4 Y88.0
G01 X134.5 Y88.5
G01 X134.6 Y89.1
G01 X134.7 Y89.6
G01 X134.8 Y90.2
G01 X134.8 Y90.7
G01 X134.9 Y91.3
G01 X134.9 Y91.9
G01 X134.9 Y92.4
G01 X135.0 Y93.0
G01 X135.0 Y93.5
G01 X135.0 Y94.1
G01 X135.0 Y94.7
G01 X135.0 Y95.2
G01 X135.0 Y95.8
G01 X134.9 Y96.4
G01 X134.9 Y97.0
G01 X134.8 Y97.6
G01 X134.8 Y98.2
G01 X134.7 Y98.8
G01 X134.6 Y99.4
G01 X134.6 Y99.9
G01 X134.5 Y100.3
G01 X134.4 Y100.6
G01 X134.3 Y100.9
G01 X134.2 Y101.2
G01 X134.1 Y101.5
G01 X134.1 Y101.7
G01 X133.9 Y102.0
G01 X133.8 Y102.2
G01 X133.7 Y102.4
G01 X133.6 Y102.7
G01 X133.5 Y102.9
G01 X133.3 Y103.1
G01 X133.2 Y103.3
G01 X133.0 Y103.5
G01 X132.9 Y103.6
G01 X132.7 Y103.8
G01 X132.6 Y104.0
G01 X132.4 Y104.1
G01 X132.2 Y104.3
G01 X132.0 Y104.4
G01 X131.8 Y104.5
G01 X131.6 Y104.6
G01 X131.4 Y104.7
G01 X131.2 Y104.8
G01 X131.0 Y104.9
G01 X130.7 Y105.0
G01 X130.5 Y105.1
G01 X130.2 Y105.1
G01 X130.0 Y105.2
G01 X129.7 Y105.3
G01 X129.4 Y105.3
G01 X129.1 Y105.3
G01 X128.8 Y105.4
G01 X128.5 Y105.4
G01 X128.2 Y105.4
G01 X127.7 Y105.4
G01 X127.2 Y105.4
G01 X126.7 Y105.4
G01 X126.2 Y105.4
G01 X125.6 Y105.3
G01 X125.1 Y105.2
G01 X124.6 Y105.2
G01 X124.0 Y105.1
G01 X123.4 Y105.0
G01 X122.8 Y104.8
G01 X122.2 Y104.7
G01 X122.1 Y104.9
G01 X122.0 Y105.1
G01 X121.9 Y105.2
G01 X121.7 Y105.4
G01 X121.6 Y105.6
G01 X121.6 Y105.8
G01 X121.5 Y105.9
G01 X121.4 Y106.1
G01 X121.3 Y106.3
G01 X121.2 Y106.4
G01 X121.2 Y106.6
G01 X121.1 Y106.8
G01 X121.1 Y107.0
G01 X121.1 Y107.1
G01 X121.0 Y107.3
G01 X121.0 Y107.5
G01 X121.0 Y107.7
G01 X121.0 Y107.8
G01 X121.0 Y108.0
G01 X121.0 Y108.2
G01 X121.0 Y108.3
G01 X121.0 Y108.5
G01 X121.0 Y108.7
G01 X121.0 Y108.8
G01 X121.1 Y109.0
G01 X121.1 Y109.2
G01 X121.1 Y109.3
G01 X121.2 Y109.5
G01 X121.3 Y109.6
G01 X121.3 Y109.8
G01 X121.4 Y110.0
G01 X121.5 Y110.1
G01 X121.5 Y110.3
G01 X121.6 Y110.5
G01 X121.7 Y110.6
G01 X121.8 Y110.8
G01 X121.9 Y111.0
G01 X122.1 Y111.2
G01 X122.2 Y111.4
G01 X122.4 Y111.6
G01 X122.5 Y111.8
G01 X122.7 Y112.0
G01 X122.9 Y112.2
G01 X123.1 Y112.4
G01 X123.3 Y112.6
G01 X123.5 Y112.8
G01 X123.8 Y112.9
G01 X124.2 Y113.3
G01 X124.7 Y113.7
G01 X125.1 Y114.0
G01 X125.6 Y114.4
G01 X126.2 Y114.8
G01 X126.7 Y115.2
G01 X127.3 Y115.6
G01 X127.8 Y116.0
G01 X128.3 Y116.3
G01 X128.9 Y116.7
G01 X129.4 Y117.0
G01 X130.0 Y117.4
G01 X130.5 Y117.7
G01 X131.1 Y118.1
G01 X131.7 Y118.4
G01 X132.3 Y118.7
G01 X132.8 Y119.1
G01 X133.4 Y119.4
G01 X134.0 Y119.7
G01 X134.6 Y120.0
G01 X135.4 Y120.4
G01 X136.1 Y120.8
G01 X136.9 Y121.2
G01 X138.0 Y121.8
G01 X139.2 Y122.3
G01 X140.4 Y122.9
G01 X141.5 Y123.5
G01 X143.5 Y124.4
G01 X145.4 Y125.3
G01 X148.6 Y126.8
G01 X151.9 Y128.4
G01 X153.4 Y129.1
G01 X154.8 Y129.9
G01 X156.2 Y130.6
G01 X157.4 Y131.2
G01 X158.6 Y131.8
G01 X159.7 Y132.4
G01 X160.9 Y133.0
G01 X161.9 Y133.6
G01 X162.8 Y134.1
G01 X163.7 Y134.6
G01 X164.7 Y135.2
G01 X165.5 Y135.7
G01 X166.3 Y136.2
G01 X167.1 Y136.7
G01 X167.9 Y137.2
G01 X168.7 Y137.8
G01 X169.5 Y138.3
G01 X170.3 Y138.8
G01 X171.0 Y139.4
G01 X171.8 Y140.0
G01 X172.4 Y140.4
G01 X173.1 Y140.9
G01 X173.7 Y141.4
G01 X174.3 Y141.9
G01 X174.9 Y142.4
G01 X175.5 Y142.9
G01 X176.1 Y143.4
G01 X176.7 Y144.0
G01 X177.1 Y144.4
G01 X177.6 Y144.9
G01 X178.1 Y145.3
G01 X178.6 Y145.8
G01 X179.0 Y146.3
G01 X179.5 Y146.8
G01 X179.9 Y147.2
G01 X180.4 Y147.7
G01 X180.8 Y148.2
G01 X181.3 Y148.8
G01 X181.7 Y149.3
G01 X182.1 Y149.8
G01 X182.5 Y150.3
G01 X182.9 Y150.8
G01 X183.2 Y151.3
G01 X183.6 Y151.7
G01 X183.9 Y152.2
G01 X184.2 Y152.7
G01 X184.6 Y153.2
G01 X184.9 Y153.7
G01 X185.2 Y154.2
G01 X185.5 Y154.8
G01 X185.9 Y155.4
G01 X186.2 Y155.9
G01 X186.5 Y156.5
G01 X186.8 Y157.1
G01 X187.1 Y157.7
G01 X187.4 Y158.3
G01 X187.7 Y159.0
G01 X188.0 Y159.7
G01 X188.3 Y160.4
G01 X188.5 Y159.9
G01 X188.6 Y159.4
G01 X188.8 Y158.9
G01 X189.0 Y158.4
G01 X189.1 Y157.9
G01 X189.2 Y157.4
G01 X189.4 Y156.9
G01 X189.5 Y156.4
G01 X189.6 Y155.9
G01 X189.7 Y155.4
G01 X189.8 Y154.9
G01 X189.9 Y154.4
G01 X190.0 Y153.9
G01 X190.0 Y153.4
G01 X190.1 Y152.9
G01 X190.2 Y152.4
G01 X190.2 Y151.9
G01 X190.3 Y151.4
G01 X190.3 Y150.9
G01 X190.3 Y150.4
G01 X190.4 Y149.9
G01 X190.4 Y149.4
G01 X190.4 Y148.9
G01 X190.4 Y148.4
G01 X190.4 Y147.9
G01 X190.4 Y147.4
G01 X190.3 Y146.8
G01 X190.3 Y146.3
G01 X190.3 Y145.8
G01 X190.2 Y145.3
G01 X190.2 Y144.8
G01 X190.1 Y144.3
G01 X190.0 Y143.7
G01 X190.0 Y143.2
G01 X189.9 Y142.7
G01 X189.8 Y142.2
G01 X189.7 Y141.7
G01 X189.6 Y141.2
G01 X189.5 Y140.7
G01 X189.4 Y140.2
G01 X189.2 Y139.7
G01 X189.1 Y139.2
G01 X189.0 Y138.7
G01 X188.8 Y138.2
G01 X188.7 Y137.7
G01 X188.5 Y137.2
G01 X188.4 Y136.7
G01 X188.2 Y136.2
G01 X188.0 Y135.7
G01 X187.8 Y135.2
G01 X187.7 Y134.7
G01 X187.5 Y134.2
G01 X187.3 Y133.7
G01 X187.0 Y133.2
G01 X186.8 Y132.7
G01 X186.6 Y132.2
G01 X186.4 Y131.7
G01 X186.1 Y131.2
G01 X185.9 Y130.6
G01 X185.7 Y130.1
G01 X185.4 Y129.6
G01 X185.1 Y129.1
G01 X184.9 Y128.6
G01 X184.6 Y128.1
G01 X184.3 Y127.6
G01 X184.0 Y127.1
G01 X183.7 Y126.6
G01 X183.4 Y126.1
G01 X183.0 Y125.5
G01 X182.7 Y124.9
G01 X182.3 Y124.2
G01 X181.9 Y123.6
G01 X181.5 Y123.0
G01 X181.0 Y122.4
G01 X180.6 Y121.8
G01 X180.2 Y121.2
G01 X179.7 Y120.6
G01 X179.3 Y120.0
G01 X178.8 Y119.3
G01 X178.3 Y118.7
G01 X177.8 Y118.1
G01 X177.3 Y117.5
G01 X176.8 Y116.9
G01 X176.3 Y116.3
G01 X175.8 Y115.7
G01 X175.3 Y115.2
G01 X174.8 Y114.6
G01 X174.3 Y114.0
G01 X173.8 Y113.5
G01 X173.3 Y113.0
G01 X172.7 Y112.3
G01 X172.1 Y111.7
G01 X171.5 Y111.0
G01 X170.9 Y110.4
G01 X170.2 Y109.7
G01 X169.6 Y109.1
G01 X168.9 Y108.5
G01 X170.1 Y108.8
G01 X171.1 Y109.2
G01 X172.1 Y109.5
G01 X173.1 Y109.8
G01 X173.9 Y110.1
G01 X174.6 Y110.3
G01 X175.4 Y110.6
G01 X176.1 Y110.9
G01 X176.9 Y111.2
G01 X177.6 Y111.5
G01 X178.3 Y111.8
G01 X179.0 Y112.1
G01 X179.7 Y112.4
G01 X180.4 Y112.7
G01 X180.9 Y113.0
G01 X181.5 Y113.3
G01 X182.1 Y113.6
G01 X182.7 Y113.9
G01 X183.2 Y114.2
G01 X183.8 Y114.5
G01 X184.3 Y114.8
G01 X184.8 Y115.2
G01 X185.3 Y115.5
G01 X185.9 Y115.8
G01 X186.4 Y116.2
G01 X186.9 Y116.5
G01 X187.4 Y116.8
G01 X187.8 Y117.2
G01 X188.3 Y117.6
G01 X188.8 Y117.9
G01 X189.3 Y118.3
G01 X189.7 Y118.7
G01 X190.2 Y119.0
G01 X190.6 Y119.4
G01 X191.0 Y119.8
G01 X191.5 Y120.2
G01 X191.9 Y120.6
G01 X192.3 Y121.0
G01 X192.7 Y121.4
G01 X193.1 Y121.8
G01 X193.5 Y122.3
G01 X193.9 Y122.7
G01 X194.3 Y123.1
G01 X194.6 Y123.6
G01 X195.0 Y124.0
G01 X195.3 Y124.4
G01 X195.4 Y123.9
G01 X195.4 Y123.4
G01 X195.4 Y122.9
G01 X195.4 Y122.4
G01 X195.4 Y121.8
G01 X195.4 Y121.3
G01 X195.3 Y120.8
G01 X195.3 Y120.3
G01 X195.3 Y119.7
G01 X195.2 Y119.2
G01 X195.2 Y118.7
G01 X195.1 Y118.1
G01 X195.1 Y117.6
G01 X195.0 Y117.1
G01 X194.9 Y116.6
G01 X194.8 Y116.0
G01 X194.7 Y115.5
G01 X194.6 Y115.0
G01 X194.5 Y114.4
G01 X194.4 Y113.9
G01 X194.3 Y113.4
G01 X194.2 Y112.8
G01 X194.0 Y112.3
G01 X193.9 Y111.8
G01 X193.7 Y111.2
G01 X193.6 Y110.7
G01 X193.4 Y110.2
G01 X193.3 Y109.7
G01 X193.1 Y109.1
G01 X192.9 Y108.6
G01 X192.7 Y108.1
G01 X192.5 Y107.6
G01 X192.3 Y107.0
G01 X192.1 Y106.5
G01 X191.9 Y106.0
G01 X191.7 Y105.4
G01 X191.4 Y104.9
G01 X191.2 Y104.4
G01 X191.0 Y103.9
G01 X190.7 Y103.3
G01 X190.4 Y102.7
G01 X190.1 Y102.1
G01 X189.8 Y101.6
G01 X189.5 Y101.0
G01 X189.2 Y100.4
G01 X188.8 Y99.8
G01 X188.5 Y99.3
G01 X188.2 Y98.7
G01 X187.8 Y98.2
G01 X187.5 Y97.6
G01 X187.1 Y97.1
G01 X186.7 Y96.5
G01 X186.4 Y96.0
G01 X186.0 Y95.5
G01 X185.6 Y94.9
G01 X185.2 Y94.4
G01 X184.8 Y93.9
G01 X184.4 Y93.3
G01 X184.0 Y92.8
G01 X183.6 Y92.3
G01 X183.2 Y91.8
G01 X182.7 Y91.3
G01 X182.3 Y90.8
G01 X181.9 Y90.2
G01 X181.4 Y89.7
G01 X180.9 Y89.2
G01 X180.5 Y88.7
G01 X180.0 Y88.2
G01 X179.5 Y87.7
G01 X179.0 Y87.2
G01 X178.5 Y86.7
G01 X178.0 Y86.2
G01 X177.5 Y85.7
G01 X176.9 Y85.2
G01 X176.4 Y84.7
G01 X175.8 Y84.2
G01 X175.3 Y83.7
G01 X174.7 Y83.3
G01 X174.2 Y82.8
G01 X173.6 Y82.3
G01 X173.0 Y81.9
G01 X172.4 Y81.4
G01 X171.9 Y80.9
G01 X171.3 Y80.5
G01 X170.7 Y80.0
G01 X170.1 Y79.6
G01 X169.5 Y79.2
G01 X168.9 Y78.8
G01 X168.2 Y78.3
G01 X167.6 Y77.9
G01 X167.0 Y77.5
G01 X166.4 Y77.1
G01 X165.7 Y76.7
G01 X165.1 Y76.3
G01 X164.4 Y75.9
G01 X163.8 Y75.5
G01 X163.1 Y75.2
G01 X162.5 Y74.8
G01 X161.8 Y74.4
G01 X161.2 Y74.1
G01 X160.5 Y73.7
G01 X159.8 Y73.4
G01 X160.4 Y73.4
G01 X161.0 Y73.4
G01 X161.9 Y73.4
G01 X162.7 Y73.3
G01 X165.0 Y73.3
G01 X166.2 Y73.3
G01 X167.2 Y73.3
G01 X168.2 Y73.4
G01 X168.7 Y73.4
G01 X169.3 Y73.4
G01 X170.2 Y73.5
G01 X170.9 Y73.6
G01 X171.6 Y73.6
G01 X172.3 Y73.7
G01 X174.3 Y74.0
G01 X175.4 Y74.2
G01 X176.2 Y74.3
G01 X176.9 Y74.5
G01 X177.5 Y74.5
G01 X178.1 Y74.6
G01 X177.8 Y74.2
G01 X177.5 Y73.8
G01 X177.2 Y73.3
G01 X176.8 Y72.9
G01 X176.5 Y72.5
G01 X176.2 Y72.1
G01 X175.9 Y71.7
G01 X175.6 Y71.3
G01 X175.3 Y71.0
G01 X175.0 Y70.6
G01 X174.7 Y70.3
G01 X174.3 Y69.9
G01 X174.0 Y69.6
G01 X173.7 Y69.3
G01 X173.3 Y68.9
G01 X173.0 Y68.6
G01 X172.6 Y68.2
G01 X172.2 Y67.9
G01 X171.9 Y67.6
G01 X171.5 Y67.2
G01 X171.1 Y66.9
G01 X170.7 Y66.6
G01 X170.3 Y66.2
G01 X169.8 Y65.9
G01 X169.4 Y65.6
G01 X169.0 Y65.2
G01 X168.5 Y64.9
G01 X168.1 Y64.6
G01 X167.6 Y64.3
G01 X167.1 Y64.0
G01 X166.7 Y63.7
G01 X166.2 Y63.4
G01 X165.7 Y63.1
G01 X165.2 Y62.8
G01 X164.7 Y62.6
G01 X164.2 Y62.3
G01 X163.7 Y62.0
G01 X163.1 Y61.8
G01 X162.6 Y61.5
G01 X162.0 Y61.2
G01 X161.5 Y61.0
G01 X160.9 Y60.7
G01 X160.4 Y60.5
G01 X159.9 Y60.3
G01 X159.2 Y60.0
G01 X158.5 Y59.7
G01 X157.7 Y59.5
G01 X156.9 Y59.2
G01 X156.1 Y58.9
G01 X155.2 Y58.6
G01 X154.4 Y58.3
G01 X153.5 Y58.0
G01 X152.7 Y57.7
G01 X151.8 Y57.4
G01 X150.9 Y57.1
G01 X150.0 Y56.8
G01 X149.1 Y56.6
G01 X147.8 Y56.2
G01 X146.4 Y55.7
G01 X143.8 Y55.0
G01 X139.1 Y53.5
G01 X136.8 Y52.8
G01 X150.4 Y49.0
G01 X150.2 Y48.9
G01 X149.9 Y48.7
G01 X149.5 Y48.5
G01 X149.1 Y48.3
G01 X148.7 Y48.1
G01 X148.3 Y47.8
G01 X147.9 Y47.6
G01 X147.5 Y47.4
G01 X147.0 Y47.2
G01 X146.6 Y47.0
G01 X146.2 Y46.8
G01 X145.7 Y46.6
G01 X145.3 Y46.4
G01 X144.8 Y46.3
G01 X144.4 Y46.1
G01 X143.9 Y45.9
G01 X143.5 Y45.7
G01 X143.0 Y45.6
G01 X142.5 Y45.4
G01 X141.9 Y45.2
G01 X141.4 Y45.1
G01 X140.9 Y44.9
G01 X140.4 Y44.8
G01 X139.8 Y44.7
G01 X139.2 Y44.5
G01 X138.7 Y44.4
G01 X138.1 Y44.2
G01 X137.5 Y44.1
G01 X136.9 Y44.0
G01 X136.3 Y43.9
G01 X135.7 Y43.8
G01 X135.1 Y43.7
G01 X134.5 Y43.6
G01 X133.7 Y43.5
G01 X132.9 Y43.3
G01 X132.0 Y43.2
G01 X131.2 Y43.1
G01 X120.5 Y42.2
G01 X128.0 Y39.2
G01 X111.2 Y33.3
G01 X111.0 Y33.0
G01 X110.6 Y32.4
G01 X109.5 Y30.9
G01 X109.2 Y30.4
G01 X108.9 Y30.0
G01 X108.2 Y28.9
G01 X107.4 Y27.5
G01 X106.9 Y26.7
G01 X106.6 Y26.2
G01 X108.2 Y25.8
G01 X109.7 Y25.4
G01 X110.6 Y25.1
G01 X111.6 Y24.8
G01 X112.5 Y24.5
G01 X113.1 Y24.3
G01 X113.7 Y24.2
G01 X114.2 Y24.0
G01 X114.7 Y23.8
G01 X115.1 Y23.7
G01 X115.5 Y23.5
G01 X115.9 Y23.4
G01 X116.2 Y23.2
G01 X116.6 Y23.1
G01 X116.8 Y23.0
G01 X117.1 Y22.8
G01 X117.3 Y22.7
G01 X117.6 Y22.6
G01 X117.8 Y22.5
G01 X118.0 Y22.4
G01 X118.2 Y22.2
G01 X118.4 Y22.1
G01 X118.6 Y22.0
G01 X118.7 Y21.9
G01 X118.9 Y21.8
G01 X119.0 Y21.6
G01 X119.2 Y21.5
G01 X119.3 Y21.4
G01 X119.4 Y21.3
G01 X119.5 Y21.2
G01 X119.6 Y21.1
G01 X119.7 Y20.9
G01 X119.8 Y20.8
G01 X119.9 Y20.7
G01 X120.0 Y20.5
G01 X120.1 Y20.4
G01 X120.2 Y20.2
G01 X120.2 Y20.1
G01 X120.3 Y19.9
G01 X120.3 Y19.8
G01 X120.4 Y19.6
G01 X120.4 Y19.5
G01 X120.5 Y19.3
G01 X120.5 Y19.1
G01 X120.5 Y18.9
G01 X120.6 Y18.7
G01 X120.6 Y18.6
G01 X120.6 Y18.3
G01 X120.6 Y18.0
G01 X120.7 Y17.8
G01 X120.7 Y17.5
G01 X120.7 Y17.1
G01 X120.7 Y16.6
G01 X120.7 Y16.2
G01 X116.7 Y19.5
G01 X114.6 Y10.6
G01 X106.8 Y13.6
G01 X107.3 Y6.4
G01 X107.0 Y6.0
G01 X106.7 Y5.7
G01 X106.3 Y5.3
G01 X105.9 Y4.9
G01 X105.5 Y4.5
G01 X105.2 Y4.1
G01 X104.9 Y3.8
G01 X104.5 Y3.5
G01 X104.2 Y3.2
G01 X103.9 Y2.9
G01 X103.6 Y2.6
G01 X103.2 Y2.4
G01 X102.9 Y2.1
G01 X102.6 Y1.9
G01 X102.4 Y1.7
G01 X102.1 Y1.5
G01 X101.8 Y1.3
G01 X101.6 Y1.2
G01 X101.3 Y1.0
G01 X101.1 Y0.9
G01 X100.9 Y0.8
G01 X100.7 Y0.7
G01 X100.5 Y0.6
G01 X100.3 Y0.5
G01 X100.1 Y0.4
G01 X99.9 Y0.3
G01 X99.7 Y0.3
G01 X99.5 Y0.2
G01 X99.3 Y0.2
G01 X99.1 Y0.1
G01 X98.9 Y0.1
G01 X98.7 Y0.0
G01 X98.5 Y0.0
G01 X98.3 Y0.0
G01 X98.1 Y0.0
G01 X98.0 Y0.0
G01 X97.8 Y0.0
G01 X97.6 Y0.0
G01 X97.4 Y0.0
G01 X97.2 Y0.1
G01 X97.0 Y0.1
G01 X96.8 Y0.1
G01 X96.6 Y0.2
G01 X96.4 Y0.2
G01 X96.2 Y0.3
G01 X96.0 Y0.4
G01 X95.8 Y0.4
G01 X95.6 Y0.5
G01 X95.4 Y0.6
G01 X95.1 Y0.7
G01 X94.9 Y0.8
G01 X94.7 Y1.0
G01 X94.4 Y1.1
G01 X94.1 Y1.3
G01 X93.9 Y1.5
G01 X93.6 Y1.6
G01 X93.4 Y1.8
G01 X93.1 Y2.0
G01 X92.8 Y2.2
G01 X92.5 Y2.5
G01 X92.2 Y2.7
G01 X91.9 Y3.0
G01 X91.6 Y3.2
G01 X91.2 Y3.5
G01 X90.9 Y3.9
G01 X90.5 Y4.2
G01 X90.2 Y4.5
G01 X89.5 Y5.1
G01 X88.9 Y5.8
G01 X88.2 Y6.4
G01 X88.9 Y13.6
G01 X81.2 Y10.7
G01 X79.1 Y19.4
G01 X74.7 Y15.8
G01 X74.7 Y16.1
G01 X74.7 Y16.4
G01 X74.7 Y16.7
G01 X74.8 Y17.0
G01 X74.8 Y17.2
G01 X74.9 Y17.5
G01 X74.9 Y17.7
G01 X75.0 Y18.0
G01 X75.1 Y18.2
G01 X75.1 Y18.4
G01 X75.2 Y18.7
G01 X75.3 Y18.9
G01 X75.4 Y19.1
G01 X75.4 Y19.3
G01 X75.5 Y19.5
G01 X75.6 Y19.8
G01 X75.7 Y20.0
G01 X75.9 Y20.2
G01 X76.0 Y20.4
G01 X76.1 Y20.6
G01 X76.2 Y20.8
G01 X76.4 Y21.0
G01 X76.5 Y21.1
G01 X76.7 Y21.3
G01 X76.8 Y21.5
G01 X77.0 Y21.7
G01 X77.1 Y21.8
G01 X77.3 Y22.0
G01 X77.5 Y22.1
G01 X77.6 Y22.3
G01 X77.8 Y22.4
G01 X78.0 Y22.6
G01 X78.2 Y22.7
G01 X78.4 Y22.8
G01 X78.6 Y22.9
G01 X78.8 Y23.1
G01 X79.0 Y23.2
G01 X79.2 Y23.3
G01 X79.4 Y23.4
G01 X79.7 Y23.5
G01 X79.9 Y23.7
G01 X80.1 Y23.8
G01 X80.4 Y23.9
G01 X80.6 Y24.0
G01 X81.0 Y24.1
G01 X81.3 Y24.2
G01 X81.6 Y24.3
G01 X82.0 Y24.4
G01 X82.3 Y24.5
G01 X82.7 Y24.6
G01 X83.1 Y24.7
G01 X83.4 Y24.8
G01 X83.8 Y24.9
G01 X84.4 Y25.0
G01 X85.0 Y25.2
G01 X86.3 Y25.4
G01 X88.3 Y25.8
G01 X89.2 Y26.0
G01 X86.1 Y31.2
G01 X86.5 Y31.8
G01 X98.0 Y23.2
G01 X108.0 Y31.7
G01 X97.3 Y25.5
G01 X96.9 Y25.9
G01 X96.5 Y26.3
G01 X96.1 Y26.7
G01 X95.6 Y27.1
G01 X95.2 Y27.5
G01 X94.7 Y27.8
G01 X94.3 Y28.2
G01 X93.8 Y28.5
G01 X93.4 Y28.8
G01 X92.9 Y29.2
G01 X92.4 Y29.5
G01 X91.8 Y29.9
G01 X91.3 Y30.2
G01 X90.8 Y30.5
G01 X90.2 Y30.9
G01 X89.6 Y31.2
G01 X89.1 Y31.5
G01 X88.5 Y31.8
G01 X87.9 Y32.1
G01 X87.3 Y32.3
G01 X86.7 Y32.6
G01 X86.1 Y32.9
G01 X85.3 Y33.2
G01 X84.5 Y33.6
G01 X83.7 Y33.9
G01 X82.8 Y34.2
G01 X82.0 Y34.5
G01 X81.2 Y34.8
G01 X80.3 Y35.1
G01 X79.4 Y35.4
G01 X78.6 Y35.7
G01 X77.2 Y36.1
G01 X75.9 Y36.5
G01 X74.4 Y36.9
G01 X72.9 Y37.3
G01 X70.0 Y38.1
G01 X67.2 Y38.9
G01 X76.4 Y42.7
G01 X74.4 Y42.8
G01 X71.3 Y43.0
G01 X69.3 Y43.1
G01 X68.2 Y43.1
G01 X67.1 Y43.2
G01 X66.0 Y43.3
G01 X65.3 Y43.3
G01 X64.6 Y43.4
G01 X63.9 Y43.5
G01 X63.2 Y43.5
G01 X62.6 Y43.6
G01 X62.0 Y43.7
G01 X61.4 Y43.8
G01 X60.7 Y43.9
G01 X60.2 Y43.9
G01 X59.7 Y44.0
G01 X59.2 Y44.1
G01 X58.7 Y44.2
G01 X58.1 Y44.3
G01 X57.6 Y44.5
G01 X57.1 Y44.6
G01 X56.5 Y44.7
G01 X55.9 Y44.9
G01 X55.3 Y45.0
G01 X54.7 Y45.2
G01 X54.1 Y45.4
G01 X53.2 Y45.6
G01 X52.4 Y45.9
G01 X51.5 Y46.2
G01 X49.6 Y46.8
G01 X46.7 Y47.7
G01 X45.4 Y48.1
F60
G01 Z3.0
G00 Z15.0
M9 M5
G00 X0.0 Y0.0
M2 (Program end)